(G-CODE GENERATED BY FLATCAM v8.991 - www.flatcam.org - Version Date: 2019/12/27)

(Name: Contour_cutout_cnc)
(Type: G-code from Geometry)
(Units: MM)

(Created on Friday, 22 August 2025 at 18:06)

(TOOL DIAMETER: 2.0 mm)
(Feedrate: 200.0 mm/min)
(Feedrate_Z: 100.0 mm/min)
(Feedrate rapids 1500.0 mm/min)

(Z_Cut: -10.2 mm)
(DepthPerCut: 1.2 mm <=>9 passes)
(Z_Move: 2.0 mm)
(Z Toolchange: 15.0 mm)
(X,Y Toolchange: 0.00, 0.00 mm)
(Z Start: None mm)
(Z End: 5.0 mm)
(Steps per circle: 64)
(Preprocessor Geometry: default)

(X range:    9.3748 ...  150.5748  mm)
(Y range:    8.5390 ...  110.5070  mm)

(Spindle Speed: 8000 RPM)
G21
G90
G94




G01 F200.00
G00 Z2.0000

M03 S8000
G00 X9.3997 Y107.1793
G01 F100.00
G01 Z-1.2000
G01 F200.00
G01 X9.3875 Y107.2408
G01 X9.3861 Y107.2505
G01 X9.3764 Y107.3481
G01 X9.3760 Y107.3579
G01 X9.3760 Y107.4561
G01 X9.3764 Y107.4659
G01 X9.3861 Y107.5635
G01 X9.3875 Y107.5732
G01 X9.4066 Y107.6695
G01 X9.4090 Y107.6790
G01 X9.4375 Y107.7729
G01 X9.4408 Y107.7822
G01 X9.4784 Y107.8728
G01 X9.4826 Y107.8817
G01 X9.5288 Y107.9683
G01 X9.5339 Y107.9767
G01 X9.5884 Y108.0583
G01 X9.5943 Y108.0662
G01 X9.6565 Y108.1420
G01 X9.6631 Y108.1493
G01 X9.6969 Y108.1849
G01 X11.6969 Y110.1849
G01 X11.7398 Y110.2253
G01 X11.8156 Y110.2875
G01 X11.8235 Y110.2934
G01 X11.9051 Y110.3479
G01 X11.9135 Y110.3530
G01 X12.0001 Y110.3992
G01 X12.0090 Y110.4034
G01 X12.0996 Y110.4410
G01 X12.1089 Y110.4443
G01 X12.2028 Y110.4728
G01 X12.2123 Y110.4752
G01 X12.3086 Y110.4943
G01 X12.3183 Y110.4957
G01 X12.4159 Y110.5054
G01 X12.4748 Y110.5070
G01 X147.4748 Y110.5070
G01 X147.5337 Y110.5054
G01 X147.6313 Y110.4957
G01 X147.6410 Y110.4943
G01 X147.7373 Y110.4752
G01 X147.7468 Y110.4728
G01 X147.8407 Y110.4443
G01 X147.8500 Y110.4410
G01 X147.9406 Y110.4034
G01 X147.9495 Y110.3992
G01 X148.0361 Y110.3530
G01 X148.0445 Y110.3479
G01 X148.1261 Y110.2934
G01 X148.1340 Y110.2875
G01 X148.2098 Y110.2253
G01 X148.2527 Y110.1849
G01 X150.2527 Y108.1849
G01 X150.2931 Y108.1420
G01 X150.3553 Y108.0662
G01 X150.3612 Y108.0583
G01 X150.4157 Y107.9767
G01 X150.4208 Y107.9683
G01 X150.4670 Y107.8817
G01 X150.4712 Y107.8728
G01 X150.5088 Y107.7822
G01 X150.5121 Y107.7729
G01 X150.5406 Y107.6790
G01 X150.5430 Y107.6695
G01 X150.5621 Y107.5732
G01 X150.5635 Y107.5635
G01 X150.5732 Y107.4659
G01 X150.5748 Y107.4067
G01 X150.5499 Y11.8667
G01 X150.5621 Y11.8052
G01 X150.5635 Y11.7955
G01 X150.5732 Y11.6979
G01 X150.5736 Y11.6881
G01 X150.5736 Y11.5899
G01 X150.5732 Y11.5801
G01 X150.5635 Y11.4825
G01 X150.5621 Y11.4728
G01 X150.5430 Y11.3765
G01 X150.5406 Y11.3670
G01 X150.5121 Y11.2731
G01 X150.5088 Y11.2638
G01 X150.4712 Y11.1732
G01 X150.4670 Y11.1643
G01 X150.4208 Y11.0777
G01 X150.4157 Y11.0693
G01 X150.3612 Y10.9877
G01 X150.3553 Y10.9798
G01 X150.2931 Y10.9040
G01 X150.2527 Y10.8611
G01 X148.2527 Y8.8611
G01 X148.2098 Y8.8207
G01 X148.1340 Y8.7585
G01 X148.1261 Y8.7526
G01 X148.0445 Y8.6981
G01 X148.0361 Y8.6930
G01 X147.9495 Y8.6468
G01 X147.9406 Y8.6426
G01 X147.8500 Y8.6050
G01 X147.8407 Y8.6017
G01 X147.7468 Y8.5732
G01 X147.7373 Y8.5708
G01 X147.6410 Y8.5517
G01 X147.6313 Y8.5503
G01 X147.5337 Y8.5406
G01 X147.4748 Y8.5390
G01 X12.4748 Y8.5390
G01 X12.4159 Y8.5406
G01 X12.3183 Y8.5503
G01 X12.3086 Y8.5517
G01 X12.2123 Y8.5708
G01 X12.2028 Y8.5732
G01 X12.1089 Y8.6017
G01 X12.0996 Y8.6050
G01 X12.0090 Y8.6426
G01 X12.0001 Y8.6468
G01 X11.9135 Y8.6930
G01 X11.9051 Y8.6981
G01 X11.8235 Y8.7526
G01 X11.8156 Y8.7585
G01 X11.7398 Y8.8207
G01 X11.6969 Y8.8611
G01 X9.6969 Y10.8611
G01 X9.6565 Y10.9040
G01 X9.5943 Y10.9798
G01 X9.5884 Y10.9877
G01 X9.5339 Y11.0693
G01 X9.5288 Y11.0777
G01 X9.4826 Y11.1643
G01 X9.4784 Y11.1732
G01 X9.4408 Y11.2638
G01 X9.4375 Y11.2731
G01 X9.4090 Y11.3670
G01 X9.4066 Y11.3765
G01 X9.3875 Y11.4728
G01 X9.3861 Y11.4825
G01 X9.3764 Y11.5801
G01 X9.3760 Y11.5899
G01 X9.3748 Y11.6393
G01 X9.3997 Y107.1793
G00 X9.3997 Y107.1793
G01 F100.00
G01 Z-2.4000
G01 F200.00
G01 X9.3875 Y107.2408
G01 X9.3861 Y107.2505
G01 X9.3764 Y107.3481
G01 X9.3760 Y107.3579
G01 X9.3760 Y107.4561
G01 X9.3764 Y107.4659
G01 X9.3861 Y107.5635
G01 X9.3875 Y107.5732
G01 X9.4066 Y107.6695
G01 X9.4090 Y107.6790
G01 X9.4375 Y107.7729
G01 X9.4408 Y107.7822
G01 X9.4784 Y107.8728
G01 X9.4826 Y107.8817
G01 X9.5288 Y107.9683
G01 X9.5339 Y107.9767
G01 X9.5884 Y108.0583
G01 X9.5943 Y108.0662
G01 X9.6565 Y108.1420
G01 X9.6631 Y108.1493
G01 X9.6969 Y108.1849
G01 X11.6969 Y110.1849
G01 X11.7398 Y110.2253
G01 X11.8156 Y110.2875
G01 X11.8235 Y110.2934
G01 X11.9051 Y110.3479
G01 X11.9135 Y110.3530
G01 X12.0001 Y110.3992
G01 X12.0090 Y110.4034
G01 X12.0996 Y110.4410
G01 X12.1089 Y110.4443
G01 X12.2028 Y110.4728
G01 X12.2123 Y110.4752
G01 X12.3086 Y110.4943
G01 X12.3183 Y110.4957
G01 X12.4159 Y110.5054
G01 X12.4748 Y110.5070
G01 X147.4748 Y110.5070
G01 X147.5337 Y110.5054
G01 X147.6313 Y110.4957
G01 X147.6410 Y110.4943
G01 X147.7373 Y110.4752
G01 X147.7468 Y110.4728
G01 X147.8407 Y110.4443
G01 X147.8500 Y110.4410
G01 X147.9406 Y110.4034
G01 X147.9495 Y110.3992
G01 X148.0361 Y110.3530
G01 X148.0445 Y110.3479
G01 X148.1261 Y110.2934
G01 X148.1340 Y110.2875
G01 X148.2098 Y110.2253
G01 X148.2527 Y110.1849
G01 X150.2527 Y108.1849
G01 X150.2931 Y108.1420
G01 X150.3553 Y108.0662
G01 X150.3612 Y108.0583
G01 X150.4157 Y107.9767
G01 X150.4208 Y107.9683
G01 X150.4670 Y107.8817
G01 X150.4712 Y107.8728
G01 X150.5088 Y107.7822
G01 X150.5121 Y107.7729
G01 X150.5406 Y107.6790
G01 X150.5430 Y107.6695
G01 X150.5621 Y107.5732
G01 X150.5635 Y107.5635
G01 X150.5732 Y107.4659
G01 X150.5748 Y107.4067
G01 X150.5499 Y11.8667
G01 X150.5621 Y11.8052
G01 X150.5635 Y11.7955
G01 X150.5732 Y11.6979
G01 X150.5736 Y11.6881
G01 X150.5736 Y11.5899
G01 X150.5732 Y11.5801
G01 X150.5635 Y11.4825
G01 X150.5621 Y11.4728
G01 X150.5430 Y11.3765
G01 X150.5406 Y11.3670
G01 X150.5121 Y11.2731
G01 X150.5088 Y11.2638
G01 X150.4712 Y11.1732
G01 X150.4670 Y11.1643
G01 X150.4208 Y11.0777
G01 X150.4157 Y11.0693
G01 X150.3612 Y10.9877
G01 X150.3553 Y10.9798
G01 X150.2931 Y10.9040
G01 X150.2527 Y10.8611
G01 X148.2527 Y8.8611
G01 X148.2098 Y8.8207
G01 X148.1340 Y8.7585
G01 X148.1261 Y8.7526
G01 X148.0445 Y8.6981
G01 X148.0361 Y8.6930
G01 X147.9495 Y8.6468
G01 X147.9406 Y8.6426
G01 X147.8500 Y8.6050
G01 X147.8407 Y8.6017
G01 X147.7468 Y8.5732
G01 X147.7373 Y8.5708
G01 X147.6410 Y8.5517
G01 X147.6313 Y8.5503
G01 X147.5337 Y8.5406
G01 X147.4748 Y8.5390
G01 X12.4748 Y8.5390
G01 X12.4159 Y8.5406
G01 X12.3183 Y8.5503
G01 X12.3086 Y8.5517
G01 X12.2123 Y8.5708
G01 X12.2028 Y8.5732
G01 X12.1089 Y8.6017
G01 X12.0996 Y8.6050
G01 X12.0090 Y8.6426
G01 X12.0001 Y8.6468
G01 X11.9135 Y8.6930
G01 X11.9051 Y8.6981
G01 X11.8235 Y8.7526
G01 X11.8156 Y8.7585
G01 X11.7398 Y8.8207
G01 X11.6969 Y8.8611
G01 X9.6969 Y10.8611
G01 X9.6565 Y10.9040
G01 X9.5943 Y10.9798
G01 X9.5884 Y10.9877
G01 X9.5339 Y11.0693
G01 X9.5288 Y11.0777
G01 X9.4826 Y11.1643
G01 X9.4784 Y11.1732
G01 X9.4408 Y11.2638
G01 X9.4375 Y11.2731
G01 X9.4090 Y11.3670
G01 X9.4066 Y11.3765
G01 X9.3875 Y11.4728
G01 X9.3861 Y11.4825
G01 X9.3764 Y11.5801
G01 X9.3760 Y11.5899
G01 X9.3748 Y11.6393
G01 X9.3997 Y107.1793
G00 X9.3997 Y107.1793
G01 F100.00
G01 Z-3.6000
G01 F200.00
G01 X9.3875 Y107.2408
G01 X9.3861 Y107.2505
G01 X9.3764 Y107.3481
G01 X9.3760 Y107.3579
G01 X9.3760 Y107.4561
G01 X9.3764 Y107.4659
G01 X9.3861 Y107.5635
G01 X9.3875 Y107.5732
G01 X9.4066 Y107.6695
G01 X9.4090 Y107.6790
G01 X9.4375 Y107.7729
G01 X9.4408 Y107.7822
G01 X9.4784 Y107.8728
G01 X9.4826 Y107.8817
G01 X9.5288 Y107.9683
G01 X9.5339 Y107.9767
G01 X9.5884 Y108.0583
G01 X9.5943 Y108.0662
G01 X9.6565 Y108.1420
G01 X9.6631 Y108.1493
G01 X9.6969 Y108.1849
G01 X11.6969 Y110.1849
G01 X11.7398 Y110.2253
G01 X11.8156 Y110.2875
G01 X11.8235 Y110.2934
G01 X11.9051 Y110.3479
G01 X11.9135 Y110.3530
G01 X12.0001 Y110.3992
G01 X12.0090 Y110.4034
G01 X12.0996 Y110.4410
G01 X12.1089 Y110.4443
G01 X12.2028 Y110.4728
G01 X12.2123 Y110.4752
G01 X12.3086 Y110.4943
G01 X12.3183 Y110.4957
G01 X12.4159 Y110.5054
G01 X12.4748 Y110.5070
G01 X147.4748 Y110.5070
G01 X147.5337 Y110.5054
G01 X147.6313 Y110.4957
G01 X147.6410 Y110.4943
G01 X147.7373 Y110.4752
G01 X147.7468 Y110.4728
G01 X147.8407 Y110.4443
G01 X147.8500 Y110.4410
G01 X147.9406 Y110.4034
G01 X147.9495 Y110.3992
G01 X148.0361 Y110.3530
G01 X148.0445 Y110.3479
G01 X148.1261 Y110.2934
G01 X148.1340 Y110.2875
G01 X148.2098 Y110.2253
G01 X148.2527 Y110.1849
G01 X150.2527 Y108.1849
G01 X150.2931 Y108.1420
G01 X150.3553 Y108.0662
G01 X150.3612 Y108.0583
G01 X150.4157 Y107.9767
G01 X150.4208 Y107.9683
G01 X150.4670 Y107.8817
G01 X150.4712 Y107.8728
G01 X150.5088 Y107.7822
G01 X150.5121 Y107.7729
G01 X150.5406 Y107.6790
G01 X150.5430 Y107.6695
G01 X150.5621 Y107.5732
G01 X150.5635 Y107.5635
G01 X150.5732 Y107.4659
G01 X150.5748 Y107.4067
G01 X150.5499 Y11.8667
G01 X150.5621 Y11.8052
G01 X150.5635 Y11.7955
G01 X150.5732 Y11.6979
G01 X150.5736 Y11.6881
G01 X150.5736 Y11.5899
G01 X150.5732 Y11.5801
G01 X150.5635 Y11.4825
G01 X150.5621 Y11.4728
G01 X150.5430 Y11.3765
G01 X150.5406 Y11.3670
G01 X150.5121 Y11.2731
G01 X150.5088 Y11.2638
G01 X150.4712 Y11.1732
G01 X150.4670 Y11.1643
G01 X150.4208 Y11.0777
G01 X150.4157 Y11.0693
G01 X150.3612 Y10.9877
G01 X150.3553 Y10.9798
G01 X150.2931 Y10.9040
G01 X150.2527 Y10.8611
G01 X148.2527 Y8.8611
G01 X148.2098 Y8.8207
G01 X148.1340 Y8.7585
G01 X148.1261 Y8.7526
G01 X148.0445 Y8.6981
G01 X148.0361 Y8.6930
G01 X147.9495 Y8.6468
G01 X147.9406 Y8.6426
G01 X147.8500 Y8.6050
G01 X147.8407 Y8.6017
G01 X147.7468 Y8.5732
G01 X147.7373 Y8.5708
G01 X147.6410 Y8.5517
G01 X147.6313 Y8.5503
G01 X147.5337 Y8.5406
G01 X147.4748 Y8.5390
G01 X12.4748 Y8.5390
G01 X12.4159 Y8.5406
G01 X12.3183 Y8.5503
G01 X12.3086 Y8.5517
G01 X12.2123 Y8.5708
G01 X12.2028 Y8.5732
G01 X12.1089 Y8.6017
G01 X12.0996 Y8.6050
G01 X12.0090 Y8.6426
G01 X12.0001 Y8.6468
G01 X11.9135 Y8.6930
G01 X11.9051 Y8.6981
G01 X11.8235 Y8.7526
G01 X11.8156 Y8.7585
G01 X11.7398 Y8.8207
G01 X11.6969 Y8.8611
G01 X9.6969 Y10.8611
G01 X9.6565 Y10.9040
G01 X9.5943 Y10.9798
G01 X9.5884 Y10.9877
G01 X9.5339 Y11.0693
G01 X9.5288 Y11.0777
G01 X9.4826 Y11.1643
G01 X9.4784 Y11.1732
G01 X9.4408 Y11.2638
G01 X9.4375 Y11.2731
G01 X9.4090 Y11.3670
G01 X9.4066 Y11.3765
G01 X9.3875 Y11.4728
G01 X9.3861 Y11.4825
G01 X9.3764 Y11.5801
G01 X9.3760 Y11.5899
G01 X9.3748 Y11.6393
G01 X9.3997 Y107.1793
G00 X9.3997 Y107.1793
G01 F100.00
G01 Z-4.8000
G01 F200.00
G01 X9.3875 Y107.2408
G01 X9.3861 Y107.2505
G01 X9.3764 Y107.3481
G01 X9.3760 Y107.3579
G01 X9.3760 Y107.4561
G01 X9.3764 Y107.4659
G01 X9.3861 Y107.5635
G01 X9.3875 Y107.5732
G01 X9.4066 Y107.6695
G01 X9.4090 Y107.6790
G01 X9.4375 Y107.7729
G01 X9.4408 Y107.7822
G01 X9.4784 Y107.8728
G01 X9.4826 Y107.8817
G01 X9.5288 Y107.9683
G01 X9.5339 Y107.9767
G01 X9.5884 Y108.0583
G01 X9.5943 Y108.0662
G01 X9.6565 Y108.1420
G01 X9.6631 Y108.1493
G01 X9.6969 Y108.1849
G01 X11.6969 Y110.1849
G01 X11.7398 Y110.2253
G01 X11.8156 Y110.2875
G01 X11.8235 Y110.2934
G01 X11.9051 Y110.3479
G01 X11.9135 Y110.3530
G01 X12.0001 Y110.3992
G01 X12.0090 Y110.4034
G01 X12.0996 Y110.4410
G01 X12.1089 Y110.4443
G01 X12.2028 Y110.4728
G01 X12.2123 Y110.4752
G01 X12.3086 Y110.4943
G01 X12.3183 Y110.4957
G01 X12.4159 Y110.5054
G01 X12.4748 Y110.5070
G01 X147.4748 Y110.5070
G01 X147.5337 Y110.5054
G01 X147.6313 Y110.4957
G01 X147.6410 Y110.4943
G01 X147.7373 Y110.4752
G01 X147.7468 Y110.4728
G01 X147.8407 Y110.4443
G01 X147.8500 Y110.4410
G01 X147.9406 Y110.4034
G01 X147.9495 Y110.3992
G01 X148.0361 Y110.3530
G01 X148.0445 Y110.3479
G01 X148.1261 Y110.2934
G01 X148.1340 Y110.2875
G01 X148.2098 Y110.2253
G01 X148.2527 Y110.1849
G01 X150.2527 Y108.1849
G01 X150.2931 Y108.1420
G01 X150.3553 Y108.0662
G01 X150.3612 Y108.0583
G01 X150.4157 Y107.9767
G01 X150.4208 Y107.9683
G01 X150.4670 Y107.8817
G01 X150.4712 Y107.8728
G01 X150.5088 Y107.7822
G01 X150.5121 Y107.7729
G01 X150.5406 Y107.6790
G01 X150.5430 Y107.6695
G01 X150.5621 Y107.5732
G01 X150.5635 Y107.5635
G01 X150.5732 Y107.4659
G01 X150.5748 Y107.4067
G01 X150.5499 Y11.8667
G01 X150.5621 Y11.8052
G01 X150.5635 Y11.7955
G01 X150.5732 Y11.6979
G01 X150.5736 Y11.6881
G01 X150.5736 Y11.5899
G01 X150.5732 Y11.5801
G01 X150.5635 Y11.4825
G01 X150.5621 Y11.4728
G01 X150.5430 Y11.3765
G01 X150.5406 Y11.3670
G01 X150.5121 Y11.2731
G01 X150.5088 Y11.2638
G01 X150.4712 Y11.1732
G01 X150.4670 Y11.1643
G01 X150.4208 Y11.0777
G01 X150.4157 Y11.0693
G01 X150.3612 Y10.9877
G01 X150.3553 Y10.9798
G01 X150.2931 Y10.9040
G01 X150.2527 Y10.8611
G01 X148.2527 Y8.8611
G01 X148.2098 Y8.8207
G01 X148.1340 Y8.7585
G01 X148.1261 Y8.7526
G01 X148.0445 Y8.6981
G01 X148.0361 Y8.6930
G01 X147.9495 Y8.6468
G01 X147.9406 Y8.6426
G01 X147.8500 Y8.6050
G01 X147.8407 Y8.6017
G01 X147.7468 Y8.5732
G01 X147.7373 Y8.5708
G01 X147.6410 Y8.5517
G01 X147.6313 Y8.5503
G01 X147.5337 Y8.5406
G01 X147.4748 Y8.5390
G01 X12.4748 Y8.5390
G01 X12.4159 Y8.5406
G01 X12.3183 Y8.5503
G01 X12.3086 Y8.5517
G01 X12.2123 Y8.5708
G01 X12.2028 Y8.5732
G01 X12.1089 Y8.6017
G01 X12.0996 Y8.6050
G01 X12.0090 Y8.6426
G01 X12.0001 Y8.6468
G01 X11.9135 Y8.6930
G01 X11.9051 Y8.6981
G01 X11.8235 Y8.7526
G01 X11.8156 Y8.7585
G01 X11.7398 Y8.8207
G01 X11.6969 Y8.8611
G01 X9.6969 Y10.8611
G01 X9.6565 Y10.9040
G01 X9.5943 Y10.9798
G01 X9.5884 Y10.9877
G01 X9.5339 Y11.0693
G01 X9.5288 Y11.0777
G01 X9.4826 Y11.1643
G01 X9.4784 Y11.1732
G01 X9.4408 Y11.2638
G01 X9.4375 Y11.2731
G01 X9.4090 Y11.3670
G01 X9.4066 Y11.3765
G01 X9.3875 Y11.4728
G01 X9.3861 Y11.4825
G01 X9.3764 Y11.5801
G01 X9.3760 Y11.5899
G01 X9.3748 Y11.6393
G01 X9.3997 Y107.1793
G00 X9.3997 Y107.1793
G01 F100.00
G01 Z-6.0000
G01 F200.00
G01 X9.3875 Y107.2408
G01 X9.3861 Y107.2505
G01 X9.3764 Y107.3481
G01 X9.3760 Y107.3579
G01 X9.3760 Y107.4561
G01 X9.3764 Y107.4659
G01 X9.3861 Y107.5635
G01 X9.3875 Y107.5732
G01 X9.4066 Y107.6695
G01 X9.4090 Y107.6790
G01 X9.4375 Y107.7729
G01 X9.4408 Y107.7822
G01 X9.4784 Y107.8728
G01 X9.4826 Y107.8817
G01 X9.5288 Y107.9683
G01 X9.5339 Y107.9767
G01 X9.5884 Y108.0583
G01 X9.5943 Y108.0662
G01 X9.6565 Y108.1420
G01 X9.6631 Y108.1493
G01 X9.6969 Y108.1849
G01 X11.6969 Y110.1849
G01 X11.7398 Y110.2253
G01 X11.8156 Y110.2875
G01 X11.8235 Y110.2934
G01 X11.9051 Y110.3479
G01 X11.9135 Y110.3530
G01 X12.0001 Y110.3992
G01 X12.0090 Y110.4034
G01 X12.0996 Y110.4410
G01 X12.1089 Y110.4443
G01 X12.2028 Y110.4728
G01 X12.2123 Y110.4752
G01 X12.3086 Y110.4943
G01 X12.3183 Y110.4957
G01 X12.4159 Y110.5054
G01 X12.4748 Y110.5070
G01 X147.4748 Y110.5070
G01 X147.5337 Y110.5054
G01 X147.6313 Y110.4957
G01 X147.6410 Y110.4943
G01 X147.7373 Y110.4752
G01 X147.7468 Y110.4728
G01 X147.8407 Y110.4443
G01 X147.8500 Y110.4410
G01 X147.9406 Y110.4034
G01 X147.9495 Y110.3992
G01 X148.0361 Y110.3530
G01 X148.0445 Y110.3479
G01 X148.1261 Y110.2934
G01 X148.1340 Y110.2875
G01 X148.2098 Y110.2253
G01 X148.2527 Y110.1849
G01 X150.2527 Y108.1849
G01 X150.2931 Y108.1420
G01 X150.3553 Y108.0662
G01 X150.3612 Y108.0583
G01 X150.4157 Y107.9767
G01 X150.4208 Y107.9683
G01 X150.4670 Y107.8817
G01 X150.4712 Y107.8728
G01 X150.5088 Y107.7822
G01 X150.5121 Y107.7729
G01 X150.5406 Y107.6790
G01 X150.5430 Y107.6695
G01 X150.5621 Y107.5732
G01 X150.5635 Y107.5635
G01 X150.5732 Y107.4659
G01 X150.5748 Y107.4067
G01 X150.5499 Y11.8667
G01 X150.5621 Y11.8052
G01 X150.5635 Y11.7955
G01 X150.5732 Y11.6979
G01 X150.5736 Y11.6881
G01 X150.5736 Y11.5899
G01 X150.5732 Y11.5801
G01 X150.5635 Y11.4825
G01 X150.5621 Y11.4728
G01 X150.5430 Y11.3765
G01 X150.5406 Y11.3670
G01 X150.5121 Y11.2731
G01 X150.5088 Y11.2638
G01 X150.4712 Y11.1732
G01 X150.4670 Y11.1643
G01 X150.4208 Y11.0777
G01 X150.4157 Y11.0693
G01 X150.3612 Y10.9877
G01 X150.3553 Y10.9798
G01 X150.2931 Y10.9040
G01 X150.2527 Y10.8611
G01 X148.2527 Y8.8611
G01 X148.2098 Y8.8207
G01 X148.1340 Y8.7585
G01 X148.1261 Y8.7526
G01 X148.0445 Y8.6981
G01 X148.0361 Y8.6930
G01 X147.9495 Y8.6468
G01 X147.9406 Y8.6426
G01 X147.8500 Y8.6050
G01 X147.8407 Y8.6017
G01 X147.7468 Y8.5732
G01 X147.7373 Y8.5708
G01 X147.6410 Y8.5517
G01 X147.6313 Y8.5503
G01 X147.5337 Y8.5406
G01 X147.4748 Y8.5390
G01 X12.4748 Y8.5390
G01 X12.4159 Y8.5406
G01 X12.3183 Y8.5503
G01 X12.3086 Y8.5517
G01 X12.2123 Y8.5708
G01 X12.2028 Y8.5732
G01 X12.1089 Y8.6017
G01 X12.0996 Y8.6050
G01 X12.0090 Y8.6426
G01 X12.0001 Y8.6468
G01 X11.9135 Y8.6930
G01 X11.9051 Y8.6981
G01 X11.8235 Y8.7526
G01 X11.8156 Y8.7585
G01 X11.7398 Y8.8207
G01 X11.6969 Y8.8611
G01 X9.6969 Y10.8611
G01 X9.6565 Y10.9040
G01 X9.5943 Y10.9798
G01 X9.5884 Y10.9877
G01 X9.5339 Y11.0693
G01 X9.5288 Y11.0777
G01 X9.4826 Y11.1643
G01 X9.4784 Y11.1732
G01 X9.4408 Y11.2638
G01 X9.4375 Y11.2731
G01 X9.4090 Y11.3670
G01 X9.4066 Y11.3765
G01 X9.3875 Y11.4728
G01 X9.3861 Y11.4825
G01 X9.3764 Y11.5801
G01 X9.3760 Y11.5899
G01 X9.3748 Y11.6393
G01 X9.3997 Y107.1793
G00 X9.3997 Y107.1793
G01 F100.00
G01 Z-7.2000
G01 F200.00
G01 X9.3875 Y107.2408
G01 X9.3861 Y107.2505
G01 X9.3764 Y107.3481
G01 X9.3760 Y107.3579
G01 X9.3760 Y107.4561
G01 X9.3764 Y107.4659
G01 X9.3861 Y107.5635
G01 X9.3875 Y107.5732
G01 X9.4066 Y107.6695
G01 X9.4090 Y107.6790
G01 X9.4375 Y107.7729
G01 X9.4408 Y107.7822
G01 X9.4784 Y107.8728
G01 X9.4826 Y107.8817
G01 X9.5288 Y107.9683
G01 X9.5339 Y107.9767
G01 X9.5884 Y108.0583
G01 X9.5943 Y108.0662
G01 X9.6565 Y108.1420
G01 X9.6631 Y108.1493
G01 X9.6969 Y108.1849
G01 X11.6969 Y110.1849
G01 X11.7398 Y110.2253
G01 X11.8156 Y110.2875
G01 X11.8235 Y110.2934
G01 X11.9051 Y110.3479
G01 X11.9135 Y110.3530
G01 X12.0001 Y110.3992
G01 X12.0090 Y110.4034
G01 X12.0996 Y110.4410
G01 X12.1089 Y110.4443
G01 X12.2028 Y110.4728
G01 X12.2123 Y110.4752
G01 X12.3086 Y110.4943
G01 X12.3183 Y110.4957
G01 X12.4159 Y110.5054
G01 X12.4748 Y110.5070
G01 X147.4748 Y110.5070
G01 X147.5337 Y110.5054
G01 X147.6313 Y110.4957
G01 X147.6410 Y110.4943
G01 X147.7373 Y110.4752
G01 X147.7468 Y110.4728
G01 X147.8407 Y110.4443
G01 X147.8500 Y110.4410
G01 X147.9406 Y110.4034
G01 X147.9495 Y110.3992
G01 X148.0361 Y110.3530
G01 X148.0445 Y110.3479
G01 X148.1261 Y110.2934
G01 X148.1340 Y110.2875
G01 X148.2098 Y110.2253
G01 X148.2527 Y110.1849
G01 X150.2527 Y108.1849
G01 X150.2931 Y108.1420
G01 X150.3553 Y108.0662
G01 X150.3612 Y108.0583
G01 X150.4157 Y107.9767
G01 X150.4208 Y107.9683
G01 X150.4670 Y107.8817
G01 X150.4712 Y107.8728
G01 X150.5088 Y107.7822
G01 X150.5121 Y107.7729
G01 X150.5406 Y107.6790
G01 X150.5430 Y107.6695
G01 X150.5621 Y107.5732
G01 X150.5635 Y107.5635
G01 X150.5732 Y107.4659
G01 X150.5748 Y107.4067
G01 X150.5499 Y11.8667
G01 X150.5621 Y11.8052
G01 X150.5635 Y11.7955
G01 X150.5732 Y11.6979
G01 X150.5736 Y11.6881
G01 X150.5736 Y11.5899
G01 X150.5732 Y11.5801
G01 X150.5635 Y11.4825
G01 X150.5621 Y11.4728
G01 X150.5430 Y11.3765
G01 X150.5406 Y11.3670
G01 X150.5121 Y11.2731
G01 X150.5088 Y11.2638
G01 X150.4712 Y11.1732
G01 X150.4670 Y11.1643
G01 X150.4208 Y11.0777
G01 X150.4157 Y11.0693
G01 X150.3612 Y10.9877
G01 X150.3553 Y10.9798
G01 X150.2931 Y10.9040
G01 X150.2527 Y10.8611
G01 X148.2527 Y8.8611
G01 X148.2098 Y8.8207
G01 X148.1340 Y8.7585
G01 X148.1261 Y8.7526
G01 X148.0445 Y8.6981
G01 X148.0361 Y8.6930
G01 X147.9495 Y8.6468
G01 X147.9406 Y8.6426
G01 X147.8500 Y8.6050
G01 X147.8407 Y8.6017
G01 X147.7468 Y8.5732
G01 X147.7373 Y8.5708
G01 X147.6410 Y8.5517
G01 X147.6313 Y8.5503
G01 X147.5337 Y8.5406
G01 X147.4748 Y8.5390
G01 X12.4748 Y8.5390
G01 X12.4159 Y8.5406
G01 X12.3183 Y8.5503
G01 X12.3086 Y8.5517
G01 X12.2123 Y8.5708
G01 X12.2028 Y8.5732
G01 X12.1089 Y8.6017
G01 X12.0996 Y8.6050
G01 X12.0090 Y8.6426
G01 X12.0001 Y8.6468
G01 X11.9135 Y8.6930
G01 X11.9051 Y8.6981
G01 X11.8235 Y8.7526
G01 X11.8156 Y8.7585
G01 X11.7398 Y8.8207
G01 X11.6969 Y8.8611
G01 X9.6969 Y10.8611
G01 X9.6565 Y10.9040
G01 X9.5943 Y10.9798
G01 X9.5884 Y10.9877
G01 X9.5339 Y11.0693
G01 X9.5288 Y11.0777
G01 X9.4826 Y11.1643
G01 X9.4784 Y11.1732
G01 X9.4408 Y11.2638
G01 X9.4375 Y11.2731
G01 X9.4090 Y11.3670
G01 X9.4066 Y11.3765
G01 X9.3875 Y11.4728
G01 X9.3861 Y11.4825
G01 X9.3764 Y11.5801
G01 X9.3760 Y11.5899
G01 X9.3748 Y11.6393
G01 X9.3997 Y107.1793
G00 X9.3997 Y107.1793
G01 F100.00
G01 Z-8.4000
G01 F200.00
G01 X9.3875 Y107.2408
G01 X9.3861 Y107.2505
G01 X9.3764 Y107.3481
G01 X9.3760 Y107.3579
G01 X9.3760 Y107.4561
G01 X9.3764 Y107.4659
G01 X9.3861 Y107.5635
G01 X9.3875 Y107.5732
G01 X9.4066 Y107.6695
G01 X9.4090 Y107.6790
G01 X9.4375 Y107.7729
G01 X9.4408 Y107.7822
G01 X9.4784 Y107.8728
G01 X9.4826 Y107.8817
G01 X9.5288 Y107.9683
G01 X9.5339 Y107.9767
G01 X9.5884 Y108.0583
G01 X9.5943 Y108.0662
G01 X9.6565 Y108.1420
G01 X9.6631 Y108.1493
G01 X9.6969 Y108.1849
G01 X11.6969 Y110.1849
G01 X11.7398 Y110.2253
G01 X11.8156 Y110.2875
G01 X11.8235 Y110.2934
G01 X11.9051 Y110.3479
G01 X11.9135 Y110.3530
G01 X12.0001 Y110.3992
G01 X12.0090 Y110.4034
G01 X12.0996 Y110.4410
G01 X12.1089 Y110.4443
G01 X12.2028 Y110.4728
G01 X12.2123 Y110.4752
G01 X12.3086 Y110.4943
G01 X12.3183 Y110.4957
G01 X12.4159 Y110.5054
G01 X12.4748 Y110.5070
G01 X147.4748 Y110.5070
G01 X147.5337 Y110.5054
G01 X147.6313 Y110.4957
G01 X147.6410 Y110.4943
G01 X147.7373 Y110.4752
G01 X147.7468 Y110.4728
G01 X147.8407 Y110.4443
G01 X147.8500 Y110.4410
G01 X147.9406 Y110.4034
G01 X147.9495 Y110.3992
G01 X148.0361 Y110.3530
G01 X148.0445 Y110.3479
G01 X148.1261 Y110.2934
G01 X148.1340 Y110.2875
G01 X148.2098 Y110.2253
G01 X148.2527 Y110.1849
G01 X150.2527 Y108.1849
G01 X150.2931 Y108.1420
G01 X150.3553 Y108.0662
G01 X150.3612 Y108.0583
G01 X150.4157 Y107.9767
G01 X150.4208 Y107.9683
G01 X150.4670 Y107.8817
G01 X150.4712 Y107.8728
G01 X150.5088 Y107.7822
G01 X150.5121 Y107.7729
G01 X150.5406 Y107.6790
G01 X150.5430 Y107.6695
G01 X150.5621 Y107.5732
G01 X150.5635 Y107.5635
G01 X150.5732 Y107.4659
G01 X150.5748 Y107.4067
G01 X150.5499 Y11.8667
G01 X150.5621 Y11.8052
G01 X150.5635 Y11.7955
G01 X150.5732 Y11.6979
G01 X150.5736 Y11.6881
G01 X150.5736 Y11.5899
G01 X150.5732 Y11.5801
G01 X150.5635 Y11.4825
G01 X150.5621 Y11.4728
G01 X150.5430 Y11.3765
G01 X150.5406 Y11.3670
G01 X150.5121 Y11.2731
G01 X150.5088 Y11.2638
G01 X150.4712 Y11.1732
G01 X150.4670 Y11.1643
G01 X150.4208 Y11.0777
G01 X150.4157 Y11.0693
G01 X150.3612 Y10.9877
G01 X150.3553 Y10.9798
G01 X150.2931 Y10.9040
G01 X150.2527 Y10.8611
G01 X148.2527 Y8.8611
G01 X148.2098 Y8.8207
G01 X148.1340 Y8.7585
G01 X148.1261 Y8.7526
G01 X148.0445 Y8.6981
G01 X148.0361 Y8.6930
G01 X147.9495 Y8.6468
G01 X147.9406 Y8.6426
G01 X147.8500 Y8.6050
G01 X147.8407 Y8.6017
G01 X147.7468 Y8.5732
G01 X147.7373 Y8.5708
G01 X147.6410 Y8.5517
G01 X147.6313 Y8.5503
G01 X147.5337 Y8.5406
G01 X147.4748 Y8.5390
G01 X12.4748 Y8.5390
G01 X12.4159 Y8.5406
G01 X12.3183 Y8.5503
G01 X12.3086 Y8.5517
G01 X12.2123 Y8.5708
G01 X12.2028 Y8.5732
G01 X12.1089 Y8.6017
G01 X12.0996 Y8.6050
G01 X12.0090 Y8.6426
G01 X12.0001 Y8.6468
G01 X11.9135 Y8.6930
G01 X11.9051 Y8.6981
G01 X11.8235 Y8.7526
G01 X11.8156 Y8.7585
G01 X11.7398 Y8.8207
G01 X11.6969 Y8.8611
G01 X9.6969 Y10.8611
G01 X9.6565 Y10.9040
G01 X9.5943 Y10.9798
G01 X9.5884 Y10.9877
G01 X9.5339 Y11.0693
G01 X9.5288 Y11.0777
G01 X9.4826 Y11.1643
G01 X9.4784 Y11.1732
G01 X9.4408 Y11.2638
G01 X9.4375 Y11.2731
G01 X9.4090 Y11.3670
G01 X9.4066 Y11.3765
G01 X9.3875 Y11.4728
G01 X9.3861 Y11.4825
G01 X9.3764 Y11.5801
G01 X9.3760 Y11.5899
G01 X9.3748 Y11.6393
G01 X9.3997 Y107.1793
G00 X9.3997 Y107.1793
G01 F100.00
G01 Z-9.6000
G01 F200.00
G01 X9.3875 Y107.2408
G01 X9.3861 Y107.2505
G01 X9.3764 Y107.3481
G01 X9.3760 Y107.3579
G01 X9.3760 Y107.4561
G01 X9.3764 Y107.4659
G01 X9.3861 Y107.5635
G01 X9.3875 Y107.5732
G01 X9.4066 Y107.6695
G01 X9.4090 Y107.6790
G01 X9.4375 Y107.7729
G01 X9.4408 Y107.7822
G01 X9.4784 Y107.8728
G01 X9.4826 Y107.8817
G01 X9.5288 Y107.9683
G01 X9.5339 Y107.9767
G01 X9.5884 Y108.0583
G01 X9.5943 Y108.0662
G01 X9.6565 Y108.1420
G01 X9.6631 Y108.1493
G01 X9.6969 Y108.1849
G01 X11.6969 Y110.1849
G01 X11.7398 Y110.2253
G01 X11.8156 Y110.2875
G01 X11.8235 Y110.2934
G01 X11.9051 Y110.3479
G01 X11.9135 Y110.3530
G01 X12.0001 Y110.3992
G01 X12.0090 Y110.4034
G01 X12.0996 Y110.4410
G01 X12.1089 Y110.4443
G01 X12.2028 Y110.4728
G01 X12.2123 Y110.4752
G01 X12.3086 Y110.4943
G01 X12.3183 Y110.4957
G01 X12.4159 Y110.5054
G01 X12.4748 Y110.5070
G01 X147.4748 Y110.5070
G01 X147.5337 Y110.5054
G01 X147.6313 Y110.4957
G01 X147.6410 Y110.4943
G01 X147.7373 Y110.4752
G01 X147.7468 Y110.4728
G01 X147.8407 Y110.4443
G01 X147.8500 Y110.4410
G01 X147.9406 Y110.4034
G01 X147.9495 Y110.3992
G01 X148.0361 Y110.3530
G01 X148.0445 Y110.3479
G01 X148.1261 Y110.2934
G01 X148.1340 Y110.2875
G01 X148.2098 Y110.2253
G01 X148.2527 Y110.1849
G01 X150.2527 Y108.1849
G01 X150.2931 Y108.1420
G01 X150.3553 Y108.0662
G01 X150.3612 Y108.0583
G01 X150.4157 Y107.9767
G01 X150.4208 Y107.9683
G01 X150.4670 Y107.8817
G01 X150.4712 Y107.8728
G01 X150.5088 Y107.7822
G01 X150.5121 Y107.7729
G01 X150.5406 Y107.6790
G01 X150.5430 Y107.6695
G01 X150.5621 Y107.5732
G01 X150.5635 Y107.5635
G01 X150.5732 Y107.4659
G01 X150.5748 Y107.4067
G01 X150.5499 Y11.8667
G01 X150.5621 Y11.8052
G01 X150.5635 Y11.7955
G01 X150.5732 Y11.6979
G01 X150.5736 Y11.6881
G01 X150.5736 Y11.5899
G01 X150.5732 Y11.5801
G01 X150.5635 Y11.4825
G01 X150.5621 Y11.4728
G01 X150.5430 Y11.3765
G01 X150.5406 Y11.3670
G01 X150.5121 Y11.2731
G01 X150.5088 Y11.2638
G01 X150.4712 Y11.1732
G01 X150.4670 Y11.1643
G01 X150.4208 Y11.0777
G01 X150.4157 Y11.0693
G01 X150.3612 Y10.9877
G01 X150.3553 Y10.9798
G01 X150.2931 Y10.9040
G01 X150.2527 Y10.8611
G01 X148.2527 Y8.8611
G01 X148.2098 Y8.8207
G01 X148.1340 Y8.7585
G01 X148.1261 Y8.7526
G01 X148.0445 Y8.6981
G01 X148.0361 Y8.6930
G01 X147.9495 Y8.6468
G01 X147.9406 Y8.6426
G01 X147.8500 Y8.6050
G01 X147.8407 Y8.6017
G01 X147.7468 Y8.5732
G01 X147.7373 Y8.5708
G01 X147.6410 Y8.5517
G01 X147.6313 Y8.5503
G01 X147.5337 Y8.5406
G01 X147.4748 Y8.5390
G01 X12.4748 Y8.5390
G01 X12.4159 Y8.5406
G01 X12.3183 Y8.5503
G01 X12.3086 Y8.5517
G01 X12.2123 Y8.5708
G01 X12.2028 Y8.5732
G01 X12.1089 Y8.6017
G01 X12.0996 Y8.6050
G01 X12.0090 Y8.6426
G01 X12.0001 Y8.6468
G01 X11.9135 Y8.6930
G01 X11.9051 Y8.6981
G01 X11.8235 Y8.7526
G01 X11.8156 Y8.7585
G01 X11.7398 Y8.8207
G01 X11.6969 Y8.8611
G01 X9.6969 Y10.8611
G01 X9.6565 Y10.9040
G01 X9.5943 Y10.9798
G01 X9.5884 Y10.9877
G01 X9.5339 Y11.0693
G01 X9.5288 Y11.0777
G01 X9.4826 Y11.1643
G01 X9.4784 Y11.1732
G01 X9.4408 Y11.2638
G01 X9.4375 Y11.2731
G01 X9.4090 Y11.3670
G01 X9.4066 Y11.3765
G01 X9.3875 Y11.4728
G01 X9.3861 Y11.4825
G01 X9.3764 Y11.5801
G01 X9.3760 Y11.5899
G01 X9.3748 Y11.6393
G01 X9.3997 Y107.1793
G00 X9.3997 Y107.1793
G01 F100.00
G01 Z-10.2000
G01 F200.00
G01 X9.3875 Y107.2408
G01 X9.3861 Y107.2505
G01 X9.3764 Y107.3481
G01 X9.3760 Y107.3579
G01 X9.3760 Y107.4561
G01 X9.3764 Y107.4659
G01 X9.3861 Y107.5635
G01 X9.3875 Y107.5732
G01 X9.4066 Y107.6695
G01 X9.4090 Y107.6790
G01 X9.4375 Y107.7729
G01 X9.4408 Y107.7822
G01 X9.4784 Y107.8728
G01 X9.4826 Y107.8817
G01 X9.5288 Y107.9683
G01 X9.5339 Y107.9767
G01 X9.5884 Y108.0583
G01 X9.5943 Y108.0662
G01 X9.6565 Y108.1420
G01 X9.6631 Y108.1493
G01 X9.6969 Y108.1849
G01 X11.6969 Y110.1849
G01 X11.7398 Y110.2253
G01 X11.8156 Y110.2875
G01 X11.8235 Y110.2934
G01 X11.9051 Y110.3479
G01 X11.9135 Y110.3530
G01 X12.0001 Y110.3992
G01 X12.0090 Y110.4034
G01 X12.0996 Y110.4410
G01 X12.1089 Y110.4443
G01 X12.2028 Y110.4728
G01 X12.2123 Y110.4752
G01 X12.3086 Y110.4943
G01 X12.3183 Y110.4957
G01 X12.4159 Y110.5054
G01 X12.4748 Y110.5070
G01 X147.4748 Y110.5070
G01 X147.5337 Y110.5054
G01 X147.6313 Y110.4957
G01 X147.6410 Y110.4943
G01 X147.7373 Y110.4752
G01 X147.7468 Y110.4728
G01 X147.8407 Y110.4443
G01 X147.8500 Y110.4410
G01 X147.9406 Y110.4034
G01 X147.9495 Y110.3992
G01 X148.0361 Y110.3530
G01 X148.0445 Y110.3479
G01 X148.1261 Y110.2934
G01 X148.1340 Y110.2875
G01 X148.2098 Y110.2253
G01 X148.2527 Y110.1849
G01 X150.2527 Y108.1849
G01 X150.2931 Y108.1420
G01 X150.3553 Y108.0662
G01 X150.3612 Y108.0583
G01 X150.4157 Y107.9767
G01 X150.4208 Y107.9683
G01 X150.4670 Y107.8817
G01 X150.4712 Y107.8728
G01 X150.5088 Y107.7822
G01 X150.5121 Y107.7729
G01 X150.5406 Y107.6790
G01 X150.5430 Y107.6695
G01 X150.5621 Y107.5732
G01 X150.5635 Y107.5635
G01 X150.5732 Y107.4659
G01 X150.5748 Y107.4067
G01 X150.5499 Y11.8667
G01 X150.5621 Y11.8052
G01 X150.5635 Y11.7955
G01 X150.5732 Y11.6979
G01 X150.5736 Y11.6881
G01 X150.5736 Y11.5899
G01 X150.5732 Y11.5801
G01 X150.5635 Y11.4825
G01 X150.5621 Y11.4728
G01 X150.5430 Y11.3765
G01 X150.5406 Y11.3670
G01 X150.5121 Y11.2731
G01 X150.5088 Y11.2638
G01 X150.4712 Y11.1732
G01 X150.4670 Y11.1643
G01 X150.4208 Y11.0777
G01 X150.4157 Y11.0693
G01 X150.3612 Y10.9877
G01 X150.3553 Y10.9798
G01 X150.2931 Y10.9040
G01 X150.2527 Y10.8611
G01 X148.2527 Y8.8611
G01 X148.2098 Y8.8207
G01 X148.1340 Y8.7585
G01 X148.1261 Y8.7526
G01 X148.0445 Y8.6981
G01 X148.0361 Y8.6930
G01 X147.9495 Y8.6468
G01 X147.9406 Y8.6426
G01 X147.8500 Y8.6050
G01 X147.8407 Y8.6017
G01 X147.7468 Y8.5732
G01 X147.7373 Y8.5708
G01 X147.6410 Y8.5517
G01 X147.6313 Y8.5503
G01 X147.5337 Y8.5406
G01 X147.4748 Y8.5390
G01 X12.4748 Y8.5390
G01 X12.4159 Y8.5406
G01 X12.3183 Y8.5503
G01 X12.3086 Y8.5517
G01 X12.2123 Y8.5708
G01 X12.2028 Y8.5732
G01 X12.1089 Y8.6017
G01 X12.0996 Y8.6050
G01 X12.0090 Y8.6426
G01 X12.0001 Y8.6468
G01 X11.9135 Y8.6930
G01 X11.9051 Y8.6981
G01 X11.8235 Y8.7526
G01 X11.8156 Y8.7585
G01 X11.7398 Y8.8207
G01 X11.6969 Y8.8611
G01 X9.6969 Y10.8611
G01 X9.6565 Y10.9040
G01 X9.5943 Y10.9798
G01 X9.5884 Y10.9877
G01 X9.5339 Y11.0693
G01 X9.5288 Y11.0777
G01 X9.4826 Y11.1643
G01 X9.4784 Y11.1732
G01 X9.4408 Y11.2638
G01 X9.4375 Y11.2731
G01 X9.4090 Y11.3670
G01 X9.4066 Y11.3765
G01 X9.3875 Y11.4728
G01 X9.3861 Y11.4825
G01 X9.3764 Y11.5801
G01 X9.3760 Y11.5899
G01 X9.3748 Y11.6393
G01 X9.3997 Y107.1793
G00 Z2.0000
M05
G00 Z2.0000
G00 Z5.00
G00 X0.0 Y0.0

