(G-CODE GENERATED BY FLATCAM v8.991 - www.flatcam.org - Version Date: 2019/12/27)

(Name: Poches_int_iso_cnc)
(Type: G-code from Geometry)
(Units: MM)

(Created on Friday, 22 August 2025 at 18:20)

(TOOL DIAMETER: 2.0 mm)
(Feedrate: 200.0 mm/min)
(Feedrate_Z: 100.0 mm/min)
(Feedrate rapids 1500.0 mm/min)

(Z_Cut: -3.7 mm)
(DepthPerCut: 0.8 mm <=>5 passes)
(Z_Move: 2.0 mm)
(Z Toolchange: 15.0 mm)
(X,Y Toolchange: 0.00, 0.00 mm)
(Z Start: None mm)
(Z End: 5.0 mm)
(Steps per circle: 64)
(Preprocessor Geometry: default)

(X range:   23.8011 ...  136.1485  mm)
(Y range:   26.4653 ...   93.8127  mm)

(Spindle Speed: 8000 RPM)
G21
G90
G94




G01 F200.00
G00 Z2.0000

M03 S8000
G00 X23.8011 Y29.1390
G01 F100.00
G01 Z-0.8000
G01 F200.00
G01 X23.8140 Y28.8769
G01 X23.8525 Y28.6174
G01 X23.9163 Y28.3629
G01 X24.0047 Y28.1158
G01 X24.1168 Y27.8786
G01 X24.2517 Y27.6536
G01 X24.4080 Y27.4428
G01 X24.5842 Y27.2484
G01 X24.7786 Y27.0722
G01 X24.9894 Y26.9159
G01 X25.2144 Y26.7810
G01 X25.4516 Y26.6689
G01 X25.6987 Y26.5805
G01 X25.9532 Y26.5167
G01 X26.2127 Y26.4782
G01 X26.4748 Y26.4653
G01 X26.7369 Y26.4782
G01 X26.9964 Y26.5167
G01 X27.2509 Y26.5805
G01 X27.4980 Y26.6689
G01 X27.7352 Y26.7810
G01 X27.9602 Y26.9159
G01 X28.1710 Y27.0722
G01 X28.3654 Y27.2484
G01 X28.5416 Y27.4428
G01 X28.6979 Y27.6536
G01 X28.8328 Y27.8786
G01 X28.9449 Y28.1158
G01 X29.0333 Y28.3629
G01 X29.0971 Y28.6174
G01 X29.1356 Y28.8769
G01 X29.1485 Y29.1390
G01 X29.1356 Y29.4011
G01 X29.0971 Y29.6606
G01 X29.0333 Y29.9151
G01 X28.9449 Y30.1622
G01 X28.8328 Y30.3994
G01 X28.6979 Y30.6244
G01 X28.5416 Y30.8352
G01 X28.3654 Y31.0296
G01 X28.1710 Y31.2058
G01 X27.9602 Y31.3621
G01 X27.7352 Y31.4970
G01 X27.4980 Y31.6091
G01 X27.2509 Y31.6975
G01 X26.9964 Y31.7613
G01 X26.7369 Y31.7998
G01 X26.4748 Y31.8127
G01 X26.2127 Y31.7998
G01 X25.9532 Y31.7613
G01 X25.6987 Y31.6975
G01 X25.4516 Y31.6091
G01 X25.2144 Y31.4970
G01 X24.9894 Y31.3621
G01 X24.7786 Y31.2058
G01 X24.5842 Y31.0296
G01 X24.4080 Y30.8352
G01 X24.2517 Y30.6244
G01 X24.1168 Y30.3994
G01 X24.0047 Y30.1622
G01 X23.9163 Y29.9151
G01 X23.8525 Y29.6606
G01 X23.8140 Y29.4011
G01 X23.8011 Y29.1390
G00 X23.8011 Y29.1390
G01 F100.00
G01 Z-1.6000
G01 F200.00
G01 X23.8140 Y28.8769
G01 X23.8525 Y28.6174
G01 X23.9163 Y28.3629
G01 X24.0047 Y28.1158
G01 X24.1168 Y27.8786
G01 X24.2517 Y27.6536
G01 X24.4080 Y27.4428
G01 X24.5842 Y27.2484
G01 X24.7786 Y27.0722
G01 X24.9894 Y26.9159
G01 X25.2144 Y26.7810
G01 X25.4516 Y26.6689
G01 X25.6987 Y26.5805
G01 X25.9532 Y26.5167
G01 X26.2127 Y26.4782
G01 X26.4748 Y26.4653
G01 X26.7369 Y26.4782
G01 X26.9964 Y26.5167
G01 X27.2509 Y26.5805
G01 X27.4980 Y26.6689
G01 X27.7352 Y26.7810
G01 X27.9602 Y26.9159
G01 X28.1710 Y27.0722
G01 X28.3654 Y27.2484
G01 X28.5416 Y27.4428
G01 X28.6979 Y27.6536
G01 X28.8328 Y27.8786
G01 X28.9449 Y28.1158
G01 X29.0333 Y28.3629
G01 X29.0971 Y28.6174
G01 X29.1356 Y28.8769
G01 X29.1485 Y29.1390
G01 X29.1356 Y29.4011
G01 X29.0971 Y29.6606
G01 X29.0333 Y29.9151
G01 X28.9449 Y30.1622
G01 X28.8328 Y30.3994
G01 X28.6979 Y30.6244
G01 X28.5416 Y30.8352
G01 X28.3654 Y31.0296
G01 X28.1710 Y31.2058
G01 X27.9602 Y31.3621
G01 X27.7352 Y31.4970
G01 X27.4980 Y31.6091
G01 X27.2509 Y31.6975
G01 X26.9964 Y31.7613
G01 X26.7369 Y31.7998
G01 X26.4748 Y31.8127
G01 X26.2127 Y31.7998
G01 X25.9532 Y31.7613
G01 X25.6987 Y31.6975
G01 X25.4516 Y31.6091
G01 X25.2144 Y31.4970
G01 X24.9894 Y31.3621
G01 X24.7786 Y31.2058
G01 X24.5842 Y31.0296
G01 X24.4080 Y30.8352
G01 X24.2517 Y30.6244
G01 X24.1168 Y30.3994
G01 X24.0047 Y30.1622
G01 X23.9163 Y29.9151
G01 X23.8525 Y29.6606
G01 X23.8140 Y29.4011
G01 X23.8011 Y29.1390
G00 X23.8011 Y29.1390
G01 F100.00
G01 Z-2.4000
G01 F200.00
G01 X23.8140 Y28.8769
G01 X23.8525 Y28.6174
G01 X23.9163 Y28.3629
G01 X24.0047 Y28.1158
G01 X24.1168 Y27.8786
G01 X24.2517 Y27.6536
G01 X24.4080 Y27.4428
G01 X24.5842 Y27.2484
G01 X24.7786 Y27.0722
G01 X24.9894 Y26.9159
G01 X25.2144 Y26.7810
G01 X25.4516 Y26.6689
G01 X25.6987 Y26.5805
G01 X25.9532 Y26.5167
G01 X26.2127 Y26.4782
G01 X26.4748 Y26.4653
G01 X26.7369 Y26.4782
G01 X26.9964 Y26.5167
G01 X27.2509 Y26.5805
G01 X27.4980 Y26.6689
G01 X27.7352 Y26.7810
G01 X27.9602 Y26.9159
G01 X28.1710 Y27.0722
G01 X28.3654 Y27.2484
G01 X28.5416 Y27.4428
G01 X28.6979 Y27.6536
G01 X28.8328 Y27.8786
G01 X28.9449 Y28.1158
G01 X29.0333 Y28.3629
G01 X29.0971 Y28.6174
G01 X29.1356 Y28.8769
G01 X29.1485 Y29.1390
G01 X29.1356 Y29.4011
G01 X29.0971 Y29.6606
G01 X29.0333 Y29.9151
G01 X28.9449 Y30.1622
G01 X28.8328 Y30.3994
G01 X28.6979 Y30.6244
G01 X28.5416 Y30.8352
G01 X28.3654 Y31.0296
G01 X28.1710 Y31.2058
G01 X27.9602 Y31.3621
G01 X27.7352 Y31.4970
G01 X27.4980 Y31.6091
G01 X27.2509 Y31.6975
G01 X26.9964 Y31.7613
G01 X26.7369 Y31.7998
G01 X26.4748 Y31.8127
G01 X26.2127 Y31.7998
G01 X25.9532 Y31.7613
G01 X25.6987 Y31.6975
G01 X25.4516 Y31.6091
G01 X25.2144 Y31.4970
G01 X24.9894 Y31.3621
G01 X24.7786 Y31.2058
G01 X24.5842 Y31.0296
G01 X24.4080 Y30.8352
G01 X24.2517 Y30.6244
G01 X24.1168 Y30.3994
G01 X24.0047 Y30.1622
G01 X23.9163 Y29.9151
G01 X23.8525 Y29.6606
G01 X23.8140 Y29.4011
G01 X23.8011 Y29.1390
G00 X23.8011 Y29.1390
G01 F100.00
G01 Z-3.2000
G01 F200.00
G01 X23.8140 Y28.8769
G01 X23.8525 Y28.6174
G01 X23.9163 Y28.3629
G01 X24.0047 Y28.1158
G01 X24.1168 Y27.8786
G01 X24.2517 Y27.6536
G01 X24.4080 Y27.4428
G01 X24.5842 Y27.2484
G01 X24.7786 Y27.0722
G01 X24.9894 Y26.9159
G01 X25.2144 Y26.7810
G01 X25.4516 Y26.6689
G01 X25.6987 Y26.5805
G01 X25.9532 Y26.5167
G01 X26.2127 Y26.4782
G01 X26.4748 Y26.4653
G01 X26.7369 Y26.4782
G01 X26.9964 Y26.5167
G01 X27.2509 Y26.5805
G01 X27.4980 Y26.6689
G01 X27.7352 Y26.7810
G01 X27.9602 Y26.9159
G01 X28.1710 Y27.0722
G01 X28.3654 Y27.2484
G01 X28.5416 Y27.4428
G01 X28.6979 Y27.6536
G01 X28.8328 Y27.8786
G01 X28.9449 Y28.1158
G01 X29.0333 Y28.3629
G01 X29.0971 Y28.6174
G01 X29.1356 Y28.8769
G01 X29.1485 Y29.1390
G01 X29.1356 Y29.4011
G01 X29.0971 Y29.6606
G01 X29.0333 Y29.9151
G01 X28.9449 Y30.1622
G01 X28.8328 Y30.3994
G01 X28.6979 Y30.6244
G01 X28.5416 Y30.8352
G01 X28.3654 Y31.0296
G01 X28.1710 Y31.2058
G01 X27.9602 Y31.3621
G01 X27.7352 Y31.4970
G01 X27.4980 Y31.6091
G01 X27.2509 Y31.6975
G01 X26.9964 Y31.7613
G01 X26.7369 Y31.7998
G01 X26.4748 Y31.8127
G01 X26.2127 Y31.7998
G01 X25.9532 Y31.7613
G01 X25.6987 Y31.6975
G01 X25.4516 Y31.6091
G01 X25.2144 Y31.4970
G01 X24.9894 Y31.3621
G01 X24.7786 Y31.2058
G01 X24.5842 Y31.0296
G01 X24.4080 Y30.8352
G01 X24.2517 Y30.6244
G01 X24.1168 Y30.3994
G01 X24.0047 Y30.1622
G01 X23.9163 Y29.9151
G01 X23.8525 Y29.6606
G01 X23.8140 Y29.4011
G01 X23.8011 Y29.1390
G00 X23.8011 Y29.1390
G01 F100.00
G01 Z-3.7000
G01 F200.00
G01 X23.8140 Y28.8769
G01 X23.8525 Y28.6174
G01 X23.9163 Y28.3629
G01 X24.0047 Y28.1158
G01 X24.1168 Y27.8786
G01 X24.2517 Y27.6536
G01 X24.4080 Y27.4428
G01 X24.5842 Y27.2484
G01 X24.7786 Y27.0722
G01 X24.9894 Y26.9159
G01 X25.2144 Y26.7810
G01 X25.4516 Y26.6689
G01 X25.6987 Y26.5805
G01 X25.9532 Y26.5167
G01 X26.2127 Y26.4782
G01 X26.4748 Y26.4653
G01 X26.7369 Y26.4782
G01 X26.9964 Y26.5167
G01 X27.2509 Y26.5805
G01 X27.4980 Y26.6689
G01 X27.7352 Y26.7810
G01 X27.9602 Y26.9159
G01 X28.1710 Y27.0722
G01 X28.3654 Y27.2484
G01 X28.5416 Y27.4428
G01 X28.6979 Y27.6536
G01 X28.8328 Y27.8786
G01 X28.9449 Y28.1158
G01 X29.0333 Y28.3629
G01 X29.0971 Y28.6174
G01 X29.1356 Y28.8769
G01 X29.1485 Y29.1390
G01 X29.1356 Y29.4011
G01 X29.0971 Y29.6606
G01 X29.0333 Y29.9151
G01 X28.9449 Y30.1622
G01 X28.8328 Y30.3994
G01 X28.6979 Y30.6244
G01 X28.5416 Y30.8352
G01 X28.3654 Y31.0296
G01 X28.1710 Y31.2058
G01 X27.9602 Y31.3621
G01 X27.7352 Y31.4970
G01 X27.4980 Y31.6091
G01 X27.2509 Y31.6975
G01 X26.9964 Y31.7613
G01 X26.7369 Y31.7998
G01 X26.4748 Y31.8127
G01 X26.2127 Y31.7998
G01 X25.9532 Y31.7613
G01 X25.6987 Y31.6975
G01 X25.4516 Y31.6091
G01 X25.2144 Y31.4970
G01 X24.9894 Y31.3621
G01 X24.7786 Y31.2058
G01 X24.5842 Y31.0296
G01 X24.4080 Y30.8352
G01 X24.2517 Y30.6244
G01 X24.1168 Y30.3994
G01 X24.0047 Y30.1622
G01 X23.9163 Y29.9151
G01 X23.8525 Y29.6606
G01 X23.8140 Y29.4011
G01 X23.8011 Y29.1390
G00 Z2.0000
G00 X60.8011 Y29.1390
G01 F100.00
G01 Z-0.8000
G01 F200.00
G01 X60.8140 Y28.8769
G01 X60.8525 Y28.6174
G01 X60.9163 Y28.3629
G01 X61.0047 Y28.1158
G01 X61.1168 Y27.8786
G01 X61.2517 Y27.6536
G01 X61.4080 Y27.4428
G01 X61.5842 Y27.2484
G01 X61.7786 Y27.0722
G01 X61.9894 Y26.9159
G01 X62.2144 Y26.7810
G01 X62.4516 Y26.6689
G01 X62.6987 Y26.5805
G01 X62.9532 Y26.5167
G01 X63.2127 Y26.4782
G01 X63.4748 Y26.4653
G01 X63.7369 Y26.4782
G01 X63.9964 Y26.5167
G01 X64.2509 Y26.5805
G01 X64.4980 Y26.6689
G01 X64.7352 Y26.7810
G01 X64.9602 Y26.9159
G01 X65.1710 Y27.0722
G01 X65.3654 Y27.2484
G01 X65.5416 Y27.4428
G01 X65.6979 Y27.6536
G01 X65.8328 Y27.8786
G01 X65.9449 Y28.1158
G01 X66.0333 Y28.3629
G01 X66.0971 Y28.6174
G01 X66.1356 Y28.8769
G01 X66.1485 Y29.1390
G01 X66.1356 Y29.4011
G01 X66.0971 Y29.6606
G01 X66.0333 Y29.9151
G01 X65.9449 Y30.1622
G01 X65.8328 Y30.3994
G01 X65.6979 Y30.6244
G01 X65.5416 Y30.8352
G01 X65.3654 Y31.0296
G01 X65.1710 Y31.2058
G01 X64.9602 Y31.3621
G01 X64.7352 Y31.4970
G01 X64.4980 Y31.6091
G01 X64.2509 Y31.6975
G01 X63.9964 Y31.7613
G01 X63.7369 Y31.7998
G01 X63.4748 Y31.8127
G01 X63.2127 Y31.7998
G01 X62.9532 Y31.7613
G01 X62.6987 Y31.6975
G01 X62.4516 Y31.6091
G01 X62.2144 Y31.4970
G01 X61.9894 Y31.3621
G01 X61.7786 Y31.2058
G01 X61.5842 Y31.0296
G01 X61.4080 Y30.8352
G01 X61.2517 Y30.6244
G01 X61.1168 Y30.3994
G01 X61.0047 Y30.1622
G01 X60.9163 Y29.9151
G01 X60.8525 Y29.6606
G01 X60.8140 Y29.4011
G01 X60.8011 Y29.1390
G00 X60.8011 Y29.1390
G01 F100.00
G01 Z-1.6000
G01 F200.00
G01 X60.8140 Y28.8769
G01 X60.8525 Y28.6174
G01 X60.9163 Y28.3629
G01 X61.0047 Y28.1158
G01 X61.1168 Y27.8786
G01 X61.2517 Y27.6536
G01 X61.4080 Y27.4428
G01 X61.5842 Y27.2484
G01 X61.7786 Y27.0722
G01 X61.9894 Y26.9159
G01 X62.2144 Y26.7810
G01 X62.4516 Y26.6689
G01 X62.6987 Y26.5805
G01 X62.9532 Y26.5167
G01 X63.2127 Y26.4782
G01 X63.4748 Y26.4653
G01 X63.7369 Y26.4782
G01 X63.9964 Y26.5167
G01 X64.2509 Y26.5805
G01 X64.4980 Y26.6689
G01 X64.7352 Y26.7810
G01 X64.9602 Y26.9159
G01 X65.1710 Y27.0722
G01 X65.3654 Y27.2484
G01 X65.5416 Y27.4428
G01 X65.6979 Y27.6536
G01 X65.8328 Y27.8786
G01 X65.9449 Y28.1158
G01 X66.0333 Y28.3629
G01 X66.0971 Y28.6174
G01 X66.1356 Y28.8769
G01 X66.1485 Y29.1390
G01 X66.1356 Y29.4011
G01 X66.0971 Y29.6606
G01 X66.0333 Y29.9151
G01 X65.9449 Y30.1622
G01 X65.8328 Y30.3994
G01 X65.6979 Y30.6244
G01 X65.5416 Y30.8352
G01 X65.3654 Y31.0296
G01 X65.1710 Y31.2058
G01 X64.9602 Y31.3621
G01 X64.7352 Y31.4970
G01 X64.4980 Y31.6091
G01 X64.2509 Y31.6975
G01 X63.9964 Y31.7613
G01 X63.7369 Y31.7998
G01 X63.4748 Y31.8127
G01 X63.2127 Y31.7998
G01 X62.9532 Y31.7613
G01 X62.6987 Y31.6975
G01 X62.4516 Y31.6091
G01 X62.2144 Y31.4970
G01 X61.9894 Y31.3621
G01 X61.7786 Y31.2058
G01 X61.5842 Y31.0296
G01 X61.4080 Y30.8352
G01 X61.2517 Y30.6244
G01 X61.1168 Y30.3994
G01 X61.0047 Y30.1622
G01 X60.9163 Y29.9151
G01 X60.8525 Y29.6606
G01 X60.8140 Y29.4011
G01 X60.8011 Y29.1390
G00 X60.8011 Y29.1390
G01 F100.00
G01 Z-2.4000
G01 F200.00
G01 X60.8140 Y28.8769
G01 X60.8525 Y28.6174
G01 X60.9163 Y28.3629
G01 X61.0047 Y28.1158
G01 X61.1168 Y27.8786
G01 X61.2517 Y27.6536
G01 X61.4080 Y27.4428
G01 X61.5842 Y27.2484
G01 X61.7786 Y27.0722
G01 X61.9894 Y26.9159
G01 X62.2144 Y26.7810
G01 X62.4516 Y26.6689
G01 X62.6987 Y26.5805
G01 X62.9532 Y26.5167
G01 X63.2127 Y26.4782
G01 X63.4748 Y26.4653
G01 X63.7369 Y26.4782
G01 X63.9964 Y26.5167
G01 X64.2509 Y26.5805
G01 X64.4980 Y26.6689
G01 X64.7352 Y26.7810
G01 X64.9602 Y26.9159
G01 X65.1710 Y27.0722
G01 X65.3654 Y27.2484
G01 X65.5416 Y27.4428
G01 X65.6979 Y27.6536
G01 X65.8328 Y27.8786
G01 X65.9449 Y28.1158
G01 X66.0333 Y28.3629
G01 X66.0971 Y28.6174
G01 X66.1356 Y28.8769
G01 X66.1485 Y29.1390
G01 X66.1356 Y29.4011
G01 X66.0971 Y29.6606
G01 X66.0333 Y29.9151
G01 X65.9449 Y30.1622
G01 X65.8328 Y30.3994
G01 X65.6979 Y30.6244
G01 X65.5416 Y30.8352
G01 X65.3654 Y31.0296
G01 X65.1710 Y31.2058
G01 X64.9602 Y31.3621
G01 X64.7352 Y31.4970
G01 X64.4980 Y31.6091
G01 X64.2509 Y31.6975
G01 X63.9964 Y31.7613
G01 X63.7369 Y31.7998
G01 X63.4748 Y31.8127
G01 X63.2127 Y31.7998
G01 X62.9532 Y31.7613
G01 X62.6987 Y31.6975
G01 X62.4516 Y31.6091
G01 X62.2144 Y31.4970
G01 X61.9894 Y31.3621
G01 X61.7786 Y31.2058
G01 X61.5842 Y31.0296
G01 X61.4080 Y30.8352
G01 X61.2517 Y30.6244
G01 X61.1168 Y30.3994
G01 X61.0047 Y30.1622
G01 X60.9163 Y29.9151
G01 X60.8525 Y29.6606
G01 X60.8140 Y29.4011
G01 X60.8011 Y29.1390
G00 X60.8011 Y29.1390
G01 F100.00
G01 Z-3.2000
G01 F200.00
G01 X60.8140 Y28.8769
G01 X60.8525 Y28.6174
G01 X60.9163 Y28.3629
G01 X61.0047 Y28.1158
G01 X61.1168 Y27.8786
G01 X61.2517 Y27.6536
G01 X61.4080 Y27.4428
G01 X61.5842 Y27.2484
G01 X61.7786 Y27.0722
G01 X61.9894 Y26.9159
G01 X62.2144 Y26.7810
G01 X62.4516 Y26.6689
G01 X62.6987 Y26.5805
G01 X62.9532 Y26.5167
G01 X63.2127 Y26.4782
G01 X63.4748 Y26.4653
G01 X63.7369 Y26.4782
G01 X63.9964 Y26.5167
G01 X64.2509 Y26.5805
G01 X64.4980 Y26.6689
G01 X64.7352 Y26.7810
G01 X64.9602 Y26.9159
G01 X65.1710 Y27.0722
G01 X65.3654 Y27.2484
G01 X65.5416 Y27.4428
G01 X65.6979 Y27.6536
G01 X65.8328 Y27.8786
G01 X65.9449 Y28.1158
G01 X66.0333 Y28.3629
G01 X66.0971 Y28.6174
G01 X66.1356 Y28.8769
G01 X66.1485 Y29.1390
G01 X66.1356 Y29.4011
G01 X66.0971 Y29.6606
G01 X66.0333 Y29.9151
G01 X65.9449 Y30.1622
G01 X65.8328 Y30.3994
G01 X65.6979 Y30.6244
G01 X65.5416 Y30.8352
G01 X65.3654 Y31.0296
G01 X65.1710 Y31.2058
G01 X64.9602 Y31.3621
G01 X64.7352 Y31.4970
G01 X64.4980 Y31.6091
G01 X64.2509 Y31.6975
G01 X63.9964 Y31.7613
G01 X63.7369 Y31.7998
G01 X63.4748 Y31.8127
G01 X63.2127 Y31.7998
G01 X62.9532 Y31.7613
G01 X62.6987 Y31.6975
G01 X62.4516 Y31.6091
G01 X62.2144 Y31.4970
G01 X61.9894 Y31.3621
G01 X61.7786 Y31.2058
G01 X61.5842 Y31.0296
G01 X61.4080 Y30.8352
G01 X61.2517 Y30.6244
G01 X61.1168 Y30.3994
G01 X61.0047 Y30.1622
G01 X60.9163 Y29.9151
G01 X60.8525 Y29.6606
G01 X60.8140 Y29.4011
G01 X60.8011 Y29.1390
G00 X60.8011 Y29.1390
G01 F100.00
G01 Z-3.7000
G01 F200.00
G01 X60.8140 Y28.8769
G01 X60.8525 Y28.6174
G01 X60.9163 Y28.3629
G01 X61.0047 Y28.1158
G01 X61.1168 Y27.8786
G01 X61.2517 Y27.6536
G01 X61.4080 Y27.4428
G01 X61.5842 Y27.2484
G01 X61.7786 Y27.0722
G01 X61.9894 Y26.9159
G01 X62.2144 Y26.7810
G01 X62.4516 Y26.6689
G01 X62.6987 Y26.5805
G01 X62.9532 Y26.5167
G01 X63.2127 Y26.4782
G01 X63.4748 Y26.4653
G01 X63.7369 Y26.4782
G01 X63.9964 Y26.5167
G01 X64.2509 Y26.5805
G01 X64.4980 Y26.6689
G01 X64.7352 Y26.7810
G01 X64.9602 Y26.9159
G01 X65.1710 Y27.0722
G01 X65.3654 Y27.2484
G01 X65.5416 Y27.4428
G01 X65.6979 Y27.6536
G01 X65.8328 Y27.8786
G01 X65.9449 Y28.1158
G01 X66.0333 Y28.3629
G01 X66.0971 Y28.6174
G01 X66.1356 Y28.8769
G01 X66.1485 Y29.1390
G01 X66.1356 Y29.4011
G01 X66.0971 Y29.6606
G01 X66.0333 Y29.9151
G01 X65.9449 Y30.1622
G01 X65.8328 Y30.3994
G01 X65.6979 Y30.6244
G01 X65.5416 Y30.8352
G01 X65.3654 Y31.0296
G01 X65.1710 Y31.2058
G01 X64.9602 Y31.3621
G01 X64.7352 Y31.4970
G01 X64.4980 Y31.6091
G01 X64.2509 Y31.6975
G01 X63.9964 Y31.7613
G01 X63.7369 Y31.7998
G01 X63.4748 Y31.8127
G01 X63.2127 Y31.7998
G01 X62.9532 Y31.7613
G01 X62.6987 Y31.6975
G01 X62.4516 Y31.6091
G01 X62.2144 Y31.4970
G01 X61.9894 Y31.3621
G01 X61.7786 Y31.2058
G01 X61.5842 Y31.0296
G01 X61.4080 Y30.8352
G01 X61.2517 Y30.6244
G01 X61.1168 Y30.3994
G01 X61.0047 Y30.1622
G01 X60.9163 Y29.9151
G01 X60.8525 Y29.6606
G01 X60.8140 Y29.4011
G01 X60.8011 Y29.1390
G00 Z2.0000
G00 X96.8011 Y29.1390
G01 F100.00
G01 Z-0.8000
G01 F200.00
G01 X96.8140 Y28.8769
G01 X96.8525 Y28.6174
G01 X96.9163 Y28.3629
G01 X97.0047 Y28.1158
G01 X97.1168 Y27.8786
G01 X97.2517 Y27.6536
G01 X97.4080 Y27.4428
G01 X97.5842 Y27.2484
G01 X97.7786 Y27.0722
G01 X97.9894 Y26.9159
G01 X98.2144 Y26.7810
G01 X98.4516 Y26.6689
G01 X98.6987 Y26.5805
G01 X98.9532 Y26.5167
G01 X99.2127 Y26.4782
G01 X99.4748 Y26.4653
G01 X99.7369 Y26.4782
G01 X99.9964 Y26.5167
G01 X100.2509 Y26.5805
G01 X100.4980 Y26.6689
G01 X100.7352 Y26.7810
G01 X100.9602 Y26.9159
G01 X101.1710 Y27.0722
G01 X101.3654 Y27.2484
G01 X101.5416 Y27.4428
G01 X101.6979 Y27.6536
G01 X101.8328 Y27.8786
G01 X101.9449 Y28.1158
G01 X102.0333 Y28.3629
G01 X102.0971 Y28.6174
G01 X102.1356 Y28.8769
G01 X102.1485 Y29.1390
G01 X102.1356 Y29.4011
G01 X102.0971 Y29.6606
G01 X102.0333 Y29.9151
G01 X101.9449 Y30.1622
G01 X101.8328 Y30.3994
G01 X101.6979 Y30.6244
G01 X101.5416 Y30.8352
G01 X101.3654 Y31.0296
G01 X101.1710 Y31.2058
G01 X100.9602 Y31.3621
G01 X100.7352 Y31.4970
G01 X100.4980 Y31.6091
G01 X100.2509 Y31.6975
G01 X99.9964 Y31.7613
G01 X99.7369 Y31.7998
G01 X99.4748 Y31.8127
G01 X99.2127 Y31.7998
G01 X98.9532 Y31.7613
G01 X98.6987 Y31.6975
G01 X98.4516 Y31.6091
G01 X98.2144 Y31.4970
G01 X97.9894 Y31.3621
G01 X97.7786 Y31.2058
G01 X97.5842 Y31.0296
G01 X97.4080 Y30.8352
G01 X97.2517 Y30.6244
G01 X97.1168 Y30.3994
G01 X97.0047 Y30.1622
G01 X96.9163 Y29.9151
G01 X96.8525 Y29.6606
G01 X96.8140 Y29.4011
G01 X96.8011 Y29.1390
G00 X96.8011 Y29.1390
G01 F100.00
G01 Z-1.6000
G01 F200.00
G01 X96.8140 Y28.8769
G01 X96.8525 Y28.6174
G01 X96.9163 Y28.3629
G01 X97.0047 Y28.1158
G01 X97.1168 Y27.8786
G01 X97.2517 Y27.6536
G01 X97.4080 Y27.4428
G01 X97.5842 Y27.2484
G01 X97.7786 Y27.0722
G01 X97.9894 Y26.9159
G01 X98.2144 Y26.7810
G01 X98.4516 Y26.6689
G01 X98.6987 Y26.5805
G01 X98.9532 Y26.5167
G01 X99.2127 Y26.4782
G01 X99.4748 Y26.4653
G01 X99.7369 Y26.4782
G01 X99.9964 Y26.5167
G01 X100.2509 Y26.5805
G01 X100.4980 Y26.6689
G01 X100.7352 Y26.7810
G01 X100.9602 Y26.9159
G01 X101.1710 Y27.0722
G01 X101.3654 Y27.2484
G01 X101.5416 Y27.4428
G01 X101.6979 Y27.6536
G01 X101.8328 Y27.8786
G01 X101.9449 Y28.1158
G01 X102.0333 Y28.3629
G01 X102.0971 Y28.6174
G01 X102.1356 Y28.8769
G01 X102.1485 Y29.1390
G01 X102.1356 Y29.4011
G01 X102.0971 Y29.6606
G01 X102.0333 Y29.9151
G01 X101.9449 Y30.1622
G01 X101.8328 Y30.3994
G01 X101.6979 Y30.6244
G01 X101.5416 Y30.8352
G01 X101.3654 Y31.0296
G01 X101.1710 Y31.2058
G01 X100.9602 Y31.3621
G01 X100.7352 Y31.4970
G01 X100.4980 Y31.6091
G01 X100.2509 Y31.6975
G01 X99.9964 Y31.7613
G01 X99.7369 Y31.7998
G01 X99.4748 Y31.8127
G01 X99.2127 Y31.7998
G01 X98.9532 Y31.7613
G01 X98.6987 Y31.6975
G01 X98.4516 Y31.6091
G01 X98.2144 Y31.4970
G01 X97.9894 Y31.3621
G01 X97.7786 Y31.2058
G01 X97.5842 Y31.0296
G01 X97.4080 Y30.8352
G01 X97.2517 Y30.6244
G01 X97.1168 Y30.3994
G01 X97.0047 Y30.1622
G01 X96.9163 Y29.9151
G01 X96.8525 Y29.6606
G01 X96.8140 Y29.4011
G01 X96.8011 Y29.1390
G00 X96.8011 Y29.1390
G01 F100.00
G01 Z-2.4000
G01 F200.00
G01 X96.8140 Y28.8769
G01 X96.8525 Y28.6174
G01 X96.9163 Y28.3629
G01 X97.0047 Y28.1158
G01 X97.1168 Y27.8786
G01 X97.2517 Y27.6536
G01 X97.4080 Y27.4428
G01 X97.5842 Y27.2484
G01 X97.7786 Y27.0722
G01 X97.9894 Y26.9159
G01 X98.2144 Y26.7810
G01 X98.4516 Y26.6689
G01 X98.6987 Y26.5805
G01 X98.9532 Y26.5167
G01 X99.2127 Y26.4782
G01 X99.4748 Y26.4653
G01 X99.7369 Y26.4782
G01 X99.9964 Y26.5167
G01 X100.2509 Y26.5805
G01 X100.4980 Y26.6689
G01 X100.7352 Y26.7810
G01 X100.9602 Y26.9159
G01 X101.1710 Y27.0722
G01 X101.3654 Y27.2484
G01 X101.5416 Y27.4428
G01 X101.6979 Y27.6536
G01 X101.8328 Y27.8786
G01 X101.9449 Y28.1158
G01 X102.0333 Y28.3629
G01 X102.0971 Y28.6174
G01 X102.1356 Y28.8769
G01 X102.1485 Y29.1390
G01 X102.1356 Y29.4011
G01 X102.0971 Y29.6606
G01 X102.0333 Y29.9151
G01 X101.9449 Y30.1622
G01 X101.8328 Y30.3994
G01 X101.6979 Y30.6244
G01 X101.5416 Y30.8352
G01 X101.3654 Y31.0296
G01 X101.1710 Y31.2058
G01 X100.9602 Y31.3621
G01 X100.7352 Y31.4970
G01 X100.4980 Y31.6091
G01 X100.2509 Y31.6975
G01 X99.9964 Y31.7613
G01 X99.7369 Y31.7998
G01 X99.4748 Y31.8127
G01 X99.2127 Y31.7998
G01 X98.9532 Y31.7613
G01 X98.6987 Y31.6975
G01 X98.4516 Y31.6091
G01 X98.2144 Y31.4970
G01 X97.9894 Y31.3621
G01 X97.7786 Y31.2058
G01 X97.5842 Y31.0296
G01 X97.4080 Y30.8352
G01 X97.2517 Y30.6244
G01 X97.1168 Y30.3994
G01 X97.0047 Y30.1622
G01 X96.9163 Y29.9151
G01 X96.8525 Y29.6606
G01 X96.8140 Y29.4011
G01 X96.8011 Y29.1390
G00 X96.8011 Y29.1390
G01 F100.00
G01 Z-3.2000
G01 F200.00
G01 X96.8140 Y28.8769
G01 X96.8525 Y28.6174
G01 X96.9163 Y28.3629
G01 X97.0047 Y28.1158
G01 X97.1168 Y27.8786
G01 X97.2517 Y27.6536
G01 X97.4080 Y27.4428
G01 X97.5842 Y27.2484
G01 X97.7786 Y27.0722
G01 X97.9894 Y26.9159
G01 X98.2144 Y26.7810
G01 X98.4516 Y26.6689
G01 X98.6987 Y26.5805
G01 X98.9532 Y26.5167
G01 X99.2127 Y26.4782
G01 X99.4748 Y26.4653
G01 X99.7369 Y26.4782
G01 X99.9964 Y26.5167
G01 X100.2509 Y26.5805
G01 X100.4980 Y26.6689
G01 X100.7352 Y26.7810
G01 X100.9602 Y26.9159
G01 X101.1710 Y27.0722
G01 X101.3654 Y27.2484
G01 X101.5416 Y27.4428
G01 X101.6979 Y27.6536
G01 X101.8328 Y27.8786
G01 X101.9449 Y28.1158
G01 X102.0333 Y28.3629
G01 X102.0971 Y28.6174
G01 X102.1356 Y28.8769
G01 X102.1485 Y29.1390
G01 X102.1356 Y29.4011
G01 X102.0971 Y29.6606
G01 X102.0333 Y29.9151
G01 X101.9449 Y30.1622
G01 X101.8328 Y30.3994
G01 X101.6979 Y30.6244
G01 X101.5416 Y30.8352
G01 X101.3654 Y31.0296
G01 X101.1710 Y31.2058
G01 X100.9602 Y31.3621
G01 X100.7352 Y31.4970
G01 X100.4980 Y31.6091
G01 X100.2509 Y31.6975
G01 X99.9964 Y31.7613
G01 X99.7369 Y31.7998
G01 X99.4748 Y31.8127
G01 X99.2127 Y31.7998
G01 X98.9532 Y31.7613
G01 X98.6987 Y31.6975
G01 X98.4516 Y31.6091
G01 X98.2144 Y31.4970
G01 X97.9894 Y31.3621
G01 X97.7786 Y31.2058
G01 X97.5842 Y31.0296
G01 X97.4080 Y30.8352
G01 X97.2517 Y30.6244
G01 X97.1168 Y30.3994
G01 X97.0047 Y30.1622
G01 X96.9163 Y29.9151
G01 X96.8525 Y29.6606
G01 X96.8140 Y29.4011
G01 X96.8011 Y29.1390
G00 X96.8011 Y29.1390
G01 F100.00
G01 Z-3.7000
G01 F200.00
G01 X96.8140 Y28.8769
G01 X96.8525 Y28.6174
G01 X96.9163 Y28.3629
G01 X97.0047 Y28.1158
G01 X97.1168 Y27.8786
G01 X97.2517 Y27.6536
G01 X97.4080 Y27.4428
G01 X97.5842 Y27.2484
G01 X97.7786 Y27.0722
G01 X97.9894 Y26.9159
G01 X98.2144 Y26.7810
G01 X98.4516 Y26.6689
G01 X98.6987 Y26.5805
G01 X98.9532 Y26.5167
G01 X99.2127 Y26.4782
G01 X99.4748 Y26.4653
G01 X99.7369 Y26.4782
G01 X99.9964 Y26.5167
G01 X100.2509 Y26.5805
G01 X100.4980 Y26.6689
G01 X100.7352 Y26.7810
G01 X100.9602 Y26.9159
G01 X101.1710 Y27.0722
G01 X101.3654 Y27.2484
G01 X101.5416 Y27.4428
G01 X101.6979 Y27.6536
G01 X101.8328 Y27.8786
G01 X101.9449 Y28.1158
G01 X102.0333 Y28.3629
G01 X102.0971 Y28.6174
G01 X102.1356 Y28.8769
G01 X102.1485 Y29.1390
G01 X102.1356 Y29.4011
G01 X102.0971 Y29.6606
G01 X102.0333 Y29.9151
G01 X101.9449 Y30.1622
G01 X101.8328 Y30.3994
G01 X101.6979 Y30.6244
G01 X101.5416 Y30.8352
G01 X101.3654 Y31.0296
G01 X101.1710 Y31.2058
G01 X100.9602 Y31.3621
G01 X100.7352 Y31.4970
G01 X100.4980 Y31.6091
G01 X100.2509 Y31.6975
G01 X99.9964 Y31.7613
G01 X99.7369 Y31.7998
G01 X99.4748 Y31.8127
G01 X99.2127 Y31.7998
G01 X98.9532 Y31.7613
G01 X98.6987 Y31.6975
G01 X98.4516 Y31.6091
G01 X98.2144 Y31.4970
G01 X97.9894 Y31.3621
G01 X97.7786 Y31.2058
G01 X97.5842 Y31.0296
G01 X97.4080 Y30.8352
G01 X97.2517 Y30.6244
G01 X97.1168 Y30.3994
G01 X97.0047 Y30.1622
G01 X96.9163 Y29.9151
G01 X96.8525 Y29.6606
G01 X96.8140 Y29.4011
G01 X96.8011 Y29.1390
G00 Z2.0000
G00 X130.8011 Y29.1390
G01 F100.00
G01 Z-0.8000
G01 F200.00
G01 X130.8140 Y28.8769
G01 X130.8525 Y28.6174
G01 X130.9163 Y28.3629
G01 X131.0047 Y28.1158
G01 X131.1168 Y27.8786
G01 X131.2517 Y27.6536
G01 X131.4080 Y27.4428
G01 X131.5842 Y27.2484
G01 X131.7786 Y27.0722
G01 X131.9894 Y26.9159
G01 X132.2144 Y26.7810
G01 X132.4516 Y26.6689
G01 X132.6987 Y26.5805
G01 X132.9532 Y26.5167
G01 X133.2127 Y26.4782
G01 X133.4748 Y26.4653
G01 X133.7369 Y26.4782
G01 X133.9964 Y26.5167
G01 X134.2509 Y26.5805
G01 X134.4980 Y26.6689
G01 X134.7352 Y26.7810
G01 X134.9602 Y26.9159
G01 X135.1710 Y27.0722
G01 X135.3654 Y27.2484
G01 X135.5416 Y27.4428
G01 X135.6979 Y27.6536
G01 X135.8328 Y27.8786
G01 X135.9449 Y28.1158
G01 X136.0333 Y28.3629
G01 X136.0971 Y28.6174
G01 X136.1356 Y28.8769
G01 X136.1485 Y29.1390
G01 X136.1356 Y29.4011
G01 X136.0971 Y29.6606
G01 X136.0333 Y29.9151
G01 X135.9449 Y30.1622
G01 X135.8328 Y30.3994
G01 X135.6979 Y30.6244
G01 X135.5416 Y30.8352
G01 X135.3654 Y31.0296
G01 X135.1710 Y31.2058
G01 X134.9602 Y31.3621
G01 X134.7352 Y31.4970
G01 X134.4980 Y31.6091
G01 X134.2509 Y31.6975
G01 X133.9964 Y31.7613
G01 X133.7369 Y31.7998
G01 X133.4748 Y31.8127
G01 X133.2127 Y31.7998
G01 X132.9532 Y31.7613
G01 X132.6987 Y31.6975
G01 X132.4516 Y31.6091
G01 X132.2144 Y31.4970
G01 X131.9894 Y31.3621
G01 X131.7786 Y31.2058
G01 X131.5842 Y31.0296
G01 X131.4080 Y30.8352
G01 X131.2517 Y30.6244
G01 X131.1168 Y30.3994
G01 X131.0047 Y30.1622
G01 X130.9163 Y29.9151
G01 X130.8525 Y29.6606
G01 X130.8140 Y29.4011
G01 X130.8011 Y29.1390
G00 X130.8011 Y29.1390
G01 F100.00
G01 Z-1.6000
G01 F200.00
G01 X130.8140 Y28.8769
G01 X130.8525 Y28.6174
G01 X130.9163 Y28.3629
G01 X131.0047 Y28.1158
G01 X131.1168 Y27.8786
G01 X131.2517 Y27.6536
G01 X131.4080 Y27.4428
G01 X131.5842 Y27.2484
G01 X131.7786 Y27.0722
G01 X131.9894 Y26.9159
G01 X132.2144 Y26.7810
G01 X132.4516 Y26.6689
G01 X132.6987 Y26.5805
G01 X132.9532 Y26.5167
G01 X133.2127 Y26.4782
G01 X133.4748 Y26.4653
G01 X133.7369 Y26.4782
G01 X133.9964 Y26.5167
G01 X134.2509 Y26.5805
G01 X134.4980 Y26.6689
G01 X134.7352 Y26.7810
G01 X134.9602 Y26.9159
G01 X135.1710 Y27.0722
G01 X135.3654 Y27.2484
G01 X135.5416 Y27.4428
G01 X135.6979 Y27.6536
G01 X135.8328 Y27.8786
G01 X135.9449 Y28.1158
G01 X136.0333 Y28.3629
G01 X136.0971 Y28.6174
G01 X136.1356 Y28.8769
G01 X136.1485 Y29.1390
G01 X136.1356 Y29.4011
G01 X136.0971 Y29.6606
G01 X136.0333 Y29.9151
G01 X135.9449 Y30.1622
G01 X135.8328 Y30.3994
G01 X135.6979 Y30.6244
G01 X135.5416 Y30.8352
G01 X135.3654 Y31.0296
G01 X135.1710 Y31.2058
G01 X134.9602 Y31.3621
G01 X134.7352 Y31.4970
G01 X134.4980 Y31.6091
G01 X134.2509 Y31.6975
G01 X133.9964 Y31.7613
G01 X133.7369 Y31.7998
G01 X133.4748 Y31.8127
G01 X133.2127 Y31.7998
G01 X132.9532 Y31.7613
G01 X132.6987 Y31.6975
G01 X132.4516 Y31.6091
G01 X132.2144 Y31.4970
G01 X131.9894 Y31.3621
G01 X131.7786 Y31.2058
G01 X131.5842 Y31.0296
G01 X131.4080 Y30.8352
G01 X131.2517 Y30.6244
G01 X131.1168 Y30.3994
G01 X131.0047 Y30.1622
G01 X130.9163 Y29.9151
G01 X130.8525 Y29.6606
G01 X130.8140 Y29.4011
G01 X130.8011 Y29.1390
G00 X130.8011 Y29.1390
G01 F100.00
G01 Z-2.4000
G01 F200.00
G01 X130.8140 Y28.8769
G01 X130.8525 Y28.6174
G01 X130.9163 Y28.3629
G01 X131.0047 Y28.1158
G01 X131.1168 Y27.8786
G01 X131.2517 Y27.6536
G01 X131.4080 Y27.4428
G01 X131.5842 Y27.2484
G01 X131.7786 Y27.0722
G01 X131.9894 Y26.9159
G01 X132.2144 Y26.7810
G01 X132.4516 Y26.6689
G01 X132.6987 Y26.5805
G01 X132.9532 Y26.5167
G01 X133.2127 Y26.4782
G01 X133.4748 Y26.4653
G01 X133.7369 Y26.4782
G01 X133.9964 Y26.5167
G01 X134.2509 Y26.5805
G01 X134.4980 Y26.6689
G01 X134.7352 Y26.7810
G01 X134.9602 Y26.9159
G01 X135.1710 Y27.0722
G01 X135.3654 Y27.2484
G01 X135.5416 Y27.4428
G01 X135.6979 Y27.6536
G01 X135.8328 Y27.8786
G01 X135.9449 Y28.1158
G01 X136.0333 Y28.3629
G01 X136.0971 Y28.6174
G01 X136.1356 Y28.8769
G01 X136.1485 Y29.1390
G01 X136.1356 Y29.4011
G01 X136.0971 Y29.6606
G01 X136.0333 Y29.9151
G01 X135.9449 Y30.1622
G01 X135.8328 Y30.3994
G01 X135.6979 Y30.6244
G01 X135.5416 Y30.8352
G01 X135.3654 Y31.0296
G01 X135.1710 Y31.2058
G01 X134.9602 Y31.3621
G01 X134.7352 Y31.4970
G01 X134.4980 Y31.6091
G01 X134.2509 Y31.6975
G01 X133.9964 Y31.7613
G01 X133.7369 Y31.7998
G01 X133.4748 Y31.8127
G01 X133.2127 Y31.7998
G01 X132.9532 Y31.7613
G01 X132.6987 Y31.6975
G01 X132.4516 Y31.6091
G01 X132.2144 Y31.4970
G01 X131.9894 Y31.3621
G01 X131.7786 Y31.2058
G01 X131.5842 Y31.0296
G01 X131.4080 Y30.8352
G01 X131.2517 Y30.6244
G01 X131.1168 Y30.3994
G01 X131.0047 Y30.1622
G01 X130.9163 Y29.9151
G01 X130.8525 Y29.6606
G01 X130.8140 Y29.4011
G01 X130.8011 Y29.1390
G00 X130.8011 Y29.1390
G01 F100.00
G01 Z-3.2000
G01 F200.00
G01 X130.8140 Y28.8769
G01 X130.8525 Y28.6174
G01 X130.9163 Y28.3629
G01 X131.0047 Y28.1158
G01 X131.1168 Y27.8786
G01 X131.2517 Y27.6536
G01 X131.4080 Y27.4428
G01 X131.5842 Y27.2484
G01 X131.7786 Y27.0722
G01 X131.9894 Y26.9159
G01 X132.2144 Y26.7810
G01 X132.4516 Y26.6689
G01 X132.6987 Y26.5805
G01 X132.9532 Y26.5167
G01 X133.2127 Y26.4782
G01 X133.4748 Y26.4653
G01 X133.7369 Y26.4782
G01 X133.9964 Y26.5167
G01 X134.2509 Y26.5805
G01 X134.4980 Y26.6689
G01 X134.7352 Y26.7810
G01 X134.9602 Y26.9159
G01 X135.1710 Y27.0722
G01 X135.3654 Y27.2484
G01 X135.5416 Y27.4428
G01 X135.6979 Y27.6536
G01 X135.8328 Y27.8786
G01 X135.9449 Y28.1158
G01 X136.0333 Y28.3629
G01 X136.0971 Y28.6174
G01 X136.1356 Y28.8769
G01 X136.1485 Y29.1390
G01 X136.1356 Y29.4011
G01 X136.0971 Y29.6606
G01 X136.0333 Y29.9151
G01 X135.9449 Y30.1622
G01 X135.8328 Y30.3994
G01 X135.6979 Y30.6244
G01 X135.5416 Y30.8352
G01 X135.3654 Y31.0296
G01 X135.1710 Y31.2058
G01 X134.9602 Y31.3621
G01 X134.7352 Y31.4970
G01 X134.4980 Y31.6091
G01 X134.2509 Y31.6975
G01 X133.9964 Y31.7613
G01 X133.7369 Y31.7998
G01 X133.4748 Y31.8127
G01 X133.2127 Y31.7998
G01 X132.9532 Y31.7613
G01 X132.6987 Y31.6975
G01 X132.4516 Y31.6091
G01 X132.2144 Y31.4970
G01 X131.9894 Y31.3621
G01 X131.7786 Y31.2058
G01 X131.5842 Y31.0296
G01 X131.4080 Y30.8352
G01 X131.2517 Y30.6244
G01 X131.1168 Y30.3994
G01 X131.0047 Y30.1622
G01 X130.9163 Y29.9151
G01 X130.8525 Y29.6606
G01 X130.8140 Y29.4011
G01 X130.8011 Y29.1390
G00 X130.8011 Y29.1390
G01 F100.00
G01 Z-3.7000
G01 F200.00
G01 X130.8140 Y28.8769
G01 X130.8525 Y28.6174
G01 X130.9163 Y28.3629
G01 X131.0047 Y28.1158
G01 X131.1168 Y27.8786
G01 X131.2517 Y27.6536
G01 X131.4080 Y27.4428
G01 X131.5842 Y27.2484
G01 X131.7786 Y27.0722
G01 X131.9894 Y26.9159
G01 X132.2144 Y26.7810
G01 X132.4516 Y26.6689
G01 X132.6987 Y26.5805
G01 X132.9532 Y26.5167
G01 X133.2127 Y26.4782
G01 X133.4748 Y26.4653
G01 X133.7369 Y26.4782
G01 X133.9964 Y26.5167
G01 X134.2509 Y26.5805
G01 X134.4980 Y26.6689
G01 X134.7352 Y26.7810
G01 X134.9602 Y26.9159
G01 X135.1710 Y27.0722
G01 X135.3654 Y27.2484
G01 X135.5416 Y27.4428
G01 X135.6979 Y27.6536
G01 X135.8328 Y27.8786
G01 X135.9449 Y28.1158
G01 X136.0333 Y28.3629
G01 X136.0971 Y28.6174
G01 X136.1356 Y28.8769
G01 X136.1485 Y29.1390
G01 X136.1356 Y29.4011
G01 X136.0971 Y29.6606
G01 X136.0333 Y29.9151
G01 X135.9449 Y30.1622
G01 X135.8328 Y30.3994
G01 X135.6979 Y30.6244
G01 X135.5416 Y30.8352
G01 X135.3654 Y31.0296
G01 X135.1710 Y31.2058
G01 X134.9602 Y31.3621
G01 X134.7352 Y31.4970
G01 X134.4980 Y31.6091
G01 X134.2509 Y31.6975
G01 X133.9964 Y31.7613
G01 X133.7369 Y31.7998
G01 X133.4748 Y31.8127
G01 X133.2127 Y31.7998
G01 X132.9532 Y31.7613
G01 X132.6987 Y31.6975
G01 X132.4516 Y31.6091
G01 X132.2144 Y31.4970
G01 X131.9894 Y31.3621
G01 X131.7786 Y31.2058
G01 X131.5842 Y31.0296
G01 X131.4080 Y30.8352
G01 X131.2517 Y30.6244
G01 X131.1168 Y30.3994
G01 X131.0047 Y30.1622
G01 X130.9163 Y29.9151
G01 X130.8525 Y29.6606
G01 X130.8140 Y29.4011
G01 X130.8011 Y29.1390
G00 Z2.0000
G00 X130.8011 Y91.1390
G01 F100.00
G01 Z-0.8000
G01 F200.00
G01 X130.8140 Y90.8769
G01 X130.8525 Y90.6174
G01 X130.9163 Y90.3629
G01 X131.0047 Y90.1158
G01 X131.1168 Y89.8786
G01 X131.2517 Y89.6536
G01 X131.4080 Y89.4428
G01 X131.5842 Y89.2484
G01 X131.7786 Y89.0722
G01 X131.9894 Y88.9159
G01 X132.2144 Y88.7810
G01 X132.4516 Y88.6689
G01 X132.6987 Y88.5805
G01 X132.9532 Y88.5167
G01 X133.2127 Y88.4782
G01 X133.4748 Y88.4653
G01 X133.7369 Y88.4782
G01 X133.9964 Y88.5167
G01 X134.2509 Y88.5805
G01 X134.4980 Y88.6689
G01 X134.7352 Y88.7810
G01 X134.9602 Y88.9159
G01 X135.1710 Y89.0722
G01 X135.3654 Y89.2484
G01 X135.5416 Y89.4428
G01 X135.6979 Y89.6536
G01 X135.8328 Y89.8786
G01 X135.9449 Y90.1158
G01 X136.0333 Y90.3629
G01 X136.0971 Y90.6174
G01 X136.1356 Y90.8769
G01 X136.1485 Y91.1390
G01 X136.1356 Y91.4011
G01 X136.0971 Y91.6606
G01 X136.0333 Y91.9151
G01 X135.9449 Y92.1622
G01 X135.8328 Y92.3994
G01 X135.6979 Y92.6244
G01 X135.5416 Y92.8352
G01 X135.3654 Y93.0296
G01 X135.1710 Y93.2058
G01 X134.9602 Y93.3621
G01 X134.7352 Y93.4970
G01 X134.4980 Y93.6091
G01 X134.2509 Y93.6975
G01 X133.9964 Y93.7613
G01 X133.7369 Y93.7998
G01 X133.4748 Y93.8127
G01 X133.2127 Y93.7998
G01 X132.9532 Y93.7613
G01 X132.6987 Y93.6975
G01 X132.4516 Y93.6091
G01 X132.2144 Y93.4970
G01 X131.9894 Y93.3621
G01 X131.7786 Y93.2058
G01 X131.5842 Y93.0296
G01 X131.4080 Y92.8352
G01 X131.2517 Y92.6244
G01 X131.1168 Y92.3994
G01 X131.0047 Y92.1622
G01 X130.9163 Y91.9151
G01 X130.8525 Y91.6606
G01 X130.8140 Y91.4011
G01 X130.8011 Y91.1390
G00 X130.8011 Y91.1390
G01 F100.00
G01 Z-1.6000
G01 F200.00
G01 X130.8140 Y90.8769
G01 X130.8525 Y90.6174
G01 X130.9163 Y90.3629
G01 X131.0047 Y90.1158
G01 X131.1168 Y89.8786
G01 X131.2517 Y89.6536
G01 X131.4080 Y89.4428
G01 X131.5842 Y89.2484
G01 X131.7786 Y89.0722
G01 X131.9894 Y88.9159
G01 X132.2144 Y88.7810
G01 X132.4516 Y88.6689
G01 X132.6987 Y88.5805
G01 X132.9532 Y88.5167
G01 X133.2127 Y88.4782
G01 X133.4748 Y88.4653
G01 X133.7369 Y88.4782
G01 X133.9964 Y88.5167
G01 X134.2509 Y88.5805
G01 X134.4980 Y88.6689
G01 X134.7352 Y88.7810
G01 X134.9602 Y88.9159
G01 X135.1710 Y89.0722
G01 X135.3654 Y89.2484
G01 X135.5416 Y89.4428
G01 X135.6979 Y89.6536
G01 X135.8328 Y89.8786
G01 X135.9449 Y90.1158
G01 X136.0333 Y90.3629
G01 X136.0971 Y90.6174
G01 X136.1356 Y90.8769
G01 X136.1485 Y91.1390
G01 X136.1356 Y91.4011
G01 X136.0971 Y91.6606
G01 X136.0333 Y91.9151
G01 X135.9449 Y92.1622
G01 X135.8328 Y92.3994
G01 X135.6979 Y92.6244
G01 X135.5416 Y92.8352
G01 X135.3654 Y93.0296
G01 X135.1710 Y93.2058
G01 X134.9602 Y93.3621
G01 X134.7352 Y93.4970
G01 X134.4980 Y93.6091
G01 X134.2509 Y93.6975
G01 X133.9964 Y93.7613
G01 X133.7369 Y93.7998
G01 X133.4748 Y93.8127
G01 X133.2127 Y93.7998
G01 X132.9532 Y93.7613
G01 X132.6987 Y93.6975
G01 X132.4516 Y93.6091
G01 X132.2144 Y93.4970
G01 X131.9894 Y93.3621
G01 X131.7786 Y93.2058
G01 X131.5842 Y93.0296
G01 X131.4080 Y92.8352
G01 X131.2517 Y92.6244
G01 X131.1168 Y92.3994
G01 X131.0047 Y92.1622
G01 X130.9163 Y91.9151
G01 X130.8525 Y91.6606
G01 X130.8140 Y91.4011
G01 X130.8011 Y91.1390
G00 X130.8011 Y91.1390
G01 F100.00
G01 Z-2.4000
G01 F200.00
G01 X130.8140 Y90.8769
G01 X130.8525 Y90.6174
G01 X130.9163 Y90.3629
G01 X131.0047 Y90.1158
G01 X131.1168 Y89.8786
G01 X131.2517 Y89.6536
G01 X131.4080 Y89.4428
G01 X131.5842 Y89.2484
G01 X131.7786 Y89.0722
G01 X131.9894 Y88.9159
G01 X132.2144 Y88.7810
G01 X132.4516 Y88.6689
G01 X132.6987 Y88.5805
G01 X132.9532 Y88.5167
G01 X133.2127 Y88.4782
G01 X133.4748 Y88.4653
G01 X133.7369 Y88.4782
G01 X133.9964 Y88.5167
G01 X134.2509 Y88.5805
G01 X134.4980 Y88.6689
G01 X134.7352 Y88.7810
G01 X134.9602 Y88.9159
G01 X135.1710 Y89.0722
G01 X135.3654 Y89.2484
G01 X135.5416 Y89.4428
G01 X135.6979 Y89.6536
G01 X135.8328 Y89.8786
G01 X135.9449 Y90.1158
G01 X136.0333 Y90.3629
G01 X136.0971 Y90.6174
G01 X136.1356 Y90.8769
G01 X136.1485 Y91.1390
G01 X136.1356 Y91.4011
G01 X136.0971 Y91.6606
G01 X136.0333 Y91.9151
G01 X135.9449 Y92.1622
G01 X135.8328 Y92.3994
G01 X135.6979 Y92.6244
G01 X135.5416 Y92.8352
G01 X135.3654 Y93.0296
G01 X135.1710 Y93.2058
G01 X134.9602 Y93.3621
G01 X134.7352 Y93.4970
G01 X134.4980 Y93.6091
G01 X134.2509 Y93.6975
G01 X133.9964 Y93.7613
G01 X133.7369 Y93.7998
G01 X133.4748 Y93.8127
G01 X133.2127 Y93.7998
G01 X132.9532 Y93.7613
G01 X132.6987 Y93.6975
G01 X132.4516 Y93.6091
G01 X132.2144 Y93.4970
G01 X131.9894 Y93.3621
G01 X131.7786 Y93.2058
G01 X131.5842 Y93.0296
G01 X131.4080 Y92.8352
G01 X131.2517 Y92.6244
G01 X131.1168 Y92.3994
G01 X131.0047 Y92.1622
G01 X130.9163 Y91.9151
G01 X130.8525 Y91.6606
G01 X130.8140 Y91.4011
G01 X130.8011 Y91.1390
G00 X130.8011 Y91.1390
G01 F100.00
G01 Z-3.2000
G01 F200.00
G01 X130.8140 Y90.8769
G01 X130.8525 Y90.6174
G01 X130.9163 Y90.3629
G01 X131.0047 Y90.1158
G01 X131.1168 Y89.8786
G01 X131.2517 Y89.6536
G01 X131.4080 Y89.4428
G01 X131.5842 Y89.2484
G01 X131.7786 Y89.0722
G01 X131.9894 Y88.9159
G01 X132.2144 Y88.7810
G01 X132.4516 Y88.6689
G01 X132.6987 Y88.5805
G01 X132.9532 Y88.5167
G01 X133.2127 Y88.4782
G01 X133.4748 Y88.4653
G01 X133.7369 Y88.4782
G01 X133.9964 Y88.5167
G01 X134.2509 Y88.5805
G01 X134.4980 Y88.6689
G01 X134.7352 Y88.7810
G01 X134.9602 Y88.9159
G01 X135.1710 Y89.0722
G01 X135.3654 Y89.2484
G01 X135.5416 Y89.4428
G01 X135.6979 Y89.6536
G01 X135.8328 Y89.8786
G01 X135.9449 Y90.1158
G01 X136.0333 Y90.3629
G01 X136.0971 Y90.6174
G01 X136.1356 Y90.8769
G01 X136.1485 Y91.1390
G01 X136.1356 Y91.4011
G01 X136.0971 Y91.6606
G01 X136.0333 Y91.9151
G01 X135.9449 Y92.1622
G01 X135.8328 Y92.3994
G01 X135.6979 Y92.6244
G01 X135.5416 Y92.8352
G01 X135.3654 Y93.0296
G01 X135.1710 Y93.2058
G01 X134.9602 Y93.3621
G01 X134.7352 Y93.4970
G01 X134.4980 Y93.6091
G01 X134.2509 Y93.6975
G01 X133.9964 Y93.7613
G01 X133.7369 Y93.7998
G01 X133.4748 Y93.8127
G01 X133.2127 Y93.7998
G01 X132.9532 Y93.7613
G01 X132.6987 Y93.6975
G01 X132.4516 Y93.6091
G01 X132.2144 Y93.4970
G01 X131.9894 Y93.3621
G01 X131.7786 Y93.2058
G01 X131.5842 Y93.0296
G01 X131.4080 Y92.8352
G01 X131.2517 Y92.6244
G01 X131.1168 Y92.3994
G01 X131.0047 Y92.1622
G01 X130.9163 Y91.9151
G01 X130.8525 Y91.6606
G01 X130.8140 Y91.4011
G01 X130.8011 Y91.1390
G00 X130.8011 Y91.1390
G01 F100.00
G01 Z-3.7000
G01 F200.00
G01 X130.8140 Y90.8769
G01 X130.8525 Y90.6174
G01 X130.9163 Y90.3629
G01 X131.0047 Y90.1158
G01 X131.1168 Y89.8786
G01 X131.2517 Y89.6536
G01 X131.4080 Y89.4428
G01 X131.5842 Y89.2484
G01 X131.7786 Y89.0722
G01 X131.9894 Y88.9159
G01 X132.2144 Y88.7810
G01 X132.4516 Y88.6689
G01 X132.6987 Y88.5805
G01 X132.9532 Y88.5167
G01 X133.2127 Y88.4782
G01 X133.4748 Y88.4653
G01 X133.7369 Y88.4782
G01 X133.9964 Y88.5167
G01 X134.2509 Y88.5805
G01 X134.4980 Y88.6689
G01 X134.7352 Y88.7810
G01 X134.9602 Y88.9159
G01 X135.1710 Y89.0722
G01 X135.3654 Y89.2484
G01 X135.5416 Y89.4428
G01 X135.6979 Y89.6536
G01 X135.8328 Y89.8786
G01 X135.9449 Y90.1158
G01 X136.0333 Y90.3629
G01 X136.0971 Y90.6174
G01 X136.1356 Y90.8769
G01 X136.1485 Y91.1390
G01 X136.1356 Y91.4011
G01 X136.0971 Y91.6606
G01 X136.0333 Y91.9151
G01 X135.9449 Y92.1622
G01 X135.8328 Y92.3994
G01 X135.6979 Y92.6244
G01 X135.5416 Y92.8352
G01 X135.3654 Y93.0296
G01 X135.1710 Y93.2058
G01 X134.9602 Y93.3621
G01 X134.7352 Y93.4970
G01 X134.4980 Y93.6091
G01 X134.2509 Y93.6975
G01 X133.9964 Y93.7613
G01 X133.7369 Y93.7998
G01 X133.4748 Y93.8127
G01 X133.2127 Y93.7998
G01 X132.9532 Y93.7613
G01 X132.6987 Y93.6975
G01 X132.4516 Y93.6091
G01 X132.2144 Y93.4970
G01 X131.9894 Y93.3621
G01 X131.7786 Y93.2058
G01 X131.5842 Y93.0296
G01 X131.4080 Y92.8352
G01 X131.2517 Y92.6244
G01 X131.1168 Y92.3994
G01 X131.0047 Y92.1622
G01 X130.9163 Y91.9151
G01 X130.8525 Y91.6606
G01 X130.8140 Y91.4011
G01 X130.8011 Y91.1390
G00 Z2.0000
G00 X96.8011 Y91.1390
G01 F100.00
G01 Z-0.8000
G01 F200.00
G01 X96.8140 Y90.8769
G01 X96.8525 Y90.6174
G01 X96.9163 Y90.3629
G01 X97.0047 Y90.1158
G01 X97.1168 Y89.8786
G01 X97.2517 Y89.6536
G01 X97.4080 Y89.4428
G01 X97.5842 Y89.2484
G01 X97.7786 Y89.0722
G01 X97.9894 Y88.9159
G01 X98.2144 Y88.7810
G01 X98.4516 Y88.6689
G01 X98.6987 Y88.5805
G01 X98.9532 Y88.5167
G01 X99.2127 Y88.4782
G01 X99.4748 Y88.4653
G01 X99.7369 Y88.4782
G01 X99.9964 Y88.5167
G01 X100.2509 Y88.5805
G01 X100.4980 Y88.6689
G01 X100.7352 Y88.7810
G01 X100.9602 Y88.9159
G01 X101.1710 Y89.0722
G01 X101.3654 Y89.2484
G01 X101.5416 Y89.4428
G01 X101.6979 Y89.6536
G01 X101.8328 Y89.8786
G01 X101.9449 Y90.1158
G01 X102.0333 Y90.3629
G01 X102.0971 Y90.6174
G01 X102.1356 Y90.8769
G01 X102.1485 Y91.1390
G01 X102.1356 Y91.4011
G01 X102.0971 Y91.6606
G01 X102.0333 Y91.9151
G01 X101.9449 Y92.1622
G01 X101.8328 Y92.3994
G01 X101.6979 Y92.6244
G01 X101.5416 Y92.8352
G01 X101.3654 Y93.0296
G01 X101.1710 Y93.2058
G01 X100.9602 Y93.3621
G01 X100.7352 Y93.4970
G01 X100.4980 Y93.6091
G01 X100.2509 Y93.6975
G01 X99.9964 Y93.7613
G01 X99.7369 Y93.7998
G01 X99.4748 Y93.8127
G01 X99.2127 Y93.7998
G01 X98.9532 Y93.7613
G01 X98.6987 Y93.6975
G01 X98.4516 Y93.6091
G01 X98.2144 Y93.4970
G01 X97.9894 Y93.3621
G01 X97.7786 Y93.2058
G01 X97.5842 Y93.0296
G01 X97.4080 Y92.8352
G01 X97.2517 Y92.6244
G01 X97.1168 Y92.3994
G01 X97.0047 Y92.1622
G01 X96.9163 Y91.9151
G01 X96.8525 Y91.6606
G01 X96.8140 Y91.4011
G01 X96.8011 Y91.1390
G00 X96.8011 Y91.1390
G01 F100.00
G01 Z-1.6000
G01 F200.00
G01 X96.8140 Y90.8769
G01 X96.8525 Y90.6174
G01 X96.9163 Y90.3629
G01 X97.0047 Y90.1158
G01 X97.1168 Y89.8786
G01 X97.2517 Y89.6536
G01 X97.4080 Y89.4428
G01 X97.5842 Y89.2484
G01 X97.7786 Y89.0722
G01 X97.9894 Y88.9159
G01 X98.2144 Y88.7810
G01 X98.4516 Y88.6689
G01 X98.6987 Y88.5805
G01 X98.9532 Y88.5167
G01 X99.2127 Y88.4782
G01 X99.4748 Y88.4653
G01 X99.7369 Y88.4782
G01 X99.9964 Y88.5167
G01 X100.2509 Y88.5805
G01 X100.4980 Y88.6689
G01 X100.7352 Y88.7810
G01 X100.9602 Y88.9159
G01 X101.1710 Y89.0722
G01 X101.3654 Y89.2484
G01 X101.5416 Y89.4428
G01 X101.6979 Y89.6536
G01 X101.8328 Y89.8786
G01 X101.9449 Y90.1158
G01 X102.0333 Y90.3629
G01 X102.0971 Y90.6174
G01 X102.1356 Y90.8769
G01 X102.1485 Y91.1390
G01 X102.1356 Y91.4011
G01 X102.0971 Y91.6606
G01 X102.0333 Y91.9151
G01 X101.9449 Y92.1622
G01 X101.8328 Y92.3994
G01 X101.6979 Y92.6244
G01 X101.5416 Y92.8352
G01 X101.3654 Y93.0296
G01 X101.1710 Y93.2058
G01 X100.9602 Y93.3621
G01 X100.7352 Y93.4970
G01 X100.4980 Y93.6091
G01 X100.2509 Y93.6975
G01 X99.9964 Y93.7613
G01 X99.7369 Y93.7998
G01 X99.4748 Y93.8127
G01 X99.2127 Y93.7998
G01 X98.9532 Y93.7613
G01 X98.6987 Y93.6975
G01 X98.4516 Y93.6091
G01 X98.2144 Y93.4970
G01 X97.9894 Y93.3621
G01 X97.7786 Y93.2058
G01 X97.5842 Y93.0296
G01 X97.4080 Y92.8352
G01 X97.2517 Y92.6244
G01 X97.1168 Y92.3994
G01 X97.0047 Y92.1622
G01 X96.9163 Y91.9151
G01 X96.8525 Y91.6606
G01 X96.8140 Y91.4011
G01 X96.8011 Y91.1390
G00 X96.8011 Y91.1390
G01 F100.00
G01 Z-2.4000
G01 F200.00
G01 X96.8140 Y90.8769
G01 X96.8525 Y90.6174
G01 X96.9163 Y90.3629
G01 X97.0047 Y90.1158
G01 X97.1168 Y89.8786
G01 X97.2517 Y89.6536
G01 X97.4080 Y89.4428
G01 X97.5842 Y89.2484
G01 X97.7786 Y89.0722
G01 X97.9894 Y88.9159
G01 X98.2144 Y88.7810
G01 X98.4516 Y88.6689
G01 X98.6987 Y88.5805
G01 X98.9532 Y88.5167
G01 X99.2127 Y88.4782
G01 X99.4748 Y88.4653
G01 X99.7369 Y88.4782
G01 X99.9964 Y88.5167
G01 X100.2509 Y88.5805
G01 X100.4980 Y88.6689
G01 X100.7352 Y88.7810
G01 X100.9602 Y88.9159
G01 X101.1710 Y89.0722
G01 X101.3654 Y89.2484
G01 X101.5416 Y89.4428
G01 X101.6979 Y89.6536
G01 X101.8328 Y89.8786
G01 X101.9449 Y90.1158
G01 X102.0333 Y90.3629
G01 X102.0971 Y90.6174
G01 X102.1356 Y90.8769
G01 X102.1485 Y91.1390
G01 X102.1356 Y91.4011
G01 X102.0971 Y91.6606
G01 X102.0333 Y91.9151
G01 X101.9449 Y92.1622
G01 X101.8328 Y92.3994
G01 X101.6979 Y92.6244
G01 X101.5416 Y92.8352
G01 X101.3654 Y93.0296
G01 X101.1710 Y93.2058
G01 X100.9602 Y93.3621
G01 X100.7352 Y93.4970
G01 X100.4980 Y93.6091
G01 X100.2509 Y93.6975
G01 X99.9964 Y93.7613
G01 X99.7369 Y93.7998
G01 X99.4748 Y93.8127
G01 X99.2127 Y93.7998
G01 X98.9532 Y93.7613
G01 X98.6987 Y93.6975
G01 X98.4516 Y93.6091
G01 X98.2144 Y93.4970
G01 X97.9894 Y93.3621
G01 X97.7786 Y93.2058
G01 X97.5842 Y93.0296
G01 X97.4080 Y92.8352
G01 X97.2517 Y92.6244
G01 X97.1168 Y92.3994
G01 X97.0047 Y92.1622
G01 X96.9163 Y91.9151
G01 X96.8525 Y91.6606
G01 X96.8140 Y91.4011
G01 X96.8011 Y91.1390
G00 X96.8011 Y91.1390
G01 F100.00
G01 Z-3.2000
G01 F200.00
G01 X96.8140 Y90.8769
G01 X96.8525 Y90.6174
G01 X96.9163 Y90.3629
G01 X97.0047 Y90.1158
G01 X97.1168 Y89.8786
G01 X97.2517 Y89.6536
G01 X97.4080 Y89.4428
G01 X97.5842 Y89.2484
G01 X97.7786 Y89.0722
G01 X97.9894 Y88.9159
G01 X98.2144 Y88.7810
G01 X98.4516 Y88.6689
G01 X98.6987 Y88.5805
G01 X98.9532 Y88.5167
G01 X99.2127 Y88.4782
G01 X99.4748 Y88.4653
G01 X99.7369 Y88.4782
G01 X99.9964 Y88.5167
G01 X100.2509 Y88.5805
G01 X100.4980 Y88.6689
G01 X100.7352 Y88.7810
G01 X100.9602 Y88.9159
G01 X101.1710 Y89.0722
G01 X101.3654 Y89.2484
G01 X101.5416 Y89.4428
G01 X101.6979 Y89.6536
G01 X101.8328 Y89.8786
G01 X101.9449 Y90.1158
G01 X102.0333 Y90.3629
G01 X102.0971 Y90.6174
G01 X102.1356 Y90.8769
G01 X102.1485 Y91.1390
G01 X102.1356 Y91.4011
G01 X102.0971 Y91.6606
G01 X102.0333 Y91.9151
G01 X101.9449 Y92.1622
G01 X101.8328 Y92.3994
G01 X101.6979 Y92.6244
G01 X101.5416 Y92.8352
G01 X101.3654 Y93.0296
G01 X101.1710 Y93.2058
G01 X100.9602 Y93.3621
G01 X100.7352 Y93.4970
G01 X100.4980 Y93.6091
G01 X100.2509 Y93.6975
G01 X99.9964 Y93.7613
G01 X99.7369 Y93.7998
G01 X99.4748 Y93.8127
G01 X99.2127 Y93.7998
G01 X98.9532 Y93.7613
G01 X98.6987 Y93.6975
G01 X98.4516 Y93.6091
G01 X98.2144 Y93.4970
G01 X97.9894 Y93.3621
G01 X97.7786 Y93.2058
G01 X97.5842 Y93.0296
G01 X97.4080 Y92.8352
G01 X97.2517 Y92.6244
G01 X97.1168 Y92.3994
G01 X97.0047 Y92.1622
G01 X96.9163 Y91.9151
G01 X96.8525 Y91.6606
G01 X96.8140 Y91.4011
G01 X96.8011 Y91.1390
G00 X96.8011 Y91.1390
G01 F100.00
G01 Z-3.7000
G01 F200.00
G01 X96.8140 Y90.8769
G01 X96.8525 Y90.6174
G01 X96.9163 Y90.3629
G01 X97.0047 Y90.1158
G01 X97.1168 Y89.8786
G01 X97.2517 Y89.6536
G01 X97.4080 Y89.4428
G01 X97.5842 Y89.2484
G01 X97.7786 Y89.0722
G01 X97.9894 Y88.9159
G01 X98.2144 Y88.7810
G01 X98.4516 Y88.6689
G01 X98.6987 Y88.5805
G01 X98.9532 Y88.5167
G01 X99.2127 Y88.4782
G01 X99.4748 Y88.4653
G01 X99.7369 Y88.4782
G01 X99.9964 Y88.5167
G01 X100.2509 Y88.5805
G01 X100.4980 Y88.6689
G01 X100.7352 Y88.7810
G01 X100.9602 Y88.9159
G01 X101.1710 Y89.0722
G01 X101.3654 Y89.2484
G01 X101.5416 Y89.4428
G01 X101.6979 Y89.6536
G01 X101.8328 Y89.8786
G01 X101.9449 Y90.1158
G01 X102.0333 Y90.3629
G01 X102.0971 Y90.6174
G01 X102.1356 Y90.8769
G01 X102.1485 Y91.1390
G01 X102.1356 Y91.4011
G01 X102.0971 Y91.6606
G01 X102.0333 Y91.9151
G01 X101.9449 Y92.1622
G01 X101.8328 Y92.3994
G01 X101.6979 Y92.6244
G01 X101.5416 Y92.8352
G01 X101.3654 Y93.0296
G01 X101.1710 Y93.2058
G01 X100.9602 Y93.3621
G01 X100.7352 Y93.4970
G01 X100.4980 Y93.6091
G01 X100.2509 Y93.6975
G01 X99.9964 Y93.7613
G01 X99.7369 Y93.7998
G01 X99.4748 Y93.8127
G01 X99.2127 Y93.7998
G01 X98.9532 Y93.7613
G01 X98.6987 Y93.6975
G01 X98.4516 Y93.6091
G01 X98.2144 Y93.4970
G01 X97.9894 Y93.3621
G01 X97.7786 Y93.2058
G01 X97.5842 Y93.0296
G01 X97.4080 Y92.8352
G01 X97.2517 Y92.6244
G01 X97.1168 Y92.3994
G01 X97.0047 Y92.1622
G01 X96.9163 Y91.9151
G01 X96.8525 Y91.6606
G01 X96.8140 Y91.4011
G01 X96.8011 Y91.1390
G00 Z2.0000
G00 X60.8011 Y91.1390
G01 F100.00
G01 Z-0.8000
G01 F200.00
G01 X60.8140 Y90.8769
G01 X60.8525 Y90.6174
G01 X60.9163 Y90.3629
G01 X61.0047 Y90.1158
G01 X61.1168 Y89.8786
G01 X61.2517 Y89.6536
G01 X61.4080 Y89.4428
G01 X61.5842 Y89.2484
G01 X61.7786 Y89.0722
G01 X61.9894 Y88.9159
G01 X62.2144 Y88.7810
G01 X62.4516 Y88.6689
G01 X62.6987 Y88.5805
G01 X62.9532 Y88.5167
G01 X63.2127 Y88.4782
G01 X63.4748 Y88.4653
G01 X63.7369 Y88.4782
G01 X63.9964 Y88.5167
G01 X64.2509 Y88.5805
G01 X64.4980 Y88.6689
G01 X64.7352 Y88.7810
G01 X64.9602 Y88.9159
G01 X65.1710 Y89.0722
G01 X65.3654 Y89.2484
G01 X65.5416 Y89.4428
G01 X65.6979 Y89.6536
G01 X65.8328 Y89.8786
G01 X65.9449 Y90.1158
G01 X66.0333 Y90.3629
G01 X66.0971 Y90.6174
G01 X66.1356 Y90.8769
G01 X66.1485 Y91.1390
G01 X66.1356 Y91.4011
G01 X66.0971 Y91.6606
G01 X66.0333 Y91.9151
G01 X65.9449 Y92.1622
G01 X65.8328 Y92.3994
G01 X65.6979 Y92.6244
G01 X65.5416 Y92.8352
G01 X65.3654 Y93.0296
G01 X65.1710 Y93.2058
G01 X64.9602 Y93.3621
G01 X64.7352 Y93.4970
G01 X64.4980 Y93.6091
G01 X64.2509 Y93.6975
G01 X63.9964 Y93.7613
G01 X63.7369 Y93.7998
G01 X63.4748 Y93.8127
G01 X63.2127 Y93.7998
G01 X62.9532 Y93.7613
G01 X62.6987 Y93.6975
G01 X62.4516 Y93.6091
G01 X62.2144 Y93.4970
G01 X61.9894 Y93.3621
G01 X61.7786 Y93.2058
G01 X61.5842 Y93.0296
G01 X61.4080 Y92.8352
G01 X61.2517 Y92.6244
G01 X61.1168 Y92.3994
G01 X61.0047 Y92.1622
G01 X60.9163 Y91.9151
G01 X60.8525 Y91.6606
G01 X60.8140 Y91.4011
G01 X60.8011 Y91.1390
G00 X60.8011 Y91.1390
G01 F100.00
G01 Z-1.6000
G01 F200.00
G01 X60.8140 Y90.8769
G01 X60.8525 Y90.6174
G01 X60.9163 Y90.3629
G01 X61.0047 Y90.1158
G01 X61.1168 Y89.8786
G01 X61.2517 Y89.6536
G01 X61.4080 Y89.4428
G01 X61.5842 Y89.2484
G01 X61.7786 Y89.0722
G01 X61.9894 Y88.9159
G01 X62.2144 Y88.7810
G01 X62.4516 Y88.6689
G01 X62.6987 Y88.5805
G01 X62.9532 Y88.5167
G01 X63.2127 Y88.4782
G01 X63.4748 Y88.4653
G01 X63.7369 Y88.4782
G01 X63.9964 Y88.5167
G01 X64.2509 Y88.5805
G01 X64.4980 Y88.6689
G01 X64.7352 Y88.7810
G01 X64.9602 Y88.9159
G01 X65.1710 Y89.0722
G01 X65.3654 Y89.2484
G01 X65.5416 Y89.4428
G01 X65.6979 Y89.6536
G01 X65.8328 Y89.8786
G01 X65.9449 Y90.1158
G01 X66.0333 Y90.3629
G01 X66.0971 Y90.6174
G01 X66.1356 Y90.8769
G01 X66.1485 Y91.1390
G01 X66.1356 Y91.4011
G01 X66.0971 Y91.6606
G01 X66.0333 Y91.9151
G01 X65.9449 Y92.1622
G01 X65.8328 Y92.3994
G01 X65.6979 Y92.6244
G01 X65.5416 Y92.8352
G01 X65.3654 Y93.0296
G01 X65.1710 Y93.2058
G01 X64.9602 Y93.3621
G01 X64.7352 Y93.4970
G01 X64.4980 Y93.6091
G01 X64.2509 Y93.6975
G01 X63.9964 Y93.7613
G01 X63.7369 Y93.7998
G01 X63.4748 Y93.8127
G01 X63.2127 Y93.7998
G01 X62.9532 Y93.7613
G01 X62.6987 Y93.6975
G01 X62.4516 Y93.6091
G01 X62.2144 Y93.4970
G01 X61.9894 Y93.3621
G01 X61.7786 Y93.2058
G01 X61.5842 Y93.0296
G01 X61.4080 Y92.8352
G01 X61.2517 Y92.6244
G01 X61.1168 Y92.3994
G01 X61.0047 Y92.1622
G01 X60.9163 Y91.9151
G01 X60.8525 Y91.6606
G01 X60.8140 Y91.4011
G01 X60.8011 Y91.1390
G00 X60.8011 Y91.1390
G01 F100.00
G01 Z-2.4000
G01 F200.00
G01 X60.8140 Y90.8769
G01 X60.8525 Y90.6174
G01 X60.9163 Y90.3629
G01 X61.0047 Y90.1158
G01 X61.1168 Y89.8786
G01 X61.2517 Y89.6536
G01 X61.4080 Y89.4428
G01 X61.5842 Y89.2484
G01 X61.7786 Y89.0722
G01 X61.9894 Y88.9159
G01 X62.2144 Y88.7810
G01 X62.4516 Y88.6689
G01 X62.6987 Y88.5805
G01 X62.9532 Y88.5167
G01 X63.2127 Y88.4782
G01 X63.4748 Y88.4653
G01 X63.7369 Y88.4782
G01 X63.9964 Y88.5167
G01 X64.2509 Y88.5805
G01 X64.4980 Y88.6689
G01 X64.7352 Y88.7810
G01 X64.9602 Y88.9159
G01 X65.1710 Y89.0722
G01 X65.3654 Y89.2484
G01 X65.5416 Y89.4428
G01 X65.6979 Y89.6536
G01 X65.8328 Y89.8786
G01 X65.9449 Y90.1158
G01 X66.0333 Y90.3629
G01 X66.0971 Y90.6174
G01 X66.1356 Y90.8769
G01 X66.1485 Y91.1390
G01 X66.1356 Y91.4011
G01 X66.0971 Y91.6606
G01 X66.0333 Y91.9151
G01 X65.9449 Y92.1622
G01 X65.8328 Y92.3994
G01 X65.6979 Y92.6244
G01 X65.5416 Y92.8352
G01 X65.3654 Y93.0296
G01 X65.1710 Y93.2058
G01 X64.9602 Y93.3621
G01 X64.7352 Y93.4970
G01 X64.4980 Y93.6091
G01 X64.2509 Y93.6975
G01 X63.9964 Y93.7613
G01 X63.7369 Y93.7998
G01 X63.4748 Y93.8127
G01 X63.2127 Y93.7998
G01 X62.9532 Y93.7613
G01 X62.6987 Y93.6975
G01 X62.4516 Y93.6091
G01 X62.2144 Y93.4970
G01 X61.9894 Y93.3621
G01 X61.7786 Y93.2058
G01 X61.5842 Y93.0296
G01 X61.4080 Y92.8352
G01 X61.2517 Y92.6244
G01 X61.1168 Y92.3994
G01 X61.0047 Y92.1622
G01 X60.9163 Y91.9151
G01 X60.8525 Y91.6606
G01 X60.8140 Y91.4011
G01 X60.8011 Y91.1390
G00 X60.8011 Y91.1390
G01 F100.00
G01 Z-3.2000
G01 F200.00
G01 X60.8140 Y90.8769
G01 X60.8525 Y90.6174
G01 X60.9163 Y90.3629
G01 X61.0047 Y90.1158
G01 X61.1168 Y89.8786
G01 X61.2517 Y89.6536
G01 X61.4080 Y89.4428
G01 X61.5842 Y89.2484
G01 X61.7786 Y89.0722
G01 X61.9894 Y88.9159
G01 X62.2144 Y88.7810
G01 X62.4516 Y88.6689
G01 X62.6987 Y88.5805
G01 X62.9532 Y88.5167
G01 X63.2127 Y88.4782
G01 X63.4748 Y88.4653
G01 X63.7369 Y88.4782
G01 X63.9964 Y88.5167
G01 X64.2509 Y88.5805
G01 X64.4980 Y88.6689
G01 X64.7352 Y88.7810
G01 X64.9602 Y88.9159
G01 X65.1710 Y89.0722
G01 X65.3654 Y89.2484
G01 X65.5416 Y89.4428
G01 X65.6979 Y89.6536
G01 X65.8328 Y89.8786
G01 X65.9449 Y90.1158
G01 X66.0333 Y90.3629
G01 X66.0971 Y90.6174
G01 X66.1356 Y90.8769
G01 X66.1485 Y91.1390
G01 X66.1356 Y91.4011
G01 X66.0971 Y91.6606
G01 X66.0333 Y91.9151
G01 X65.9449 Y92.1622
G01 X65.8328 Y92.3994
G01 X65.6979 Y92.6244
G01 X65.5416 Y92.8352
G01 X65.3654 Y93.0296
G01 X65.1710 Y93.2058
G01 X64.9602 Y93.3621
G01 X64.7352 Y93.4970
G01 X64.4980 Y93.6091
G01 X64.2509 Y93.6975
G01 X63.9964 Y93.7613
G01 X63.7369 Y93.7998
G01 X63.4748 Y93.8127
G01 X63.2127 Y93.7998
G01 X62.9532 Y93.7613
G01 X62.6987 Y93.6975
G01 X62.4516 Y93.6091
G01 X62.2144 Y93.4970
G01 X61.9894 Y93.3621
G01 X61.7786 Y93.2058
G01 X61.5842 Y93.0296
G01 X61.4080 Y92.8352
G01 X61.2517 Y92.6244
G01 X61.1168 Y92.3994
G01 X61.0047 Y92.1622
G01 X60.9163 Y91.9151
G01 X60.8525 Y91.6606
G01 X60.8140 Y91.4011
G01 X60.8011 Y91.1390
G00 X60.8011 Y91.1390
G01 F100.00
G01 Z-3.7000
G01 F200.00
G01 X60.8140 Y90.8769
G01 X60.8525 Y90.6174
G01 X60.9163 Y90.3629
G01 X61.0047 Y90.1158
G01 X61.1168 Y89.8786
G01 X61.2517 Y89.6536
G01 X61.4080 Y89.4428
G01 X61.5842 Y89.2484
G01 X61.7786 Y89.0722
G01 X61.9894 Y88.9159
G01 X62.2144 Y88.7810
G01 X62.4516 Y88.6689
G01 X62.6987 Y88.5805
G01 X62.9532 Y88.5167
G01 X63.2127 Y88.4782
G01 X63.4748 Y88.4653
G01 X63.7369 Y88.4782
G01 X63.9964 Y88.5167
G01 X64.2509 Y88.5805
G01 X64.4980 Y88.6689
G01 X64.7352 Y88.7810
G01 X64.9602 Y88.9159
G01 X65.1710 Y89.0722
G01 X65.3654 Y89.2484
G01 X65.5416 Y89.4428
G01 X65.6979 Y89.6536
G01 X65.8328 Y89.8786
G01 X65.9449 Y90.1158
G01 X66.0333 Y90.3629
G01 X66.0971 Y90.6174
G01 X66.1356 Y90.8769
G01 X66.1485 Y91.1390
G01 X66.1356 Y91.4011
G01 X66.0971 Y91.6606
G01 X66.0333 Y91.9151
G01 X65.9449 Y92.1622
G01 X65.8328 Y92.3994
G01 X65.6979 Y92.6244
G01 X65.5416 Y92.8352
G01 X65.3654 Y93.0296
G01 X65.1710 Y93.2058
G01 X64.9602 Y93.3621
G01 X64.7352 Y93.4970
G01 X64.4980 Y93.6091
G01 X64.2509 Y93.6975
G01 X63.9964 Y93.7613
G01 X63.7369 Y93.7998
G01 X63.4748 Y93.8127
G01 X63.2127 Y93.7998
G01 X62.9532 Y93.7613
G01 X62.6987 Y93.6975
G01 X62.4516 Y93.6091
G01 X62.2144 Y93.4970
G01 X61.9894 Y93.3621
G01 X61.7786 Y93.2058
G01 X61.5842 Y93.0296
G01 X61.4080 Y92.8352
G01 X61.2517 Y92.6244
G01 X61.1168 Y92.3994
G01 X61.0047 Y92.1622
G01 X60.9163 Y91.9151
G01 X60.8525 Y91.6606
G01 X60.8140 Y91.4011
G01 X60.8011 Y91.1390
G00 Z2.0000
G00 X23.8011 Y91.1390
G01 F100.00
G01 Z-0.8000
G01 F200.00
G01 X23.8140 Y90.8769
G01 X23.8525 Y90.6174
G01 X23.9163 Y90.3629
G01 X24.0047 Y90.1158
G01 X24.1168 Y89.8786
G01 X24.2517 Y89.6536
G01 X24.4080 Y89.4428
G01 X24.5842 Y89.2484
G01 X24.7786 Y89.0722
G01 X24.9894 Y88.9159
G01 X25.2144 Y88.7810
G01 X25.4516 Y88.6689
G01 X25.6987 Y88.5805
G01 X25.9532 Y88.5167
G01 X26.2127 Y88.4782
G01 X26.4748 Y88.4653
G01 X26.7369 Y88.4782
G01 X26.9964 Y88.5167
G01 X27.2509 Y88.5805
G01 X27.4980 Y88.6689
G01 X27.7352 Y88.7810
G01 X27.9602 Y88.9159
G01 X28.1710 Y89.0722
G01 X28.3654 Y89.2484
G01 X28.5416 Y89.4428
G01 X28.6979 Y89.6536
G01 X28.8328 Y89.8786
G01 X28.9449 Y90.1158
G01 X29.0333 Y90.3629
G01 X29.0971 Y90.6174
G01 X29.1356 Y90.8769
G01 X29.1485 Y91.1390
G01 X29.1356 Y91.4011
G01 X29.0971 Y91.6606
G01 X29.0333 Y91.9151
G01 X28.9449 Y92.1622
G01 X28.8328 Y92.3994
G01 X28.6979 Y92.6244
G01 X28.5416 Y92.8352
G01 X28.3654 Y93.0296
G01 X28.1710 Y93.2058
G01 X27.9602 Y93.3621
G01 X27.7352 Y93.4970
G01 X27.4980 Y93.6091
G01 X27.2509 Y93.6975
G01 X26.9964 Y93.7613
G01 X26.7369 Y93.7998
G01 X26.4748 Y93.8127
G01 X26.2127 Y93.7998
G01 X25.9532 Y93.7613
G01 X25.6987 Y93.6975
G01 X25.4516 Y93.6091
G01 X25.2144 Y93.4970
G01 X24.9894 Y93.3621
G01 X24.7786 Y93.2058
G01 X24.5842 Y93.0296
G01 X24.4080 Y92.8352
G01 X24.2517 Y92.6244
G01 X24.1168 Y92.3994
G01 X24.0047 Y92.1622
G01 X23.9163 Y91.9151
G01 X23.8525 Y91.6606
G01 X23.8140 Y91.4011
G01 X23.8011 Y91.1390
G00 X23.8011 Y91.1390
G01 F100.00
G01 Z-1.6000
G01 F200.00
G01 X23.8140 Y90.8769
G01 X23.8525 Y90.6174
G01 X23.9163 Y90.3629
G01 X24.0047 Y90.1158
G01 X24.1168 Y89.8786
G01 X24.2517 Y89.6536
G01 X24.4080 Y89.4428
G01 X24.5842 Y89.2484
G01 X24.7786 Y89.0722
G01 X24.9894 Y88.9159
G01 X25.2144 Y88.7810
G01 X25.4516 Y88.6689
G01 X25.6987 Y88.5805
G01 X25.9532 Y88.5167
G01 X26.2127 Y88.4782
G01 X26.4748 Y88.4653
G01 X26.7369 Y88.4782
G01 X26.9964 Y88.5167
G01 X27.2509 Y88.5805
G01 X27.4980 Y88.6689
G01 X27.7352 Y88.7810
G01 X27.9602 Y88.9159
G01 X28.1710 Y89.0722
G01 X28.3654 Y89.2484
G01 X28.5416 Y89.4428
G01 X28.6979 Y89.6536
G01 X28.8328 Y89.8786
G01 X28.9449 Y90.1158
G01 X29.0333 Y90.3629
G01 X29.0971 Y90.6174
G01 X29.1356 Y90.8769
G01 X29.1485 Y91.1390
G01 X29.1356 Y91.4011
G01 X29.0971 Y91.6606
G01 X29.0333 Y91.9151
G01 X28.9449 Y92.1622
G01 X28.8328 Y92.3994
G01 X28.6979 Y92.6244
G01 X28.5416 Y92.8352
G01 X28.3654 Y93.0296
G01 X28.1710 Y93.2058
G01 X27.9602 Y93.3621
G01 X27.7352 Y93.4970
G01 X27.4980 Y93.6091
G01 X27.2509 Y93.6975
G01 X26.9964 Y93.7613
G01 X26.7369 Y93.7998
G01 X26.4748 Y93.8127
G01 X26.2127 Y93.7998
G01 X25.9532 Y93.7613
G01 X25.6987 Y93.6975
G01 X25.4516 Y93.6091
G01 X25.2144 Y93.4970
G01 X24.9894 Y93.3621
G01 X24.7786 Y93.2058
G01 X24.5842 Y93.0296
G01 X24.4080 Y92.8352
G01 X24.2517 Y92.6244
G01 X24.1168 Y92.3994
G01 X24.0047 Y92.1622
G01 X23.9163 Y91.9151
G01 X23.8525 Y91.6606
G01 X23.8140 Y91.4011
G01 X23.8011 Y91.1390
G00 X23.8011 Y91.1390
G01 F100.00
G01 Z-2.4000
G01 F200.00
G01 X23.8140 Y90.8769
G01 X23.8525 Y90.6174
G01 X23.9163 Y90.3629
G01 X24.0047 Y90.1158
G01 X24.1168 Y89.8786
G01 X24.2517 Y89.6536
G01 X24.4080 Y89.4428
G01 X24.5842 Y89.2484
G01 X24.7786 Y89.0722
G01 X24.9894 Y88.9159
G01 X25.2144 Y88.7810
G01 X25.4516 Y88.6689
G01 X25.6987 Y88.5805
G01 X25.9532 Y88.5167
G01 X26.2127 Y88.4782
G01 X26.4748 Y88.4653
G01 X26.7369 Y88.4782
G01 X26.9964 Y88.5167
G01 X27.2509 Y88.5805
G01 X27.4980 Y88.6689
G01 X27.7352 Y88.7810
G01 X27.9602 Y88.9159
G01 X28.1710 Y89.0722
G01 X28.3654 Y89.2484
G01 X28.5416 Y89.4428
G01 X28.6979 Y89.6536
G01 X28.8328 Y89.8786
G01 X28.9449 Y90.1158
G01 X29.0333 Y90.3629
G01 X29.0971 Y90.6174
G01 X29.1356 Y90.8769
G01 X29.1485 Y91.1390
G01 X29.1356 Y91.4011
G01 X29.0971 Y91.6606
G01 X29.0333 Y91.9151
G01 X28.9449 Y92.1622
G01 X28.8328 Y92.3994
G01 X28.6979 Y92.6244
G01 X28.5416 Y92.8352
G01 X28.3654 Y93.0296
G01 X28.1710 Y93.2058
G01 X27.9602 Y93.3621
G01 X27.7352 Y93.4970
G01 X27.4980 Y93.6091
G01 X27.2509 Y93.6975
G01 X26.9964 Y93.7613
G01 X26.7369 Y93.7998
G01 X26.4748 Y93.8127
G01 X26.2127 Y93.7998
G01 X25.9532 Y93.7613
G01 X25.6987 Y93.6975
G01 X25.4516 Y93.6091
G01 X25.2144 Y93.4970
G01 X24.9894 Y93.3621
G01 X24.7786 Y93.2058
G01 X24.5842 Y93.0296
G01 X24.4080 Y92.8352
G01 X24.2517 Y92.6244
G01 X24.1168 Y92.3994
G01 X24.0047 Y92.1622
G01 X23.9163 Y91.9151
G01 X23.8525 Y91.6606
G01 X23.8140 Y91.4011
G01 X23.8011 Y91.1390
G00 X23.8011 Y91.1390
G01 F100.00
G01 Z-3.2000
G01 F200.00
G01 X23.8140 Y90.8769
G01 X23.8525 Y90.6174
G01 X23.9163 Y90.3629
G01 X24.0047 Y90.1158
G01 X24.1168 Y89.8786
G01 X24.2517 Y89.6536
G01 X24.4080 Y89.4428
G01 X24.5842 Y89.2484
G01 X24.7786 Y89.0722
G01 X24.9894 Y88.9159
G01 X25.2144 Y88.7810
G01 X25.4516 Y88.6689
G01 X25.6987 Y88.5805
G01 X25.9532 Y88.5167
G01 X26.2127 Y88.4782
G01 X26.4748 Y88.4653
G01 X26.7369 Y88.4782
G01 X26.9964 Y88.5167
G01 X27.2509 Y88.5805
G01 X27.4980 Y88.6689
G01 X27.7352 Y88.7810
G01 X27.9602 Y88.9159
G01 X28.1710 Y89.0722
G01 X28.3654 Y89.2484
G01 X28.5416 Y89.4428
G01 X28.6979 Y89.6536
G01 X28.8328 Y89.8786
G01 X28.9449 Y90.1158
G01 X29.0333 Y90.3629
G01 X29.0971 Y90.6174
G01 X29.1356 Y90.8769
G01 X29.1485 Y91.1390
G01 X29.1356 Y91.4011
G01 X29.0971 Y91.6606
G01 X29.0333 Y91.9151
G01 X28.9449 Y92.1622
G01 X28.8328 Y92.3994
G01 X28.6979 Y92.6244
G01 X28.5416 Y92.8352
G01 X28.3654 Y93.0296
G01 X28.1710 Y93.2058
G01 X27.9602 Y93.3621
G01 X27.7352 Y93.4970
G01 X27.4980 Y93.6091
G01 X27.2509 Y93.6975
G01 X26.9964 Y93.7613
G01 X26.7369 Y93.7998
G01 X26.4748 Y93.8127
G01 X26.2127 Y93.7998
G01 X25.9532 Y93.7613
G01 X25.6987 Y93.6975
G01 X25.4516 Y93.6091
G01 X25.2144 Y93.4970
G01 X24.9894 Y93.3621
G01 X24.7786 Y93.2058
G01 X24.5842 Y93.0296
G01 X24.4080 Y92.8352
G01 X24.2517 Y92.6244
G01 X24.1168 Y92.3994
G01 X24.0047 Y92.1622
G01 X23.9163 Y91.9151
G01 X23.8525 Y91.6606
G01 X23.8140 Y91.4011
G01 X23.8011 Y91.1390
G00 X23.8011 Y91.1390
G01 F100.00
G01 Z-3.7000
G01 F200.00
G01 X23.8140 Y90.8769
G01 X23.8525 Y90.6174
G01 X23.9163 Y90.3629
G01 X24.0047 Y90.1158
G01 X24.1168 Y89.8786
G01 X24.2517 Y89.6536
G01 X24.4080 Y89.4428
G01 X24.5842 Y89.2484
G01 X24.7786 Y89.0722
G01 X24.9894 Y88.9159
G01 X25.2144 Y88.7810
G01 X25.4516 Y88.6689
G01 X25.6987 Y88.5805
G01 X25.9532 Y88.5167
G01 X26.2127 Y88.4782
G01 X26.4748 Y88.4653
G01 X26.7369 Y88.4782
G01 X26.9964 Y88.5167
G01 X27.2509 Y88.5805
G01 X27.4980 Y88.6689
G01 X27.7352 Y88.7810
G01 X27.9602 Y88.9159
G01 X28.1710 Y89.0722
G01 X28.3654 Y89.2484
G01 X28.5416 Y89.4428
G01 X28.6979 Y89.6536
G01 X28.8328 Y89.8786
G01 X28.9449 Y90.1158
G01 X29.0333 Y90.3629
G01 X29.0971 Y90.6174
G01 X29.1356 Y90.8769
G01 X29.1485 Y91.1390
G01 X29.1356 Y91.4011
G01 X29.0971 Y91.6606
G01 X29.0333 Y91.9151
G01 X28.9449 Y92.1622
G01 X28.8328 Y92.3994
G01 X28.6979 Y92.6244
G01 X28.5416 Y92.8352
G01 X28.3654 Y93.0296
G01 X28.1710 Y93.2058
G01 X27.9602 Y93.3621
G01 X27.7352 Y93.4970
G01 X27.4980 Y93.6091
G01 X27.2509 Y93.6975
G01 X26.9964 Y93.7613
G01 X26.7369 Y93.7998
G01 X26.4748 Y93.8127
G01 X26.2127 Y93.7998
G01 X25.9532 Y93.7613
G01 X25.6987 Y93.6975
G01 X25.4516 Y93.6091
G01 X25.2144 Y93.4970
G01 X24.9894 Y93.3621
G01 X24.7786 Y93.2058
G01 X24.5842 Y93.0296
G01 X24.4080 Y92.8352
G01 X24.2517 Y92.6244
G01 X24.1168 Y92.3994
G01 X24.0047 Y92.1622
G01 X23.9163 Y91.9151
G01 X23.8525 Y91.6606
G01 X23.8140 Y91.4011
G01 X23.8011 Y91.1390
G00 Z2.0000
M05
G00 Z2.0000
G00 Z5.00
G00 X0.0 Y0.0

