(G-CODE GENERATED BY FLATCAM v8.991 - www.flatcam.org - Version Date: 2019/12/27)

(Name: Trous_int_iso_cnc)
(Type: G-code from Geometry)
(Units: MM)

(Created on Friday, 22 August 2025 at 18:09)

(TOOL DIAMETER: 2.0 mm)
(Feedrate: 200.0 mm/min)
(Feedrate_Z: 100.0 mm/min)
(Feedrate rapids 1500.0 mm/min)

(Z_Cut: -10.2 mm)
(DepthPerCut: 1.2 mm <=>9 passes)
(Z_Move: 2.0 mm)
(Z Toolchange: 15.0 mm)
(X,Y Toolchange: 0.00, 0.00 mm)
(Z Start: None mm)
(Z End: 5.0 mm)
(Steps per circle: 64)
(Preprocessor Geometry: default)

(X range:   26.0511 ...  133.8985  mm)
(Y range:   28.7153 ...   91.5627  mm)

(Spindle Speed: 8000 RPM)
G21
G90
G94




G01 F200.00
G00 Z2.0000

M03 S8000
G00 X26.0511 Y29.1390
G01 F100.00
G01 Z-1.2000
G01 F200.00
G01 X26.0532 Y29.0975
G01 X26.0593 Y29.0563
G01 X26.0694 Y29.0160
G01 X26.0834 Y28.9769
G01 X26.1012 Y28.9393
G01 X26.1225 Y28.9036
G01 X26.1473 Y28.8702
G01 X26.1752 Y28.8394
G01 X26.2060 Y28.8115
G01 X26.2394 Y28.7867
G01 X26.2751 Y28.7654
G01 X26.3127 Y28.7476
G01 X26.3518 Y28.7336
G01 X26.3921 Y28.7235
G01 X26.4333 Y28.7174
G01 X26.4748 Y28.7153
G01 X26.5163 Y28.7174
G01 X26.5575 Y28.7235
G01 X26.5978 Y28.7336
G01 X26.6369 Y28.7476
G01 X26.6745 Y28.7654
G01 X26.7102 Y28.7867
G01 X26.7436 Y28.8115
G01 X26.7744 Y28.8394
G01 X26.8023 Y28.8702
G01 X26.8271 Y28.9036
G01 X26.8484 Y28.9393
G01 X26.8662 Y28.9769
G01 X26.8802 Y29.0160
G01 X26.8903 Y29.0563
G01 X26.8964 Y29.0975
G01 X26.8985 Y29.1390
G01 X26.8964 Y29.1805
G01 X26.8903 Y29.2217
G01 X26.8802 Y29.2620
G01 X26.8662 Y29.3011
G01 X26.8484 Y29.3387
G01 X26.8271 Y29.3744
G01 X26.8023 Y29.4078
G01 X26.7744 Y29.4386
G01 X26.7436 Y29.4665
G01 X26.7102 Y29.4913
G01 X26.6745 Y29.5126
G01 X26.6369 Y29.5304
G01 X26.5978 Y29.5444
G01 X26.5575 Y29.5545
G01 X26.5163 Y29.5606
G01 X26.4748 Y29.5627
G01 X26.4333 Y29.5606
G01 X26.3921 Y29.5545
G01 X26.3518 Y29.5444
G01 X26.3127 Y29.5304
G01 X26.2751 Y29.5126
G01 X26.2394 Y29.4913
G01 X26.2060 Y29.4665
G01 X26.1752 Y29.4386
G01 X26.1473 Y29.4078
G01 X26.1225 Y29.3744
G01 X26.1012 Y29.3387
G01 X26.0834 Y29.3011
G01 X26.0694 Y29.2620
G01 X26.0593 Y29.2217
G01 X26.0532 Y29.1805
G01 X26.0511 Y29.1390
G00 X26.0511 Y29.1390
G01 F100.00
G01 Z-2.4000
G01 F200.00
G01 X26.0532 Y29.0975
G01 X26.0593 Y29.0563
G01 X26.0694 Y29.0160
G01 X26.0834 Y28.9769
G01 X26.1012 Y28.9393
G01 X26.1225 Y28.9036
G01 X26.1473 Y28.8702
G01 X26.1752 Y28.8394
G01 X26.2060 Y28.8115
G01 X26.2394 Y28.7867
G01 X26.2751 Y28.7654
G01 X26.3127 Y28.7476
G01 X26.3518 Y28.7336
G01 X26.3921 Y28.7235
G01 X26.4333 Y28.7174
G01 X26.4748 Y28.7153
G01 X26.5163 Y28.7174
G01 X26.5575 Y28.7235
G01 X26.5978 Y28.7336
G01 X26.6369 Y28.7476
G01 X26.6745 Y28.7654
G01 X26.7102 Y28.7867
G01 X26.7436 Y28.8115
G01 X26.7744 Y28.8394
G01 X26.8023 Y28.8702
G01 X26.8271 Y28.9036
G01 X26.8484 Y28.9393
G01 X26.8662 Y28.9769
G01 X26.8802 Y29.0160
G01 X26.8903 Y29.0563
G01 X26.8964 Y29.0975
G01 X26.8985 Y29.1390
G01 X26.8964 Y29.1805
G01 X26.8903 Y29.2217
G01 X26.8802 Y29.2620
G01 X26.8662 Y29.3011
G01 X26.8484 Y29.3387
G01 X26.8271 Y29.3744
G01 X26.8023 Y29.4078
G01 X26.7744 Y29.4386
G01 X26.7436 Y29.4665
G01 X26.7102 Y29.4913
G01 X26.6745 Y29.5126
G01 X26.6369 Y29.5304
G01 X26.5978 Y29.5444
G01 X26.5575 Y29.5545
G01 X26.5163 Y29.5606
G01 X26.4748 Y29.5627
G01 X26.4333 Y29.5606
G01 X26.3921 Y29.5545
G01 X26.3518 Y29.5444
G01 X26.3127 Y29.5304
G01 X26.2751 Y29.5126
G01 X26.2394 Y29.4913
G01 X26.2060 Y29.4665
G01 X26.1752 Y29.4386
G01 X26.1473 Y29.4078
G01 X26.1225 Y29.3744
G01 X26.1012 Y29.3387
G01 X26.0834 Y29.3011
G01 X26.0694 Y29.2620
G01 X26.0593 Y29.2217
G01 X26.0532 Y29.1805
G01 X26.0511 Y29.1390
G00 X26.0511 Y29.1390
G01 F100.00
G01 Z-3.6000
G01 F200.00
G01 X26.0532 Y29.0975
G01 X26.0593 Y29.0563
G01 X26.0694 Y29.0160
G01 X26.0834 Y28.9769
G01 X26.1012 Y28.9393
G01 X26.1225 Y28.9036
G01 X26.1473 Y28.8702
G01 X26.1752 Y28.8394
G01 X26.2060 Y28.8115
G01 X26.2394 Y28.7867
G01 X26.2751 Y28.7654
G01 X26.3127 Y28.7476
G01 X26.3518 Y28.7336
G01 X26.3921 Y28.7235
G01 X26.4333 Y28.7174
G01 X26.4748 Y28.7153
G01 X26.5163 Y28.7174
G01 X26.5575 Y28.7235
G01 X26.5978 Y28.7336
G01 X26.6369 Y28.7476
G01 X26.6745 Y28.7654
G01 X26.7102 Y28.7867
G01 X26.7436 Y28.8115
G01 X26.7744 Y28.8394
G01 X26.8023 Y28.8702
G01 X26.8271 Y28.9036
G01 X26.8484 Y28.9393
G01 X26.8662 Y28.9769
G01 X26.8802 Y29.0160
G01 X26.8903 Y29.0563
G01 X26.8964 Y29.0975
G01 X26.8985 Y29.1390
G01 X26.8964 Y29.1805
G01 X26.8903 Y29.2217
G01 X26.8802 Y29.2620
G01 X26.8662 Y29.3011
G01 X26.8484 Y29.3387
G01 X26.8271 Y29.3744
G01 X26.8023 Y29.4078
G01 X26.7744 Y29.4386
G01 X26.7436 Y29.4665
G01 X26.7102 Y29.4913
G01 X26.6745 Y29.5126
G01 X26.6369 Y29.5304
G01 X26.5978 Y29.5444
G01 X26.5575 Y29.5545
G01 X26.5163 Y29.5606
G01 X26.4748 Y29.5627
G01 X26.4333 Y29.5606
G01 X26.3921 Y29.5545
G01 X26.3518 Y29.5444
G01 X26.3127 Y29.5304
G01 X26.2751 Y29.5126
G01 X26.2394 Y29.4913
G01 X26.2060 Y29.4665
G01 X26.1752 Y29.4386
G01 X26.1473 Y29.4078
G01 X26.1225 Y29.3744
G01 X26.1012 Y29.3387
G01 X26.0834 Y29.3011
G01 X26.0694 Y29.2620
G01 X26.0593 Y29.2217
G01 X26.0532 Y29.1805
G01 X26.0511 Y29.1390
G00 X26.0511 Y29.1390
G01 F100.00
G01 Z-4.8000
G01 F200.00
G01 X26.0532 Y29.0975
G01 X26.0593 Y29.0563
G01 X26.0694 Y29.0160
G01 X26.0834 Y28.9769
G01 X26.1012 Y28.9393
G01 X26.1225 Y28.9036
G01 X26.1473 Y28.8702
G01 X26.1752 Y28.8394
G01 X26.2060 Y28.8115
G01 X26.2394 Y28.7867
G01 X26.2751 Y28.7654
G01 X26.3127 Y28.7476
G01 X26.3518 Y28.7336
G01 X26.3921 Y28.7235
G01 X26.4333 Y28.7174
G01 X26.4748 Y28.7153
G01 X26.5163 Y28.7174
G01 X26.5575 Y28.7235
G01 X26.5978 Y28.7336
G01 X26.6369 Y28.7476
G01 X26.6745 Y28.7654
G01 X26.7102 Y28.7867
G01 X26.7436 Y28.8115
G01 X26.7744 Y28.8394
G01 X26.8023 Y28.8702
G01 X26.8271 Y28.9036
G01 X26.8484 Y28.9393
G01 X26.8662 Y28.9769
G01 X26.8802 Y29.0160
G01 X26.8903 Y29.0563
G01 X26.8964 Y29.0975
G01 X26.8985 Y29.1390
G01 X26.8964 Y29.1805
G01 X26.8903 Y29.2217
G01 X26.8802 Y29.2620
G01 X26.8662 Y29.3011
G01 X26.8484 Y29.3387
G01 X26.8271 Y29.3744
G01 X26.8023 Y29.4078
G01 X26.7744 Y29.4386
G01 X26.7436 Y29.4665
G01 X26.7102 Y29.4913
G01 X26.6745 Y29.5126
G01 X26.6369 Y29.5304
G01 X26.5978 Y29.5444
G01 X26.5575 Y29.5545
G01 X26.5163 Y29.5606
G01 X26.4748 Y29.5627
G01 X26.4333 Y29.5606
G01 X26.3921 Y29.5545
G01 X26.3518 Y29.5444
G01 X26.3127 Y29.5304
G01 X26.2751 Y29.5126
G01 X26.2394 Y29.4913
G01 X26.2060 Y29.4665
G01 X26.1752 Y29.4386
G01 X26.1473 Y29.4078
G01 X26.1225 Y29.3744
G01 X26.1012 Y29.3387
G01 X26.0834 Y29.3011
G01 X26.0694 Y29.2620
G01 X26.0593 Y29.2217
G01 X26.0532 Y29.1805
G01 X26.0511 Y29.1390
G00 X26.0511 Y29.1390
G01 F100.00
G01 Z-6.0000
G01 F200.00
G01 X26.0532 Y29.0975
G01 X26.0593 Y29.0563
G01 X26.0694 Y29.0160
G01 X26.0834 Y28.9769
G01 X26.1012 Y28.9393
G01 X26.1225 Y28.9036
G01 X26.1473 Y28.8702
G01 X26.1752 Y28.8394
G01 X26.2060 Y28.8115
G01 X26.2394 Y28.7867
G01 X26.2751 Y28.7654
G01 X26.3127 Y28.7476
G01 X26.3518 Y28.7336
G01 X26.3921 Y28.7235
G01 X26.4333 Y28.7174
G01 X26.4748 Y28.7153
G01 X26.5163 Y28.7174
G01 X26.5575 Y28.7235
G01 X26.5978 Y28.7336
G01 X26.6369 Y28.7476
G01 X26.6745 Y28.7654
G01 X26.7102 Y28.7867
G01 X26.7436 Y28.8115
G01 X26.7744 Y28.8394
G01 X26.8023 Y28.8702
G01 X26.8271 Y28.9036
G01 X26.8484 Y28.9393
G01 X26.8662 Y28.9769
G01 X26.8802 Y29.0160
G01 X26.8903 Y29.0563
G01 X26.8964 Y29.0975
G01 X26.8985 Y29.1390
G01 X26.8964 Y29.1805
G01 X26.8903 Y29.2217
G01 X26.8802 Y29.2620
G01 X26.8662 Y29.3011
G01 X26.8484 Y29.3387
G01 X26.8271 Y29.3744
G01 X26.8023 Y29.4078
G01 X26.7744 Y29.4386
G01 X26.7436 Y29.4665
G01 X26.7102 Y29.4913
G01 X26.6745 Y29.5126
G01 X26.6369 Y29.5304
G01 X26.5978 Y29.5444
G01 X26.5575 Y29.5545
G01 X26.5163 Y29.5606
G01 X26.4748 Y29.5627
G01 X26.4333 Y29.5606
G01 X26.3921 Y29.5545
G01 X26.3518 Y29.5444
G01 X26.3127 Y29.5304
G01 X26.2751 Y29.5126
G01 X26.2394 Y29.4913
G01 X26.2060 Y29.4665
G01 X26.1752 Y29.4386
G01 X26.1473 Y29.4078
G01 X26.1225 Y29.3744
G01 X26.1012 Y29.3387
G01 X26.0834 Y29.3011
G01 X26.0694 Y29.2620
G01 X26.0593 Y29.2217
G01 X26.0532 Y29.1805
G01 X26.0511 Y29.1390
G00 X26.0511 Y29.1390
G01 F100.00
G01 Z-7.2000
G01 F200.00
G01 X26.0532 Y29.0975
G01 X26.0593 Y29.0563
G01 X26.0694 Y29.0160
G01 X26.0834 Y28.9769
G01 X26.1012 Y28.9393
G01 X26.1225 Y28.9036
G01 X26.1473 Y28.8702
G01 X26.1752 Y28.8394
G01 X26.2060 Y28.8115
G01 X26.2394 Y28.7867
G01 X26.2751 Y28.7654
G01 X26.3127 Y28.7476
G01 X26.3518 Y28.7336
G01 X26.3921 Y28.7235
G01 X26.4333 Y28.7174
G01 X26.4748 Y28.7153
G01 X26.5163 Y28.7174
G01 X26.5575 Y28.7235
G01 X26.5978 Y28.7336
G01 X26.6369 Y28.7476
G01 X26.6745 Y28.7654
G01 X26.7102 Y28.7867
G01 X26.7436 Y28.8115
G01 X26.7744 Y28.8394
G01 X26.8023 Y28.8702
G01 X26.8271 Y28.9036
G01 X26.8484 Y28.9393
G01 X26.8662 Y28.9769
G01 X26.8802 Y29.0160
G01 X26.8903 Y29.0563
G01 X26.8964 Y29.0975
G01 X26.8985 Y29.1390
G01 X26.8964 Y29.1805
G01 X26.8903 Y29.2217
G01 X26.8802 Y29.2620
G01 X26.8662 Y29.3011
G01 X26.8484 Y29.3387
G01 X26.8271 Y29.3744
G01 X26.8023 Y29.4078
G01 X26.7744 Y29.4386
G01 X26.7436 Y29.4665
G01 X26.7102 Y29.4913
G01 X26.6745 Y29.5126
G01 X26.6369 Y29.5304
G01 X26.5978 Y29.5444
G01 X26.5575 Y29.5545
G01 X26.5163 Y29.5606
G01 X26.4748 Y29.5627
G01 X26.4333 Y29.5606
G01 X26.3921 Y29.5545
G01 X26.3518 Y29.5444
G01 X26.3127 Y29.5304
G01 X26.2751 Y29.5126
G01 X26.2394 Y29.4913
G01 X26.2060 Y29.4665
G01 X26.1752 Y29.4386
G01 X26.1473 Y29.4078
G01 X26.1225 Y29.3744
G01 X26.1012 Y29.3387
G01 X26.0834 Y29.3011
G01 X26.0694 Y29.2620
G01 X26.0593 Y29.2217
G01 X26.0532 Y29.1805
G01 X26.0511 Y29.1390
G00 X26.0511 Y29.1390
G01 F100.00
G01 Z-8.4000
G01 F200.00
G01 X26.0532 Y29.0975
G01 X26.0593 Y29.0563
G01 X26.0694 Y29.0160
G01 X26.0834 Y28.9769
G01 X26.1012 Y28.9393
G01 X26.1225 Y28.9036
G01 X26.1473 Y28.8702
G01 X26.1752 Y28.8394
G01 X26.2060 Y28.8115
G01 X26.2394 Y28.7867
G01 X26.2751 Y28.7654
G01 X26.3127 Y28.7476
G01 X26.3518 Y28.7336
G01 X26.3921 Y28.7235
G01 X26.4333 Y28.7174
G01 X26.4748 Y28.7153
G01 X26.5163 Y28.7174
G01 X26.5575 Y28.7235
G01 X26.5978 Y28.7336
G01 X26.6369 Y28.7476
G01 X26.6745 Y28.7654
G01 X26.7102 Y28.7867
G01 X26.7436 Y28.8115
G01 X26.7744 Y28.8394
G01 X26.8023 Y28.8702
G01 X26.8271 Y28.9036
G01 X26.8484 Y28.9393
G01 X26.8662 Y28.9769
G01 X26.8802 Y29.0160
G01 X26.8903 Y29.0563
G01 X26.8964 Y29.0975
G01 X26.8985 Y29.1390
G01 X26.8964 Y29.1805
G01 X26.8903 Y29.2217
G01 X26.8802 Y29.2620
G01 X26.8662 Y29.3011
G01 X26.8484 Y29.3387
G01 X26.8271 Y29.3744
G01 X26.8023 Y29.4078
G01 X26.7744 Y29.4386
G01 X26.7436 Y29.4665
G01 X26.7102 Y29.4913
G01 X26.6745 Y29.5126
G01 X26.6369 Y29.5304
G01 X26.5978 Y29.5444
G01 X26.5575 Y29.5545
G01 X26.5163 Y29.5606
G01 X26.4748 Y29.5627
G01 X26.4333 Y29.5606
G01 X26.3921 Y29.5545
G01 X26.3518 Y29.5444
G01 X26.3127 Y29.5304
G01 X26.2751 Y29.5126
G01 X26.2394 Y29.4913
G01 X26.2060 Y29.4665
G01 X26.1752 Y29.4386
G01 X26.1473 Y29.4078
G01 X26.1225 Y29.3744
G01 X26.1012 Y29.3387
G01 X26.0834 Y29.3011
G01 X26.0694 Y29.2620
G01 X26.0593 Y29.2217
G01 X26.0532 Y29.1805
G01 X26.0511 Y29.1390
G00 X26.0511 Y29.1390
G01 F100.00
G01 Z-9.6000
G01 F200.00
G01 X26.0532 Y29.0975
G01 X26.0593 Y29.0563
G01 X26.0694 Y29.0160
G01 X26.0834 Y28.9769
G01 X26.1012 Y28.9393
G01 X26.1225 Y28.9036
G01 X26.1473 Y28.8702
G01 X26.1752 Y28.8394
G01 X26.2060 Y28.8115
G01 X26.2394 Y28.7867
G01 X26.2751 Y28.7654
G01 X26.3127 Y28.7476
G01 X26.3518 Y28.7336
G01 X26.3921 Y28.7235
G01 X26.4333 Y28.7174
G01 X26.4748 Y28.7153
G01 X26.5163 Y28.7174
G01 X26.5575 Y28.7235
G01 X26.5978 Y28.7336
G01 X26.6369 Y28.7476
G01 X26.6745 Y28.7654
G01 X26.7102 Y28.7867
G01 X26.7436 Y28.8115
G01 X26.7744 Y28.8394
G01 X26.8023 Y28.8702
G01 X26.8271 Y28.9036
G01 X26.8484 Y28.9393
G01 X26.8662 Y28.9769
G01 X26.8802 Y29.0160
G01 X26.8903 Y29.0563
G01 X26.8964 Y29.0975
G01 X26.8985 Y29.1390
G01 X26.8964 Y29.1805
G01 X26.8903 Y29.2217
G01 X26.8802 Y29.2620
G01 X26.8662 Y29.3011
G01 X26.8484 Y29.3387
G01 X26.8271 Y29.3744
G01 X26.8023 Y29.4078
G01 X26.7744 Y29.4386
G01 X26.7436 Y29.4665
G01 X26.7102 Y29.4913
G01 X26.6745 Y29.5126
G01 X26.6369 Y29.5304
G01 X26.5978 Y29.5444
G01 X26.5575 Y29.5545
G01 X26.5163 Y29.5606
G01 X26.4748 Y29.5627
G01 X26.4333 Y29.5606
G01 X26.3921 Y29.5545
G01 X26.3518 Y29.5444
G01 X26.3127 Y29.5304
G01 X26.2751 Y29.5126
G01 X26.2394 Y29.4913
G01 X26.2060 Y29.4665
G01 X26.1752 Y29.4386
G01 X26.1473 Y29.4078
G01 X26.1225 Y29.3744
G01 X26.1012 Y29.3387
G01 X26.0834 Y29.3011
G01 X26.0694 Y29.2620
G01 X26.0593 Y29.2217
G01 X26.0532 Y29.1805
G01 X26.0511 Y29.1390
G00 X26.0511 Y29.1390
G01 F100.00
G01 Z-10.2000
G01 F200.00
G01 X26.0532 Y29.0975
G01 X26.0593 Y29.0563
G01 X26.0694 Y29.0160
G01 X26.0834 Y28.9769
G01 X26.1012 Y28.9393
G01 X26.1225 Y28.9036
G01 X26.1473 Y28.8702
G01 X26.1752 Y28.8394
G01 X26.2060 Y28.8115
G01 X26.2394 Y28.7867
G01 X26.2751 Y28.7654
G01 X26.3127 Y28.7476
G01 X26.3518 Y28.7336
G01 X26.3921 Y28.7235
G01 X26.4333 Y28.7174
G01 X26.4748 Y28.7153
G01 X26.5163 Y28.7174
G01 X26.5575 Y28.7235
G01 X26.5978 Y28.7336
G01 X26.6369 Y28.7476
G01 X26.6745 Y28.7654
G01 X26.7102 Y28.7867
G01 X26.7436 Y28.8115
G01 X26.7744 Y28.8394
G01 X26.8023 Y28.8702
G01 X26.8271 Y28.9036
G01 X26.8484 Y28.9393
G01 X26.8662 Y28.9769
G01 X26.8802 Y29.0160
G01 X26.8903 Y29.0563
G01 X26.8964 Y29.0975
G01 X26.8985 Y29.1390
G01 X26.8964 Y29.1805
G01 X26.8903 Y29.2217
G01 X26.8802 Y29.2620
G01 X26.8662 Y29.3011
G01 X26.8484 Y29.3387
G01 X26.8271 Y29.3744
G01 X26.8023 Y29.4078
G01 X26.7744 Y29.4386
G01 X26.7436 Y29.4665
G01 X26.7102 Y29.4913
G01 X26.6745 Y29.5126
G01 X26.6369 Y29.5304
G01 X26.5978 Y29.5444
G01 X26.5575 Y29.5545
G01 X26.5163 Y29.5606
G01 X26.4748 Y29.5627
G01 X26.4333 Y29.5606
G01 X26.3921 Y29.5545
G01 X26.3518 Y29.5444
G01 X26.3127 Y29.5304
G01 X26.2751 Y29.5126
G01 X26.2394 Y29.4913
G01 X26.2060 Y29.4665
G01 X26.1752 Y29.4386
G01 X26.1473 Y29.4078
G01 X26.1225 Y29.3744
G01 X26.1012 Y29.3387
G01 X26.0834 Y29.3011
G01 X26.0694 Y29.2620
G01 X26.0593 Y29.2217
G01 X26.0532 Y29.1805
G01 X26.0511 Y29.1390
G00 Z2.0000
G00 X63.0511 Y29.1390
G01 F100.00
G01 Z-1.2000
G01 F200.00
G01 X63.0532 Y29.0975
G01 X63.0593 Y29.0563
G01 X63.0694 Y29.0160
G01 X63.0834 Y28.9769
G01 X63.1012 Y28.9393
G01 X63.1225 Y28.9036
G01 X63.1473 Y28.8702
G01 X63.1752 Y28.8394
G01 X63.2060 Y28.8115
G01 X63.2394 Y28.7867
G01 X63.2751 Y28.7654
G01 X63.3127 Y28.7476
G01 X63.3518 Y28.7336
G01 X63.3921 Y28.7235
G01 X63.4333 Y28.7174
G01 X63.4748 Y28.7153
G01 X63.5163 Y28.7174
G01 X63.5575 Y28.7235
G01 X63.5978 Y28.7336
G01 X63.6369 Y28.7476
G01 X63.6745 Y28.7654
G01 X63.7102 Y28.7867
G01 X63.7436 Y28.8115
G01 X63.7744 Y28.8394
G01 X63.8023 Y28.8702
G01 X63.8271 Y28.9036
G01 X63.8484 Y28.9393
G01 X63.8662 Y28.9769
G01 X63.8802 Y29.0160
G01 X63.8903 Y29.0563
G01 X63.8964 Y29.0975
G01 X63.8985 Y29.1390
G01 X63.8964 Y29.1805
G01 X63.8903 Y29.2217
G01 X63.8802 Y29.2620
G01 X63.8662 Y29.3011
G01 X63.8484 Y29.3387
G01 X63.8271 Y29.3744
G01 X63.8023 Y29.4078
G01 X63.7744 Y29.4386
G01 X63.7436 Y29.4665
G01 X63.7102 Y29.4913
G01 X63.6745 Y29.5126
G01 X63.6369 Y29.5304
G01 X63.5978 Y29.5444
G01 X63.5575 Y29.5545
G01 X63.5163 Y29.5606
G01 X63.4748 Y29.5627
G01 X63.4333 Y29.5606
G01 X63.3921 Y29.5545
G01 X63.3518 Y29.5444
G01 X63.3127 Y29.5304
G01 X63.2751 Y29.5126
G01 X63.2394 Y29.4913
G01 X63.2060 Y29.4665
G01 X63.1752 Y29.4386
G01 X63.1473 Y29.4078
G01 X63.1225 Y29.3744
G01 X63.1012 Y29.3387
G01 X63.0834 Y29.3011
G01 X63.0694 Y29.2620
G01 X63.0593 Y29.2217
G01 X63.0532 Y29.1805
G01 X63.0511 Y29.1390
G00 X63.0511 Y29.1390
G01 F100.00
G01 Z-2.4000
G01 F200.00
G01 X63.0532 Y29.0975
G01 X63.0593 Y29.0563
G01 X63.0694 Y29.0160
G01 X63.0834 Y28.9769
G01 X63.1012 Y28.9393
G01 X63.1225 Y28.9036
G01 X63.1473 Y28.8702
G01 X63.1752 Y28.8394
G01 X63.2060 Y28.8115
G01 X63.2394 Y28.7867
G01 X63.2751 Y28.7654
G01 X63.3127 Y28.7476
G01 X63.3518 Y28.7336
G01 X63.3921 Y28.7235
G01 X63.4333 Y28.7174
G01 X63.4748 Y28.7153
G01 X63.5163 Y28.7174
G01 X63.5575 Y28.7235
G01 X63.5978 Y28.7336
G01 X63.6369 Y28.7476
G01 X63.6745 Y28.7654
G01 X63.7102 Y28.7867
G01 X63.7436 Y28.8115
G01 X63.7744 Y28.8394
G01 X63.8023 Y28.8702
G01 X63.8271 Y28.9036
G01 X63.8484 Y28.9393
G01 X63.8662 Y28.9769
G01 X63.8802 Y29.0160
G01 X63.8903 Y29.0563
G01 X63.8964 Y29.0975
G01 X63.8985 Y29.1390
G01 X63.8964 Y29.1805
G01 X63.8903 Y29.2217
G01 X63.8802 Y29.2620
G01 X63.8662 Y29.3011
G01 X63.8484 Y29.3387
G01 X63.8271 Y29.3744
G01 X63.8023 Y29.4078
G01 X63.7744 Y29.4386
G01 X63.7436 Y29.4665
G01 X63.7102 Y29.4913
G01 X63.6745 Y29.5126
G01 X63.6369 Y29.5304
G01 X63.5978 Y29.5444
G01 X63.5575 Y29.5545
G01 X63.5163 Y29.5606
G01 X63.4748 Y29.5627
G01 X63.4333 Y29.5606
G01 X63.3921 Y29.5545
G01 X63.3518 Y29.5444
G01 X63.3127 Y29.5304
G01 X63.2751 Y29.5126
G01 X63.2394 Y29.4913
G01 X63.2060 Y29.4665
G01 X63.1752 Y29.4386
G01 X63.1473 Y29.4078
G01 X63.1225 Y29.3744
G01 X63.1012 Y29.3387
G01 X63.0834 Y29.3011
G01 X63.0694 Y29.2620
G01 X63.0593 Y29.2217
G01 X63.0532 Y29.1805
G01 X63.0511 Y29.1390
G00 X63.0511 Y29.1390
G01 F100.00
G01 Z-3.6000
G01 F200.00
G01 X63.0532 Y29.0975
G01 X63.0593 Y29.0563
G01 X63.0694 Y29.0160
G01 X63.0834 Y28.9769
G01 X63.1012 Y28.9393
G01 X63.1225 Y28.9036
G01 X63.1473 Y28.8702
G01 X63.1752 Y28.8394
G01 X63.2060 Y28.8115
G01 X63.2394 Y28.7867
G01 X63.2751 Y28.7654
G01 X63.3127 Y28.7476
G01 X63.3518 Y28.7336
G01 X63.3921 Y28.7235
G01 X63.4333 Y28.7174
G01 X63.4748 Y28.7153
G01 X63.5163 Y28.7174
G01 X63.5575 Y28.7235
G01 X63.5978 Y28.7336
G01 X63.6369 Y28.7476
G01 X63.6745 Y28.7654
G01 X63.7102 Y28.7867
G01 X63.7436 Y28.8115
G01 X63.7744 Y28.8394
G01 X63.8023 Y28.8702
G01 X63.8271 Y28.9036
G01 X63.8484 Y28.9393
G01 X63.8662 Y28.9769
G01 X63.8802 Y29.0160
G01 X63.8903 Y29.0563
G01 X63.8964 Y29.0975
G01 X63.8985 Y29.1390
G01 X63.8964 Y29.1805
G01 X63.8903 Y29.2217
G01 X63.8802 Y29.2620
G01 X63.8662 Y29.3011
G01 X63.8484 Y29.3387
G01 X63.8271 Y29.3744
G01 X63.8023 Y29.4078
G01 X63.7744 Y29.4386
G01 X63.7436 Y29.4665
G01 X63.7102 Y29.4913
G01 X63.6745 Y29.5126
G01 X63.6369 Y29.5304
G01 X63.5978 Y29.5444
G01 X63.5575 Y29.5545
G01 X63.5163 Y29.5606
G01 X63.4748 Y29.5627
G01 X63.4333 Y29.5606
G01 X63.3921 Y29.5545
G01 X63.3518 Y29.5444
G01 X63.3127 Y29.5304
G01 X63.2751 Y29.5126
G01 X63.2394 Y29.4913
G01 X63.2060 Y29.4665
G01 X63.1752 Y29.4386
G01 X63.1473 Y29.4078
G01 X63.1225 Y29.3744
G01 X63.1012 Y29.3387
G01 X63.0834 Y29.3011
G01 X63.0694 Y29.2620
G01 X63.0593 Y29.2217
G01 X63.0532 Y29.1805
G01 X63.0511 Y29.1390
G00 X63.0511 Y29.1390
G01 F100.00
G01 Z-4.8000
G01 F200.00
G01 X63.0532 Y29.0975
G01 X63.0593 Y29.0563
G01 X63.0694 Y29.0160
G01 X63.0834 Y28.9769
G01 X63.1012 Y28.9393
G01 X63.1225 Y28.9036
G01 X63.1473 Y28.8702
G01 X63.1752 Y28.8394
G01 X63.2060 Y28.8115
G01 X63.2394 Y28.7867
G01 X63.2751 Y28.7654
G01 X63.3127 Y28.7476
G01 X63.3518 Y28.7336
G01 X63.3921 Y28.7235
G01 X63.4333 Y28.7174
G01 X63.4748 Y28.7153
G01 X63.5163 Y28.7174
G01 X63.5575 Y28.7235
G01 X63.5978 Y28.7336
G01 X63.6369 Y28.7476
G01 X63.6745 Y28.7654
G01 X63.7102 Y28.7867
G01 X63.7436 Y28.8115
G01 X63.7744 Y28.8394
G01 X63.8023 Y28.8702
G01 X63.8271 Y28.9036
G01 X63.8484 Y28.9393
G01 X63.8662 Y28.9769
G01 X63.8802 Y29.0160
G01 X63.8903 Y29.0563
G01 X63.8964 Y29.0975
G01 X63.8985 Y29.1390
G01 X63.8964 Y29.1805
G01 X63.8903 Y29.2217
G01 X63.8802 Y29.2620
G01 X63.8662 Y29.3011
G01 X63.8484 Y29.3387
G01 X63.8271 Y29.3744
G01 X63.8023 Y29.4078
G01 X63.7744 Y29.4386
G01 X63.7436 Y29.4665
G01 X63.7102 Y29.4913
G01 X63.6745 Y29.5126
G01 X63.6369 Y29.5304
G01 X63.5978 Y29.5444
G01 X63.5575 Y29.5545
G01 X63.5163 Y29.5606
G01 X63.4748 Y29.5627
G01 X63.4333 Y29.5606
G01 X63.3921 Y29.5545
G01 X63.3518 Y29.5444
G01 X63.3127 Y29.5304
G01 X63.2751 Y29.5126
G01 X63.2394 Y29.4913
G01 X63.2060 Y29.4665
G01 X63.1752 Y29.4386
G01 X63.1473 Y29.4078
G01 X63.1225 Y29.3744
G01 X63.1012 Y29.3387
G01 X63.0834 Y29.3011
G01 X63.0694 Y29.2620
G01 X63.0593 Y29.2217
G01 X63.0532 Y29.1805
G01 X63.0511 Y29.1390
G00 X63.0511 Y29.1390
G01 F100.00
G01 Z-6.0000
G01 F200.00
G01 X63.0532 Y29.0975
G01 X63.0593 Y29.0563
G01 X63.0694 Y29.0160
G01 X63.0834 Y28.9769
G01 X63.1012 Y28.9393
G01 X63.1225 Y28.9036
G01 X63.1473 Y28.8702
G01 X63.1752 Y28.8394
G01 X63.2060 Y28.8115
G01 X63.2394 Y28.7867
G01 X63.2751 Y28.7654
G01 X63.3127 Y28.7476
G01 X63.3518 Y28.7336
G01 X63.3921 Y28.7235
G01 X63.4333 Y28.7174
G01 X63.4748 Y28.7153
G01 X63.5163 Y28.7174
G01 X63.5575 Y28.7235
G01 X63.5978 Y28.7336
G01 X63.6369 Y28.7476
G01 X63.6745 Y28.7654
G01 X63.7102 Y28.7867
G01 X63.7436 Y28.8115
G01 X63.7744 Y28.8394
G01 X63.8023 Y28.8702
G01 X63.8271 Y28.9036
G01 X63.8484 Y28.9393
G01 X63.8662 Y28.9769
G01 X63.8802 Y29.0160
G01 X63.8903 Y29.0563
G01 X63.8964 Y29.0975
G01 X63.8985 Y29.1390
G01 X63.8964 Y29.1805
G01 X63.8903 Y29.2217
G01 X63.8802 Y29.2620
G01 X63.8662 Y29.3011
G01 X63.8484 Y29.3387
G01 X63.8271 Y29.3744
G01 X63.8023 Y29.4078
G01 X63.7744 Y29.4386
G01 X63.7436 Y29.4665
G01 X63.7102 Y29.4913
G01 X63.6745 Y29.5126
G01 X63.6369 Y29.5304
G01 X63.5978 Y29.5444
G01 X63.5575 Y29.5545
G01 X63.5163 Y29.5606
G01 X63.4748 Y29.5627
G01 X63.4333 Y29.5606
G01 X63.3921 Y29.5545
G01 X63.3518 Y29.5444
G01 X63.3127 Y29.5304
G01 X63.2751 Y29.5126
G01 X63.2394 Y29.4913
G01 X63.2060 Y29.4665
G01 X63.1752 Y29.4386
G01 X63.1473 Y29.4078
G01 X63.1225 Y29.3744
G01 X63.1012 Y29.3387
G01 X63.0834 Y29.3011
G01 X63.0694 Y29.2620
G01 X63.0593 Y29.2217
G01 X63.0532 Y29.1805
G01 X63.0511 Y29.1390
G00 X63.0511 Y29.1390
G01 F100.00
G01 Z-7.2000
G01 F200.00
G01 X63.0532 Y29.0975
G01 X63.0593 Y29.0563
G01 X63.0694 Y29.0160
G01 X63.0834 Y28.9769
G01 X63.1012 Y28.9393
G01 X63.1225 Y28.9036
G01 X63.1473 Y28.8702
G01 X63.1752 Y28.8394
G01 X63.2060 Y28.8115
G01 X63.2394 Y28.7867
G01 X63.2751 Y28.7654
G01 X63.3127 Y28.7476
G01 X63.3518 Y28.7336
G01 X63.3921 Y28.7235
G01 X63.4333 Y28.7174
G01 X63.4748 Y28.7153
G01 X63.5163 Y28.7174
G01 X63.5575 Y28.7235
G01 X63.5978 Y28.7336
G01 X63.6369 Y28.7476
G01 X63.6745 Y28.7654
G01 X63.7102 Y28.7867
G01 X63.7436 Y28.8115
G01 X63.7744 Y28.8394
G01 X63.8023 Y28.8702
G01 X63.8271 Y28.9036
G01 X63.8484 Y28.9393
G01 X63.8662 Y28.9769
G01 X63.8802 Y29.0160
G01 X63.8903 Y29.0563
G01 X63.8964 Y29.0975
G01 X63.8985 Y29.1390
G01 X63.8964 Y29.1805
G01 X63.8903 Y29.2217
G01 X63.8802 Y29.2620
G01 X63.8662 Y29.3011
G01 X63.8484 Y29.3387
G01 X63.8271 Y29.3744
G01 X63.8023 Y29.4078
G01 X63.7744 Y29.4386
G01 X63.7436 Y29.4665
G01 X63.7102 Y29.4913
G01 X63.6745 Y29.5126
G01 X63.6369 Y29.5304
G01 X63.5978 Y29.5444
G01 X63.5575 Y29.5545
G01 X63.5163 Y29.5606
G01 X63.4748 Y29.5627
G01 X63.4333 Y29.5606
G01 X63.3921 Y29.5545
G01 X63.3518 Y29.5444
G01 X63.3127 Y29.5304
G01 X63.2751 Y29.5126
G01 X63.2394 Y29.4913
G01 X63.2060 Y29.4665
G01 X63.1752 Y29.4386
G01 X63.1473 Y29.4078
G01 X63.1225 Y29.3744
G01 X63.1012 Y29.3387
G01 X63.0834 Y29.3011
G01 X63.0694 Y29.2620
G01 X63.0593 Y29.2217
G01 X63.0532 Y29.1805
G01 X63.0511 Y29.1390
G00 X63.0511 Y29.1390
G01 F100.00
G01 Z-8.4000
G01 F200.00
G01 X63.0532 Y29.0975
G01 X63.0593 Y29.0563
G01 X63.0694 Y29.0160
G01 X63.0834 Y28.9769
G01 X63.1012 Y28.9393
G01 X63.1225 Y28.9036
G01 X63.1473 Y28.8702
G01 X63.1752 Y28.8394
G01 X63.2060 Y28.8115
G01 X63.2394 Y28.7867
G01 X63.2751 Y28.7654
G01 X63.3127 Y28.7476
G01 X63.3518 Y28.7336
G01 X63.3921 Y28.7235
G01 X63.4333 Y28.7174
G01 X63.4748 Y28.7153
G01 X63.5163 Y28.7174
G01 X63.5575 Y28.7235
G01 X63.5978 Y28.7336
G01 X63.6369 Y28.7476
G01 X63.6745 Y28.7654
G01 X63.7102 Y28.7867
G01 X63.7436 Y28.8115
G01 X63.7744 Y28.8394
G01 X63.8023 Y28.8702
G01 X63.8271 Y28.9036
G01 X63.8484 Y28.9393
G01 X63.8662 Y28.9769
G01 X63.8802 Y29.0160
G01 X63.8903 Y29.0563
G01 X63.8964 Y29.0975
G01 X63.8985 Y29.1390
G01 X63.8964 Y29.1805
G01 X63.8903 Y29.2217
G01 X63.8802 Y29.2620
G01 X63.8662 Y29.3011
G01 X63.8484 Y29.3387
G01 X63.8271 Y29.3744
G01 X63.8023 Y29.4078
G01 X63.7744 Y29.4386
G01 X63.7436 Y29.4665
G01 X63.7102 Y29.4913
G01 X63.6745 Y29.5126
G01 X63.6369 Y29.5304
G01 X63.5978 Y29.5444
G01 X63.5575 Y29.5545
G01 X63.5163 Y29.5606
G01 X63.4748 Y29.5627
G01 X63.4333 Y29.5606
G01 X63.3921 Y29.5545
G01 X63.3518 Y29.5444
G01 X63.3127 Y29.5304
G01 X63.2751 Y29.5126
G01 X63.2394 Y29.4913
G01 X63.2060 Y29.4665
G01 X63.1752 Y29.4386
G01 X63.1473 Y29.4078
G01 X63.1225 Y29.3744
G01 X63.1012 Y29.3387
G01 X63.0834 Y29.3011
G01 X63.0694 Y29.2620
G01 X63.0593 Y29.2217
G01 X63.0532 Y29.1805
G01 X63.0511 Y29.1390
G00 X63.0511 Y29.1390
G01 F100.00
G01 Z-9.6000
G01 F200.00
G01 X63.0532 Y29.0975
G01 X63.0593 Y29.0563
G01 X63.0694 Y29.0160
G01 X63.0834 Y28.9769
G01 X63.1012 Y28.9393
G01 X63.1225 Y28.9036
G01 X63.1473 Y28.8702
G01 X63.1752 Y28.8394
G01 X63.2060 Y28.8115
G01 X63.2394 Y28.7867
G01 X63.2751 Y28.7654
G01 X63.3127 Y28.7476
G01 X63.3518 Y28.7336
G01 X63.3921 Y28.7235
G01 X63.4333 Y28.7174
G01 X63.4748 Y28.7153
G01 X63.5163 Y28.7174
G01 X63.5575 Y28.7235
G01 X63.5978 Y28.7336
G01 X63.6369 Y28.7476
G01 X63.6745 Y28.7654
G01 X63.7102 Y28.7867
G01 X63.7436 Y28.8115
G01 X63.7744 Y28.8394
G01 X63.8023 Y28.8702
G01 X63.8271 Y28.9036
G01 X63.8484 Y28.9393
G01 X63.8662 Y28.9769
G01 X63.8802 Y29.0160
G01 X63.8903 Y29.0563
G01 X63.8964 Y29.0975
G01 X63.8985 Y29.1390
G01 X63.8964 Y29.1805
G01 X63.8903 Y29.2217
G01 X63.8802 Y29.2620
G01 X63.8662 Y29.3011
G01 X63.8484 Y29.3387
G01 X63.8271 Y29.3744
G01 X63.8023 Y29.4078
G01 X63.7744 Y29.4386
G01 X63.7436 Y29.4665
G01 X63.7102 Y29.4913
G01 X63.6745 Y29.5126
G01 X63.6369 Y29.5304
G01 X63.5978 Y29.5444
G01 X63.5575 Y29.5545
G01 X63.5163 Y29.5606
G01 X63.4748 Y29.5627
G01 X63.4333 Y29.5606
G01 X63.3921 Y29.5545
G01 X63.3518 Y29.5444
G01 X63.3127 Y29.5304
G01 X63.2751 Y29.5126
G01 X63.2394 Y29.4913
G01 X63.2060 Y29.4665
G01 X63.1752 Y29.4386
G01 X63.1473 Y29.4078
G01 X63.1225 Y29.3744
G01 X63.1012 Y29.3387
G01 X63.0834 Y29.3011
G01 X63.0694 Y29.2620
G01 X63.0593 Y29.2217
G01 X63.0532 Y29.1805
G01 X63.0511 Y29.1390
G00 X63.0511 Y29.1390
G01 F100.00
G01 Z-10.2000
G01 F200.00
G01 X63.0532 Y29.0975
G01 X63.0593 Y29.0563
G01 X63.0694 Y29.0160
G01 X63.0834 Y28.9769
G01 X63.1012 Y28.9393
G01 X63.1225 Y28.9036
G01 X63.1473 Y28.8702
G01 X63.1752 Y28.8394
G01 X63.2060 Y28.8115
G01 X63.2394 Y28.7867
G01 X63.2751 Y28.7654
G01 X63.3127 Y28.7476
G01 X63.3518 Y28.7336
G01 X63.3921 Y28.7235
G01 X63.4333 Y28.7174
G01 X63.4748 Y28.7153
G01 X63.5163 Y28.7174
G01 X63.5575 Y28.7235
G01 X63.5978 Y28.7336
G01 X63.6369 Y28.7476
G01 X63.6745 Y28.7654
G01 X63.7102 Y28.7867
G01 X63.7436 Y28.8115
G01 X63.7744 Y28.8394
G01 X63.8023 Y28.8702
G01 X63.8271 Y28.9036
G01 X63.8484 Y28.9393
G01 X63.8662 Y28.9769
G01 X63.8802 Y29.0160
G01 X63.8903 Y29.0563
G01 X63.8964 Y29.0975
G01 X63.8985 Y29.1390
G01 X63.8964 Y29.1805
G01 X63.8903 Y29.2217
G01 X63.8802 Y29.2620
G01 X63.8662 Y29.3011
G01 X63.8484 Y29.3387
G01 X63.8271 Y29.3744
G01 X63.8023 Y29.4078
G01 X63.7744 Y29.4386
G01 X63.7436 Y29.4665
G01 X63.7102 Y29.4913
G01 X63.6745 Y29.5126
G01 X63.6369 Y29.5304
G01 X63.5978 Y29.5444
G01 X63.5575 Y29.5545
G01 X63.5163 Y29.5606
G01 X63.4748 Y29.5627
G01 X63.4333 Y29.5606
G01 X63.3921 Y29.5545
G01 X63.3518 Y29.5444
G01 X63.3127 Y29.5304
G01 X63.2751 Y29.5126
G01 X63.2394 Y29.4913
G01 X63.2060 Y29.4665
G01 X63.1752 Y29.4386
G01 X63.1473 Y29.4078
G01 X63.1225 Y29.3744
G01 X63.1012 Y29.3387
G01 X63.0834 Y29.3011
G01 X63.0694 Y29.2620
G01 X63.0593 Y29.2217
G01 X63.0532 Y29.1805
G01 X63.0511 Y29.1390
G00 Z2.0000
G00 X99.0511 Y29.1390
G01 F100.00
G01 Z-1.2000
G01 F200.00
G01 X99.0532 Y29.0975
G01 X99.0593 Y29.0563
G01 X99.0694 Y29.0160
G01 X99.0834 Y28.9769
G01 X99.1012 Y28.9393
G01 X99.1225 Y28.9036
G01 X99.1473 Y28.8702
G01 X99.1752 Y28.8394
G01 X99.2060 Y28.8115
G01 X99.2394 Y28.7867
G01 X99.2751 Y28.7654
G01 X99.3127 Y28.7476
G01 X99.3518 Y28.7336
G01 X99.3921 Y28.7235
G01 X99.4333 Y28.7174
G01 X99.4748 Y28.7153
G01 X99.5163 Y28.7174
G01 X99.5575 Y28.7235
G01 X99.5978 Y28.7336
G01 X99.6369 Y28.7476
G01 X99.6745 Y28.7654
G01 X99.7102 Y28.7867
G01 X99.7436 Y28.8115
G01 X99.7744 Y28.8394
G01 X99.8023 Y28.8702
G01 X99.8271 Y28.9036
G01 X99.8484 Y28.9393
G01 X99.8662 Y28.9769
G01 X99.8802 Y29.0160
G01 X99.8903 Y29.0563
G01 X99.8964 Y29.0975
G01 X99.8985 Y29.1390
G01 X99.8964 Y29.1805
G01 X99.8903 Y29.2217
G01 X99.8802 Y29.2620
G01 X99.8662 Y29.3011
G01 X99.8484 Y29.3387
G01 X99.8271 Y29.3744
G01 X99.8023 Y29.4078
G01 X99.7744 Y29.4386
G01 X99.7436 Y29.4665
G01 X99.7102 Y29.4913
G01 X99.6745 Y29.5126
G01 X99.6369 Y29.5304
G01 X99.5978 Y29.5444
G01 X99.5575 Y29.5545
G01 X99.5163 Y29.5606
G01 X99.4748 Y29.5627
G01 X99.4333 Y29.5606
G01 X99.3921 Y29.5545
G01 X99.3518 Y29.5444
G01 X99.3127 Y29.5304
G01 X99.2751 Y29.5126
G01 X99.2394 Y29.4913
G01 X99.2060 Y29.4665
G01 X99.1752 Y29.4386
G01 X99.1473 Y29.4078
G01 X99.1225 Y29.3744
G01 X99.1012 Y29.3387
G01 X99.0834 Y29.3011
G01 X99.0694 Y29.2620
G01 X99.0593 Y29.2217
G01 X99.0532 Y29.1805
G01 X99.0511 Y29.1390
G00 X99.0511 Y29.1390
G01 F100.00
G01 Z-2.4000
G01 F200.00
G01 X99.0532 Y29.0975
G01 X99.0593 Y29.0563
G01 X99.0694 Y29.0160
G01 X99.0834 Y28.9769
G01 X99.1012 Y28.9393
G01 X99.1225 Y28.9036
G01 X99.1473 Y28.8702
G01 X99.1752 Y28.8394
G01 X99.2060 Y28.8115
G01 X99.2394 Y28.7867
G01 X99.2751 Y28.7654
G01 X99.3127 Y28.7476
G01 X99.3518 Y28.7336
G01 X99.3921 Y28.7235
G01 X99.4333 Y28.7174
G01 X99.4748 Y28.7153
G01 X99.5163 Y28.7174
G01 X99.5575 Y28.7235
G01 X99.5978 Y28.7336
G01 X99.6369 Y28.7476
G01 X99.6745 Y28.7654
G01 X99.7102 Y28.7867
G01 X99.7436 Y28.8115
G01 X99.7744 Y28.8394
G01 X99.8023 Y28.8702
G01 X99.8271 Y28.9036
G01 X99.8484 Y28.9393
G01 X99.8662 Y28.9769
G01 X99.8802 Y29.0160
G01 X99.8903 Y29.0563
G01 X99.8964 Y29.0975
G01 X99.8985 Y29.1390
G01 X99.8964 Y29.1805
G01 X99.8903 Y29.2217
G01 X99.8802 Y29.2620
G01 X99.8662 Y29.3011
G01 X99.8484 Y29.3387
G01 X99.8271 Y29.3744
G01 X99.8023 Y29.4078
G01 X99.7744 Y29.4386
G01 X99.7436 Y29.4665
G01 X99.7102 Y29.4913
G01 X99.6745 Y29.5126
G01 X99.6369 Y29.5304
G01 X99.5978 Y29.5444
G01 X99.5575 Y29.5545
G01 X99.5163 Y29.5606
G01 X99.4748 Y29.5627
G01 X99.4333 Y29.5606
G01 X99.3921 Y29.5545
G01 X99.3518 Y29.5444
G01 X99.3127 Y29.5304
G01 X99.2751 Y29.5126
G01 X99.2394 Y29.4913
G01 X99.2060 Y29.4665
G01 X99.1752 Y29.4386
G01 X99.1473 Y29.4078
G01 X99.1225 Y29.3744
G01 X99.1012 Y29.3387
G01 X99.0834 Y29.3011
G01 X99.0694 Y29.2620
G01 X99.0593 Y29.2217
G01 X99.0532 Y29.1805
G01 X99.0511 Y29.1390
G00 X99.0511 Y29.1390
G01 F100.00
G01 Z-3.6000
G01 F200.00
G01 X99.0532 Y29.0975
G01 X99.0593 Y29.0563
G01 X99.0694 Y29.0160
G01 X99.0834 Y28.9769
G01 X99.1012 Y28.9393
G01 X99.1225 Y28.9036
G01 X99.1473 Y28.8702
G01 X99.1752 Y28.8394
G01 X99.2060 Y28.8115
G01 X99.2394 Y28.7867
G01 X99.2751 Y28.7654
G01 X99.3127 Y28.7476
G01 X99.3518 Y28.7336
G01 X99.3921 Y28.7235
G01 X99.4333 Y28.7174
G01 X99.4748 Y28.7153
G01 X99.5163 Y28.7174
G01 X99.5575 Y28.7235
G01 X99.5978 Y28.7336
G01 X99.6369 Y28.7476
G01 X99.6745 Y28.7654
G01 X99.7102 Y28.7867
G01 X99.7436 Y28.8115
G01 X99.7744 Y28.8394
G01 X99.8023 Y28.8702
G01 X99.8271 Y28.9036
G01 X99.8484 Y28.9393
G01 X99.8662 Y28.9769
G01 X99.8802 Y29.0160
G01 X99.8903 Y29.0563
G01 X99.8964 Y29.0975
G01 X99.8985 Y29.1390
G01 X99.8964 Y29.1805
G01 X99.8903 Y29.2217
G01 X99.8802 Y29.2620
G01 X99.8662 Y29.3011
G01 X99.8484 Y29.3387
G01 X99.8271 Y29.3744
G01 X99.8023 Y29.4078
G01 X99.7744 Y29.4386
G01 X99.7436 Y29.4665
G01 X99.7102 Y29.4913
G01 X99.6745 Y29.5126
G01 X99.6369 Y29.5304
G01 X99.5978 Y29.5444
G01 X99.5575 Y29.5545
G01 X99.5163 Y29.5606
G01 X99.4748 Y29.5627
G01 X99.4333 Y29.5606
G01 X99.3921 Y29.5545
G01 X99.3518 Y29.5444
G01 X99.3127 Y29.5304
G01 X99.2751 Y29.5126
G01 X99.2394 Y29.4913
G01 X99.2060 Y29.4665
G01 X99.1752 Y29.4386
G01 X99.1473 Y29.4078
G01 X99.1225 Y29.3744
G01 X99.1012 Y29.3387
G01 X99.0834 Y29.3011
G01 X99.0694 Y29.2620
G01 X99.0593 Y29.2217
G01 X99.0532 Y29.1805
G01 X99.0511 Y29.1390
G00 X99.0511 Y29.1390
G01 F100.00
G01 Z-4.8000
G01 F200.00
G01 X99.0532 Y29.0975
G01 X99.0593 Y29.0563
G01 X99.0694 Y29.0160
G01 X99.0834 Y28.9769
G01 X99.1012 Y28.9393
G01 X99.1225 Y28.9036
G01 X99.1473 Y28.8702
G01 X99.1752 Y28.8394
G01 X99.2060 Y28.8115
G01 X99.2394 Y28.7867
G01 X99.2751 Y28.7654
G01 X99.3127 Y28.7476
G01 X99.3518 Y28.7336
G01 X99.3921 Y28.7235
G01 X99.4333 Y28.7174
G01 X99.4748 Y28.7153
G01 X99.5163 Y28.7174
G01 X99.5575 Y28.7235
G01 X99.5978 Y28.7336
G01 X99.6369 Y28.7476
G01 X99.6745 Y28.7654
G01 X99.7102 Y28.7867
G01 X99.7436 Y28.8115
G01 X99.7744 Y28.8394
G01 X99.8023 Y28.8702
G01 X99.8271 Y28.9036
G01 X99.8484 Y28.9393
G01 X99.8662 Y28.9769
G01 X99.8802 Y29.0160
G01 X99.8903 Y29.0563
G01 X99.8964 Y29.0975
G01 X99.8985 Y29.1390
G01 X99.8964 Y29.1805
G01 X99.8903 Y29.2217
G01 X99.8802 Y29.2620
G01 X99.8662 Y29.3011
G01 X99.8484 Y29.3387
G01 X99.8271 Y29.3744
G01 X99.8023 Y29.4078
G01 X99.7744 Y29.4386
G01 X99.7436 Y29.4665
G01 X99.7102 Y29.4913
G01 X99.6745 Y29.5126
G01 X99.6369 Y29.5304
G01 X99.5978 Y29.5444
G01 X99.5575 Y29.5545
G01 X99.5163 Y29.5606
G01 X99.4748 Y29.5627
G01 X99.4333 Y29.5606
G01 X99.3921 Y29.5545
G01 X99.3518 Y29.5444
G01 X99.3127 Y29.5304
G01 X99.2751 Y29.5126
G01 X99.2394 Y29.4913
G01 X99.2060 Y29.4665
G01 X99.1752 Y29.4386
G01 X99.1473 Y29.4078
G01 X99.1225 Y29.3744
G01 X99.1012 Y29.3387
G01 X99.0834 Y29.3011
G01 X99.0694 Y29.2620
G01 X99.0593 Y29.2217
G01 X99.0532 Y29.1805
G01 X99.0511 Y29.1390
G00 X99.0511 Y29.1390
G01 F100.00
G01 Z-6.0000
G01 F200.00
G01 X99.0532 Y29.0975
G01 X99.0593 Y29.0563
G01 X99.0694 Y29.0160
G01 X99.0834 Y28.9769
G01 X99.1012 Y28.9393
G01 X99.1225 Y28.9036
G01 X99.1473 Y28.8702
G01 X99.1752 Y28.8394
G01 X99.2060 Y28.8115
G01 X99.2394 Y28.7867
G01 X99.2751 Y28.7654
G01 X99.3127 Y28.7476
G01 X99.3518 Y28.7336
G01 X99.3921 Y28.7235
G01 X99.4333 Y28.7174
G01 X99.4748 Y28.7153
G01 X99.5163 Y28.7174
G01 X99.5575 Y28.7235
G01 X99.5978 Y28.7336
G01 X99.6369 Y28.7476
G01 X99.6745 Y28.7654
G01 X99.7102 Y28.7867
G01 X99.7436 Y28.8115
G01 X99.7744 Y28.8394
G01 X99.8023 Y28.8702
G01 X99.8271 Y28.9036
G01 X99.8484 Y28.9393
G01 X99.8662 Y28.9769
G01 X99.8802 Y29.0160
G01 X99.8903 Y29.0563
G01 X99.8964 Y29.0975
G01 X99.8985 Y29.1390
G01 X99.8964 Y29.1805
G01 X99.8903 Y29.2217
G01 X99.8802 Y29.2620
G01 X99.8662 Y29.3011
G01 X99.8484 Y29.3387
G01 X99.8271 Y29.3744
G01 X99.8023 Y29.4078
G01 X99.7744 Y29.4386
G01 X99.7436 Y29.4665
G01 X99.7102 Y29.4913
G01 X99.6745 Y29.5126
G01 X99.6369 Y29.5304
G01 X99.5978 Y29.5444
G01 X99.5575 Y29.5545
G01 X99.5163 Y29.5606
G01 X99.4748 Y29.5627
G01 X99.4333 Y29.5606
G01 X99.3921 Y29.5545
G01 X99.3518 Y29.5444
G01 X99.3127 Y29.5304
G01 X99.2751 Y29.5126
G01 X99.2394 Y29.4913
G01 X99.2060 Y29.4665
G01 X99.1752 Y29.4386
G01 X99.1473 Y29.4078
G01 X99.1225 Y29.3744
G01 X99.1012 Y29.3387
G01 X99.0834 Y29.3011
G01 X99.0694 Y29.2620
G01 X99.0593 Y29.2217
G01 X99.0532 Y29.1805
G01 X99.0511 Y29.1390
G00 X99.0511 Y29.1390
G01 F100.00
G01 Z-7.2000
G01 F200.00
G01 X99.0532 Y29.0975
G01 X99.0593 Y29.0563
G01 X99.0694 Y29.0160
G01 X99.0834 Y28.9769
G01 X99.1012 Y28.9393
G01 X99.1225 Y28.9036
G01 X99.1473 Y28.8702
G01 X99.1752 Y28.8394
G01 X99.2060 Y28.8115
G01 X99.2394 Y28.7867
G01 X99.2751 Y28.7654
G01 X99.3127 Y28.7476
G01 X99.3518 Y28.7336
G01 X99.3921 Y28.7235
G01 X99.4333 Y28.7174
G01 X99.4748 Y28.7153
G01 X99.5163 Y28.7174
G01 X99.5575 Y28.7235
G01 X99.5978 Y28.7336
G01 X99.6369 Y28.7476
G01 X99.6745 Y28.7654
G01 X99.7102 Y28.7867
G01 X99.7436 Y28.8115
G01 X99.7744 Y28.8394
G01 X99.8023 Y28.8702
G01 X99.8271 Y28.9036
G01 X99.8484 Y28.9393
G01 X99.8662 Y28.9769
G01 X99.8802 Y29.0160
G01 X99.8903 Y29.0563
G01 X99.8964 Y29.0975
G01 X99.8985 Y29.1390
G01 X99.8964 Y29.1805
G01 X99.8903 Y29.2217
G01 X99.8802 Y29.2620
G01 X99.8662 Y29.3011
G01 X99.8484 Y29.3387
G01 X99.8271 Y29.3744
G01 X99.8023 Y29.4078
G01 X99.7744 Y29.4386
G01 X99.7436 Y29.4665
G01 X99.7102 Y29.4913
G01 X99.6745 Y29.5126
G01 X99.6369 Y29.5304
G01 X99.5978 Y29.5444
G01 X99.5575 Y29.5545
G01 X99.5163 Y29.5606
G01 X99.4748 Y29.5627
G01 X99.4333 Y29.5606
G01 X99.3921 Y29.5545
G01 X99.3518 Y29.5444
G01 X99.3127 Y29.5304
G01 X99.2751 Y29.5126
G01 X99.2394 Y29.4913
G01 X99.2060 Y29.4665
G01 X99.1752 Y29.4386
G01 X99.1473 Y29.4078
G01 X99.1225 Y29.3744
G01 X99.1012 Y29.3387
G01 X99.0834 Y29.3011
G01 X99.0694 Y29.2620
G01 X99.0593 Y29.2217
G01 X99.0532 Y29.1805
G01 X99.0511 Y29.1390
G00 X99.0511 Y29.1390
G01 F100.00
G01 Z-8.4000
G01 F200.00
G01 X99.0532 Y29.0975
G01 X99.0593 Y29.0563
G01 X99.0694 Y29.0160
G01 X99.0834 Y28.9769
G01 X99.1012 Y28.9393
G01 X99.1225 Y28.9036
G01 X99.1473 Y28.8702
G01 X99.1752 Y28.8394
G01 X99.2060 Y28.8115
G01 X99.2394 Y28.7867
G01 X99.2751 Y28.7654
G01 X99.3127 Y28.7476
G01 X99.3518 Y28.7336
G01 X99.3921 Y28.7235
G01 X99.4333 Y28.7174
G01 X99.4748 Y28.7153
G01 X99.5163 Y28.7174
G01 X99.5575 Y28.7235
G01 X99.5978 Y28.7336
G01 X99.6369 Y28.7476
G01 X99.6745 Y28.7654
G01 X99.7102 Y28.7867
G01 X99.7436 Y28.8115
G01 X99.7744 Y28.8394
G01 X99.8023 Y28.8702
G01 X99.8271 Y28.9036
G01 X99.8484 Y28.9393
G01 X99.8662 Y28.9769
G01 X99.8802 Y29.0160
G01 X99.8903 Y29.0563
G01 X99.8964 Y29.0975
G01 X99.8985 Y29.1390
G01 X99.8964 Y29.1805
G01 X99.8903 Y29.2217
G01 X99.8802 Y29.2620
G01 X99.8662 Y29.3011
G01 X99.8484 Y29.3387
G01 X99.8271 Y29.3744
G01 X99.8023 Y29.4078
G01 X99.7744 Y29.4386
G01 X99.7436 Y29.4665
G01 X99.7102 Y29.4913
G01 X99.6745 Y29.5126
G01 X99.6369 Y29.5304
G01 X99.5978 Y29.5444
G01 X99.5575 Y29.5545
G01 X99.5163 Y29.5606
G01 X99.4748 Y29.5627
G01 X99.4333 Y29.5606
G01 X99.3921 Y29.5545
G01 X99.3518 Y29.5444
G01 X99.3127 Y29.5304
G01 X99.2751 Y29.5126
G01 X99.2394 Y29.4913
G01 X99.2060 Y29.4665
G01 X99.1752 Y29.4386
G01 X99.1473 Y29.4078
G01 X99.1225 Y29.3744
G01 X99.1012 Y29.3387
G01 X99.0834 Y29.3011
G01 X99.0694 Y29.2620
G01 X99.0593 Y29.2217
G01 X99.0532 Y29.1805
G01 X99.0511 Y29.1390
G00 X99.0511 Y29.1390
G01 F100.00
G01 Z-9.6000
G01 F200.00
G01 X99.0532 Y29.0975
G01 X99.0593 Y29.0563
G01 X99.0694 Y29.0160
G01 X99.0834 Y28.9769
G01 X99.1012 Y28.9393
G01 X99.1225 Y28.9036
G01 X99.1473 Y28.8702
G01 X99.1752 Y28.8394
G01 X99.2060 Y28.8115
G01 X99.2394 Y28.7867
G01 X99.2751 Y28.7654
G01 X99.3127 Y28.7476
G01 X99.3518 Y28.7336
G01 X99.3921 Y28.7235
G01 X99.4333 Y28.7174
G01 X99.4748 Y28.7153
G01 X99.5163 Y28.7174
G01 X99.5575 Y28.7235
G01 X99.5978 Y28.7336
G01 X99.6369 Y28.7476
G01 X99.6745 Y28.7654
G01 X99.7102 Y28.7867
G01 X99.7436 Y28.8115
G01 X99.7744 Y28.8394
G01 X99.8023 Y28.8702
G01 X99.8271 Y28.9036
G01 X99.8484 Y28.9393
G01 X99.8662 Y28.9769
G01 X99.8802 Y29.0160
G01 X99.8903 Y29.0563
G01 X99.8964 Y29.0975
G01 X99.8985 Y29.1390
G01 X99.8964 Y29.1805
G01 X99.8903 Y29.2217
G01 X99.8802 Y29.2620
G01 X99.8662 Y29.3011
G01 X99.8484 Y29.3387
G01 X99.8271 Y29.3744
G01 X99.8023 Y29.4078
G01 X99.7744 Y29.4386
G01 X99.7436 Y29.4665
G01 X99.7102 Y29.4913
G01 X99.6745 Y29.5126
G01 X99.6369 Y29.5304
G01 X99.5978 Y29.5444
G01 X99.5575 Y29.5545
G01 X99.5163 Y29.5606
G01 X99.4748 Y29.5627
G01 X99.4333 Y29.5606
G01 X99.3921 Y29.5545
G01 X99.3518 Y29.5444
G01 X99.3127 Y29.5304
G01 X99.2751 Y29.5126
G01 X99.2394 Y29.4913
G01 X99.2060 Y29.4665
G01 X99.1752 Y29.4386
G01 X99.1473 Y29.4078
G01 X99.1225 Y29.3744
G01 X99.1012 Y29.3387
G01 X99.0834 Y29.3011
G01 X99.0694 Y29.2620
G01 X99.0593 Y29.2217
G01 X99.0532 Y29.1805
G01 X99.0511 Y29.1390
G00 X99.0511 Y29.1390
G01 F100.00
G01 Z-10.2000
G01 F200.00
G01 X99.0532 Y29.0975
G01 X99.0593 Y29.0563
G01 X99.0694 Y29.0160
G01 X99.0834 Y28.9769
G01 X99.1012 Y28.9393
G01 X99.1225 Y28.9036
G01 X99.1473 Y28.8702
G01 X99.1752 Y28.8394
G01 X99.2060 Y28.8115
G01 X99.2394 Y28.7867
G01 X99.2751 Y28.7654
G01 X99.3127 Y28.7476
G01 X99.3518 Y28.7336
G01 X99.3921 Y28.7235
G01 X99.4333 Y28.7174
G01 X99.4748 Y28.7153
G01 X99.5163 Y28.7174
G01 X99.5575 Y28.7235
G01 X99.5978 Y28.7336
G01 X99.6369 Y28.7476
G01 X99.6745 Y28.7654
G01 X99.7102 Y28.7867
G01 X99.7436 Y28.8115
G01 X99.7744 Y28.8394
G01 X99.8023 Y28.8702
G01 X99.8271 Y28.9036
G01 X99.8484 Y28.9393
G01 X99.8662 Y28.9769
G01 X99.8802 Y29.0160
G01 X99.8903 Y29.0563
G01 X99.8964 Y29.0975
G01 X99.8985 Y29.1390
G01 X99.8964 Y29.1805
G01 X99.8903 Y29.2217
G01 X99.8802 Y29.2620
G01 X99.8662 Y29.3011
G01 X99.8484 Y29.3387
G01 X99.8271 Y29.3744
G01 X99.8023 Y29.4078
G01 X99.7744 Y29.4386
G01 X99.7436 Y29.4665
G01 X99.7102 Y29.4913
G01 X99.6745 Y29.5126
G01 X99.6369 Y29.5304
G01 X99.5978 Y29.5444
G01 X99.5575 Y29.5545
G01 X99.5163 Y29.5606
G01 X99.4748 Y29.5627
G01 X99.4333 Y29.5606
G01 X99.3921 Y29.5545
G01 X99.3518 Y29.5444
G01 X99.3127 Y29.5304
G01 X99.2751 Y29.5126
G01 X99.2394 Y29.4913
G01 X99.2060 Y29.4665
G01 X99.1752 Y29.4386
G01 X99.1473 Y29.4078
G01 X99.1225 Y29.3744
G01 X99.1012 Y29.3387
G01 X99.0834 Y29.3011
G01 X99.0694 Y29.2620
G01 X99.0593 Y29.2217
G01 X99.0532 Y29.1805
G01 X99.0511 Y29.1390
G00 Z2.0000
G00 X133.0511 Y29.1390
G01 F100.00
G01 Z-1.2000
G01 F200.00
G01 X133.0532 Y29.0975
G01 X133.0593 Y29.0563
G01 X133.0694 Y29.0160
G01 X133.0834 Y28.9769
G01 X133.1012 Y28.9393
G01 X133.1225 Y28.9036
G01 X133.1473 Y28.8702
G01 X133.1752 Y28.8394
G01 X133.2060 Y28.8115
G01 X133.2394 Y28.7867
G01 X133.2751 Y28.7654
G01 X133.3127 Y28.7476
G01 X133.3518 Y28.7336
G01 X133.3921 Y28.7235
G01 X133.4333 Y28.7174
G01 X133.4748 Y28.7153
G01 X133.5163 Y28.7174
G01 X133.5575 Y28.7235
G01 X133.5978 Y28.7336
G01 X133.6369 Y28.7476
G01 X133.6745 Y28.7654
G01 X133.7102 Y28.7867
G01 X133.7436 Y28.8115
G01 X133.7744 Y28.8394
G01 X133.8023 Y28.8702
G01 X133.8271 Y28.9036
G01 X133.8484 Y28.9393
G01 X133.8662 Y28.9769
G01 X133.8802 Y29.0160
G01 X133.8903 Y29.0563
G01 X133.8964 Y29.0975
G01 X133.8985 Y29.1390
G01 X133.8964 Y29.1805
G01 X133.8903 Y29.2217
G01 X133.8802 Y29.2620
G01 X133.8662 Y29.3011
G01 X133.8484 Y29.3387
G01 X133.8271 Y29.3744
G01 X133.8023 Y29.4078
G01 X133.7744 Y29.4386
G01 X133.7436 Y29.4665
G01 X133.7102 Y29.4913
G01 X133.6745 Y29.5126
G01 X133.6369 Y29.5304
G01 X133.5978 Y29.5444
G01 X133.5575 Y29.5545
G01 X133.5163 Y29.5606
G01 X133.4748 Y29.5627
G01 X133.4333 Y29.5606
G01 X133.3921 Y29.5545
G01 X133.3518 Y29.5444
G01 X133.3127 Y29.5304
G01 X133.2751 Y29.5126
G01 X133.2394 Y29.4913
G01 X133.2060 Y29.4665
G01 X133.1752 Y29.4386
G01 X133.1473 Y29.4078
G01 X133.1225 Y29.3744
G01 X133.1012 Y29.3387
G01 X133.0834 Y29.3011
G01 X133.0694 Y29.2620
G01 X133.0593 Y29.2217
G01 X133.0532 Y29.1805
G01 X133.0511 Y29.1390
G00 X133.0511 Y29.1390
G01 F100.00
G01 Z-2.4000
G01 F200.00
G01 X133.0532 Y29.0975
G01 X133.0593 Y29.0563
G01 X133.0694 Y29.0160
G01 X133.0834 Y28.9769
G01 X133.1012 Y28.9393
G01 X133.1225 Y28.9036
G01 X133.1473 Y28.8702
G01 X133.1752 Y28.8394
G01 X133.2060 Y28.8115
G01 X133.2394 Y28.7867
G01 X133.2751 Y28.7654
G01 X133.3127 Y28.7476
G01 X133.3518 Y28.7336
G01 X133.3921 Y28.7235
G01 X133.4333 Y28.7174
G01 X133.4748 Y28.7153
G01 X133.5163 Y28.7174
G01 X133.5575 Y28.7235
G01 X133.5978 Y28.7336
G01 X133.6369 Y28.7476
G01 X133.6745 Y28.7654
G01 X133.7102 Y28.7867
G01 X133.7436 Y28.8115
G01 X133.7744 Y28.8394
G01 X133.8023 Y28.8702
G01 X133.8271 Y28.9036
G01 X133.8484 Y28.9393
G01 X133.8662 Y28.9769
G01 X133.8802 Y29.0160
G01 X133.8903 Y29.0563
G01 X133.8964 Y29.0975
G01 X133.8985 Y29.1390
G01 X133.8964 Y29.1805
G01 X133.8903 Y29.2217
G01 X133.8802 Y29.2620
G01 X133.8662 Y29.3011
G01 X133.8484 Y29.3387
G01 X133.8271 Y29.3744
G01 X133.8023 Y29.4078
G01 X133.7744 Y29.4386
G01 X133.7436 Y29.4665
G01 X133.7102 Y29.4913
G01 X133.6745 Y29.5126
G01 X133.6369 Y29.5304
G01 X133.5978 Y29.5444
G01 X133.5575 Y29.5545
G01 X133.5163 Y29.5606
G01 X133.4748 Y29.5627
G01 X133.4333 Y29.5606
G01 X133.3921 Y29.5545
G01 X133.3518 Y29.5444
G01 X133.3127 Y29.5304
G01 X133.2751 Y29.5126
G01 X133.2394 Y29.4913
G01 X133.2060 Y29.4665
G01 X133.1752 Y29.4386
G01 X133.1473 Y29.4078
G01 X133.1225 Y29.3744
G01 X133.1012 Y29.3387
G01 X133.0834 Y29.3011
G01 X133.0694 Y29.2620
G01 X133.0593 Y29.2217
G01 X133.0532 Y29.1805
G01 X133.0511 Y29.1390
G00 X133.0511 Y29.1390
G01 F100.00
G01 Z-3.6000
G01 F200.00
G01 X133.0532 Y29.0975
G01 X133.0593 Y29.0563
G01 X133.0694 Y29.0160
G01 X133.0834 Y28.9769
G01 X133.1012 Y28.9393
G01 X133.1225 Y28.9036
G01 X133.1473 Y28.8702
G01 X133.1752 Y28.8394
G01 X133.2060 Y28.8115
G01 X133.2394 Y28.7867
G01 X133.2751 Y28.7654
G01 X133.3127 Y28.7476
G01 X133.3518 Y28.7336
G01 X133.3921 Y28.7235
G01 X133.4333 Y28.7174
G01 X133.4748 Y28.7153
G01 X133.5163 Y28.7174
G01 X133.5575 Y28.7235
G01 X133.5978 Y28.7336
G01 X133.6369 Y28.7476
G01 X133.6745 Y28.7654
G01 X133.7102 Y28.7867
G01 X133.7436 Y28.8115
G01 X133.7744 Y28.8394
G01 X133.8023 Y28.8702
G01 X133.8271 Y28.9036
G01 X133.8484 Y28.9393
G01 X133.8662 Y28.9769
G01 X133.8802 Y29.0160
G01 X133.8903 Y29.0563
G01 X133.8964 Y29.0975
G01 X133.8985 Y29.1390
G01 X133.8964 Y29.1805
G01 X133.8903 Y29.2217
G01 X133.8802 Y29.2620
G01 X133.8662 Y29.3011
G01 X133.8484 Y29.3387
G01 X133.8271 Y29.3744
G01 X133.8023 Y29.4078
G01 X133.7744 Y29.4386
G01 X133.7436 Y29.4665
G01 X133.7102 Y29.4913
G01 X133.6745 Y29.5126
G01 X133.6369 Y29.5304
G01 X133.5978 Y29.5444
G01 X133.5575 Y29.5545
G01 X133.5163 Y29.5606
G01 X133.4748 Y29.5627
G01 X133.4333 Y29.5606
G01 X133.3921 Y29.5545
G01 X133.3518 Y29.5444
G01 X133.3127 Y29.5304
G01 X133.2751 Y29.5126
G01 X133.2394 Y29.4913
G01 X133.2060 Y29.4665
G01 X133.1752 Y29.4386
G01 X133.1473 Y29.4078
G01 X133.1225 Y29.3744
G01 X133.1012 Y29.3387
G01 X133.0834 Y29.3011
G01 X133.0694 Y29.2620
G01 X133.0593 Y29.2217
G01 X133.0532 Y29.1805
G01 X133.0511 Y29.1390
G00 X133.0511 Y29.1390
G01 F100.00
G01 Z-4.8000
G01 F200.00
G01 X133.0532 Y29.0975
G01 X133.0593 Y29.0563
G01 X133.0694 Y29.0160
G01 X133.0834 Y28.9769
G01 X133.1012 Y28.9393
G01 X133.1225 Y28.9036
G01 X133.1473 Y28.8702
G01 X133.1752 Y28.8394
G01 X133.2060 Y28.8115
G01 X133.2394 Y28.7867
G01 X133.2751 Y28.7654
G01 X133.3127 Y28.7476
G01 X133.3518 Y28.7336
G01 X133.3921 Y28.7235
G01 X133.4333 Y28.7174
G01 X133.4748 Y28.7153
G01 X133.5163 Y28.7174
G01 X133.5575 Y28.7235
G01 X133.5978 Y28.7336
G01 X133.6369 Y28.7476
G01 X133.6745 Y28.7654
G01 X133.7102 Y28.7867
G01 X133.7436 Y28.8115
G01 X133.7744 Y28.8394
G01 X133.8023 Y28.8702
G01 X133.8271 Y28.9036
G01 X133.8484 Y28.9393
G01 X133.8662 Y28.9769
G01 X133.8802 Y29.0160
G01 X133.8903 Y29.0563
G01 X133.8964 Y29.0975
G01 X133.8985 Y29.1390
G01 X133.8964 Y29.1805
G01 X133.8903 Y29.2217
G01 X133.8802 Y29.2620
G01 X133.8662 Y29.3011
G01 X133.8484 Y29.3387
G01 X133.8271 Y29.3744
G01 X133.8023 Y29.4078
G01 X133.7744 Y29.4386
G01 X133.7436 Y29.4665
G01 X133.7102 Y29.4913
G01 X133.6745 Y29.5126
G01 X133.6369 Y29.5304
G01 X133.5978 Y29.5444
G01 X133.5575 Y29.5545
G01 X133.5163 Y29.5606
G01 X133.4748 Y29.5627
G01 X133.4333 Y29.5606
G01 X133.3921 Y29.5545
G01 X133.3518 Y29.5444
G01 X133.3127 Y29.5304
G01 X133.2751 Y29.5126
G01 X133.2394 Y29.4913
G01 X133.2060 Y29.4665
G01 X133.1752 Y29.4386
G01 X133.1473 Y29.4078
G01 X133.1225 Y29.3744
G01 X133.1012 Y29.3387
G01 X133.0834 Y29.3011
G01 X133.0694 Y29.2620
G01 X133.0593 Y29.2217
G01 X133.0532 Y29.1805
G01 X133.0511 Y29.1390
G00 X133.0511 Y29.1390
G01 F100.00
G01 Z-6.0000
G01 F200.00
G01 X133.0532 Y29.0975
G01 X133.0593 Y29.0563
G01 X133.0694 Y29.0160
G01 X133.0834 Y28.9769
G01 X133.1012 Y28.9393
G01 X133.1225 Y28.9036
G01 X133.1473 Y28.8702
G01 X133.1752 Y28.8394
G01 X133.2060 Y28.8115
G01 X133.2394 Y28.7867
G01 X133.2751 Y28.7654
G01 X133.3127 Y28.7476
G01 X133.3518 Y28.7336
G01 X133.3921 Y28.7235
G01 X133.4333 Y28.7174
G01 X133.4748 Y28.7153
G01 X133.5163 Y28.7174
G01 X133.5575 Y28.7235
G01 X133.5978 Y28.7336
G01 X133.6369 Y28.7476
G01 X133.6745 Y28.7654
G01 X133.7102 Y28.7867
G01 X133.7436 Y28.8115
G01 X133.7744 Y28.8394
G01 X133.8023 Y28.8702
G01 X133.8271 Y28.9036
G01 X133.8484 Y28.9393
G01 X133.8662 Y28.9769
G01 X133.8802 Y29.0160
G01 X133.8903 Y29.0563
G01 X133.8964 Y29.0975
G01 X133.8985 Y29.1390
G01 X133.8964 Y29.1805
G01 X133.8903 Y29.2217
G01 X133.8802 Y29.2620
G01 X133.8662 Y29.3011
G01 X133.8484 Y29.3387
G01 X133.8271 Y29.3744
G01 X133.8023 Y29.4078
G01 X133.7744 Y29.4386
G01 X133.7436 Y29.4665
G01 X133.7102 Y29.4913
G01 X133.6745 Y29.5126
G01 X133.6369 Y29.5304
G01 X133.5978 Y29.5444
G01 X133.5575 Y29.5545
G01 X133.5163 Y29.5606
G01 X133.4748 Y29.5627
G01 X133.4333 Y29.5606
G01 X133.3921 Y29.5545
G01 X133.3518 Y29.5444
G01 X133.3127 Y29.5304
G01 X133.2751 Y29.5126
G01 X133.2394 Y29.4913
G01 X133.2060 Y29.4665
G01 X133.1752 Y29.4386
G01 X133.1473 Y29.4078
G01 X133.1225 Y29.3744
G01 X133.1012 Y29.3387
G01 X133.0834 Y29.3011
G01 X133.0694 Y29.2620
G01 X133.0593 Y29.2217
G01 X133.0532 Y29.1805
G01 X133.0511 Y29.1390
G00 X133.0511 Y29.1390
G01 F100.00
G01 Z-7.2000
G01 F200.00
G01 X133.0532 Y29.0975
G01 X133.0593 Y29.0563
G01 X133.0694 Y29.0160
G01 X133.0834 Y28.9769
G01 X133.1012 Y28.9393
G01 X133.1225 Y28.9036
G01 X133.1473 Y28.8702
G01 X133.1752 Y28.8394
G01 X133.2060 Y28.8115
G01 X133.2394 Y28.7867
G01 X133.2751 Y28.7654
G01 X133.3127 Y28.7476
G01 X133.3518 Y28.7336
G01 X133.3921 Y28.7235
G01 X133.4333 Y28.7174
G01 X133.4748 Y28.7153
G01 X133.5163 Y28.7174
G01 X133.5575 Y28.7235
G01 X133.5978 Y28.7336
G01 X133.6369 Y28.7476
G01 X133.6745 Y28.7654
G01 X133.7102 Y28.7867
G01 X133.7436 Y28.8115
G01 X133.7744 Y28.8394
G01 X133.8023 Y28.8702
G01 X133.8271 Y28.9036
G01 X133.8484 Y28.9393
G01 X133.8662 Y28.9769
G01 X133.8802 Y29.0160
G01 X133.8903 Y29.0563
G01 X133.8964 Y29.0975
G01 X133.8985 Y29.1390
G01 X133.8964 Y29.1805
G01 X133.8903 Y29.2217
G01 X133.8802 Y29.2620
G01 X133.8662 Y29.3011
G01 X133.8484 Y29.3387
G01 X133.8271 Y29.3744
G01 X133.8023 Y29.4078
G01 X133.7744 Y29.4386
G01 X133.7436 Y29.4665
G01 X133.7102 Y29.4913
G01 X133.6745 Y29.5126
G01 X133.6369 Y29.5304
G01 X133.5978 Y29.5444
G01 X133.5575 Y29.5545
G01 X133.5163 Y29.5606
G01 X133.4748 Y29.5627
G01 X133.4333 Y29.5606
G01 X133.3921 Y29.5545
G01 X133.3518 Y29.5444
G01 X133.3127 Y29.5304
G01 X133.2751 Y29.5126
G01 X133.2394 Y29.4913
G01 X133.2060 Y29.4665
G01 X133.1752 Y29.4386
G01 X133.1473 Y29.4078
G01 X133.1225 Y29.3744
G01 X133.1012 Y29.3387
G01 X133.0834 Y29.3011
G01 X133.0694 Y29.2620
G01 X133.0593 Y29.2217
G01 X133.0532 Y29.1805
G01 X133.0511 Y29.1390
G00 X133.0511 Y29.1390
G01 F100.00
G01 Z-8.4000
G01 F200.00
G01 X133.0532 Y29.0975
G01 X133.0593 Y29.0563
G01 X133.0694 Y29.0160
G01 X133.0834 Y28.9769
G01 X133.1012 Y28.9393
G01 X133.1225 Y28.9036
G01 X133.1473 Y28.8702
G01 X133.1752 Y28.8394
G01 X133.2060 Y28.8115
G01 X133.2394 Y28.7867
G01 X133.2751 Y28.7654
G01 X133.3127 Y28.7476
G01 X133.3518 Y28.7336
G01 X133.3921 Y28.7235
G01 X133.4333 Y28.7174
G01 X133.4748 Y28.7153
G01 X133.5163 Y28.7174
G01 X133.5575 Y28.7235
G01 X133.5978 Y28.7336
G01 X133.6369 Y28.7476
G01 X133.6745 Y28.7654
G01 X133.7102 Y28.7867
G01 X133.7436 Y28.8115
G01 X133.7744 Y28.8394
G01 X133.8023 Y28.8702
G01 X133.8271 Y28.9036
G01 X133.8484 Y28.9393
G01 X133.8662 Y28.9769
G01 X133.8802 Y29.0160
G01 X133.8903 Y29.0563
G01 X133.8964 Y29.0975
G01 X133.8985 Y29.1390
G01 X133.8964 Y29.1805
G01 X133.8903 Y29.2217
G01 X133.8802 Y29.2620
G01 X133.8662 Y29.3011
G01 X133.8484 Y29.3387
G01 X133.8271 Y29.3744
G01 X133.8023 Y29.4078
G01 X133.7744 Y29.4386
G01 X133.7436 Y29.4665
G01 X133.7102 Y29.4913
G01 X133.6745 Y29.5126
G01 X133.6369 Y29.5304
G01 X133.5978 Y29.5444
G01 X133.5575 Y29.5545
G01 X133.5163 Y29.5606
G01 X133.4748 Y29.5627
G01 X133.4333 Y29.5606
G01 X133.3921 Y29.5545
G01 X133.3518 Y29.5444
G01 X133.3127 Y29.5304
G01 X133.2751 Y29.5126
G01 X133.2394 Y29.4913
G01 X133.2060 Y29.4665
G01 X133.1752 Y29.4386
G01 X133.1473 Y29.4078
G01 X133.1225 Y29.3744
G01 X133.1012 Y29.3387
G01 X133.0834 Y29.3011
G01 X133.0694 Y29.2620
G01 X133.0593 Y29.2217
G01 X133.0532 Y29.1805
G01 X133.0511 Y29.1390
G00 X133.0511 Y29.1390
G01 F100.00
G01 Z-9.6000
G01 F200.00
G01 X133.0532 Y29.0975
G01 X133.0593 Y29.0563
G01 X133.0694 Y29.0160
G01 X133.0834 Y28.9769
G01 X133.1012 Y28.9393
G01 X133.1225 Y28.9036
G01 X133.1473 Y28.8702
G01 X133.1752 Y28.8394
G01 X133.2060 Y28.8115
G01 X133.2394 Y28.7867
G01 X133.2751 Y28.7654
G01 X133.3127 Y28.7476
G01 X133.3518 Y28.7336
G01 X133.3921 Y28.7235
G01 X133.4333 Y28.7174
G01 X133.4748 Y28.7153
G01 X133.5163 Y28.7174
G01 X133.5575 Y28.7235
G01 X133.5978 Y28.7336
G01 X133.6369 Y28.7476
G01 X133.6745 Y28.7654
G01 X133.7102 Y28.7867
G01 X133.7436 Y28.8115
G01 X133.7744 Y28.8394
G01 X133.8023 Y28.8702
G01 X133.8271 Y28.9036
G01 X133.8484 Y28.9393
G01 X133.8662 Y28.9769
G01 X133.8802 Y29.0160
G01 X133.8903 Y29.0563
G01 X133.8964 Y29.0975
G01 X133.8985 Y29.1390
G01 X133.8964 Y29.1805
G01 X133.8903 Y29.2217
G01 X133.8802 Y29.2620
G01 X133.8662 Y29.3011
G01 X133.8484 Y29.3387
G01 X133.8271 Y29.3744
G01 X133.8023 Y29.4078
G01 X133.7744 Y29.4386
G01 X133.7436 Y29.4665
G01 X133.7102 Y29.4913
G01 X133.6745 Y29.5126
G01 X133.6369 Y29.5304
G01 X133.5978 Y29.5444
G01 X133.5575 Y29.5545
G01 X133.5163 Y29.5606
G01 X133.4748 Y29.5627
G01 X133.4333 Y29.5606
G01 X133.3921 Y29.5545
G01 X133.3518 Y29.5444
G01 X133.3127 Y29.5304
G01 X133.2751 Y29.5126
G01 X133.2394 Y29.4913
G01 X133.2060 Y29.4665
G01 X133.1752 Y29.4386
G01 X133.1473 Y29.4078
G01 X133.1225 Y29.3744
G01 X133.1012 Y29.3387
G01 X133.0834 Y29.3011
G01 X133.0694 Y29.2620
G01 X133.0593 Y29.2217
G01 X133.0532 Y29.1805
G01 X133.0511 Y29.1390
G00 X133.0511 Y29.1390
G01 F100.00
G01 Z-10.2000
G01 F200.00
G01 X133.0532 Y29.0975
G01 X133.0593 Y29.0563
G01 X133.0694 Y29.0160
G01 X133.0834 Y28.9769
G01 X133.1012 Y28.9393
G01 X133.1225 Y28.9036
G01 X133.1473 Y28.8702
G01 X133.1752 Y28.8394
G01 X133.2060 Y28.8115
G01 X133.2394 Y28.7867
G01 X133.2751 Y28.7654
G01 X133.3127 Y28.7476
G01 X133.3518 Y28.7336
G01 X133.3921 Y28.7235
G01 X133.4333 Y28.7174
G01 X133.4748 Y28.7153
G01 X133.5163 Y28.7174
G01 X133.5575 Y28.7235
G01 X133.5978 Y28.7336
G01 X133.6369 Y28.7476
G01 X133.6745 Y28.7654
G01 X133.7102 Y28.7867
G01 X133.7436 Y28.8115
G01 X133.7744 Y28.8394
G01 X133.8023 Y28.8702
G01 X133.8271 Y28.9036
G01 X133.8484 Y28.9393
G01 X133.8662 Y28.9769
G01 X133.8802 Y29.0160
G01 X133.8903 Y29.0563
G01 X133.8964 Y29.0975
G01 X133.8985 Y29.1390
G01 X133.8964 Y29.1805
G01 X133.8903 Y29.2217
G01 X133.8802 Y29.2620
G01 X133.8662 Y29.3011
G01 X133.8484 Y29.3387
G01 X133.8271 Y29.3744
G01 X133.8023 Y29.4078
G01 X133.7744 Y29.4386
G01 X133.7436 Y29.4665
G01 X133.7102 Y29.4913
G01 X133.6745 Y29.5126
G01 X133.6369 Y29.5304
G01 X133.5978 Y29.5444
G01 X133.5575 Y29.5545
G01 X133.5163 Y29.5606
G01 X133.4748 Y29.5627
G01 X133.4333 Y29.5606
G01 X133.3921 Y29.5545
G01 X133.3518 Y29.5444
G01 X133.3127 Y29.5304
G01 X133.2751 Y29.5126
G01 X133.2394 Y29.4913
G01 X133.2060 Y29.4665
G01 X133.1752 Y29.4386
G01 X133.1473 Y29.4078
G01 X133.1225 Y29.3744
G01 X133.1012 Y29.3387
G01 X133.0834 Y29.3011
G01 X133.0694 Y29.2620
G01 X133.0593 Y29.2217
G01 X133.0532 Y29.1805
G01 X133.0511 Y29.1390
G00 Z2.0000
G00 X133.0511 Y91.1390
G01 F100.00
G01 Z-1.2000
G01 F200.00
G01 X133.0532 Y91.0975
G01 X133.0593 Y91.0563
G01 X133.0694 Y91.0160
G01 X133.0834 Y90.9769
G01 X133.1012 Y90.9393
G01 X133.1225 Y90.9036
G01 X133.1473 Y90.8702
G01 X133.1752 Y90.8394
G01 X133.2060 Y90.8115
G01 X133.2394 Y90.7867
G01 X133.2751 Y90.7654
G01 X133.3127 Y90.7476
G01 X133.3518 Y90.7336
G01 X133.3921 Y90.7235
G01 X133.4333 Y90.7174
G01 X133.4748 Y90.7153
G01 X133.5163 Y90.7174
G01 X133.5575 Y90.7235
G01 X133.5978 Y90.7336
G01 X133.6369 Y90.7476
G01 X133.6745 Y90.7654
G01 X133.7102 Y90.7867
G01 X133.7436 Y90.8115
G01 X133.7744 Y90.8394
G01 X133.8023 Y90.8702
G01 X133.8271 Y90.9036
G01 X133.8484 Y90.9393
G01 X133.8662 Y90.9769
G01 X133.8802 Y91.0160
G01 X133.8903 Y91.0563
G01 X133.8964 Y91.0975
G01 X133.8985 Y91.1390
G01 X133.8964 Y91.1805
G01 X133.8903 Y91.2217
G01 X133.8802 Y91.2620
G01 X133.8662 Y91.3011
G01 X133.8484 Y91.3387
G01 X133.8271 Y91.3744
G01 X133.8023 Y91.4078
G01 X133.7744 Y91.4386
G01 X133.7436 Y91.4665
G01 X133.7102 Y91.4913
G01 X133.6745 Y91.5126
G01 X133.6369 Y91.5304
G01 X133.5978 Y91.5444
G01 X133.5575 Y91.5545
G01 X133.5163 Y91.5606
G01 X133.4748 Y91.5627
G01 X133.4333 Y91.5606
G01 X133.3921 Y91.5545
G01 X133.3518 Y91.5444
G01 X133.3127 Y91.5304
G01 X133.2751 Y91.5126
G01 X133.2394 Y91.4913
G01 X133.2060 Y91.4665
G01 X133.1752 Y91.4386
G01 X133.1473 Y91.4078
G01 X133.1225 Y91.3744
G01 X133.1012 Y91.3387
G01 X133.0834 Y91.3011
G01 X133.0694 Y91.2620
G01 X133.0593 Y91.2217
G01 X133.0532 Y91.1805
G01 X133.0511 Y91.1390
G00 X133.0511 Y91.1390
G01 F100.00
G01 Z-2.4000
G01 F200.00
G01 X133.0532 Y91.0975
G01 X133.0593 Y91.0563
G01 X133.0694 Y91.0160
G01 X133.0834 Y90.9769
G01 X133.1012 Y90.9393
G01 X133.1225 Y90.9036
G01 X133.1473 Y90.8702
G01 X133.1752 Y90.8394
G01 X133.2060 Y90.8115
G01 X133.2394 Y90.7867
G01 X133.2751 Y90.7654
G01 X133.3127 Y90.7476
G01 X133.3518 Y90.7336
G01 X133.3921 Y90.7235
G01 X133.4333 Y90.7174
G01 X133.4748 Y90.7153
G01 X133.5163 Y90.7174
G01 X133.5575 Y90.7235
G01 X133.5978 Y90.7336
G01 X133.6369 Y90.7476
G01 X133.6745 Y90.7654
G01 X133.7102 Y90.7867
G01 X133.7436 Y90.8115
G01 X133.7744 Y90.8394
G01 X133.8023 Y90.8702
G01 X133.8271 Y90.9036
G01 X133.8484 Y90.9393
G01 X133.8662 Y90.9769
G01 X133.8802 Y91.0160
G01 X133.8903 Y91.0563
G01 X133.8964 Y91.0975
G01 X133.8985 Y91.1390
G01 X133.8964 Y91.1805
G01 X133.8903 Y91.2217
G01 X133.8802 Y91.2620
G01 X133.8662 Y91.3011
G01 X133.8484 Y91.3387
G01 X133.8271 Y91.3744
G01 X133.8023 Y91.4078
G01 X133.7744 Y91.4386
G01 X133.7436 Y91.4665
G01 X133.7102 Y91.4913
G01 X133.6745 Y91.5126
G01 X133.6369 Y91.5304
G01 X133.5978 Y91.5444
G01 X133.5575 Y91.5545
G01 X133.5163 Y91.5606
G01 X133.4748 Y91.5627
G01 X133.4333 Y91.5606
G01 X133.3921 Y91.5545
G01 X133.3518 Y91.5444
G01 X133.3127 Y91.5304
G01 X133.2751 Y91.5126
G01 X133.2394 Y91.4913
G01 X133.2060 Y91.4665
G01 X133.1752 Y91.4386
G01 X133.1473 Y91.4078
G01 X133.1225 Y91.3744
G01 X133.1012 Y91.3387
G01 X133.0834 Y91.3011
G01 X133.0694 Y91.2620
G01 X133.0593 Y91.2217
G01 X133.0532 Y91.1805
G01 X133.0511 Y91.1390
G00 X133.0511 Y91.1390
G01 F100.00
G01 Z-3.6000
G01 F200.00
G01 X133.0532 Y91.0975
G01 X133.0593 Y91.0563
G01 X133.0694 Y91.0160
G01 X133.0834 Y90.9769
G01 X133.1012 Y90.9393
G01 X133.1225 Y90.9036
G01 X133.1473 Y90.8702
G01 X133.1752 Y90.8394
G01 X133.2060 Y90.8115
G01 X133.2394 Y90.7867
G01 X133.2751 Y90.7654
G01 X133.3127 Y90.7476
G01 X133.3518 Y90.7336
G01 X133.3921 Y90.7235
G01 X133.4333 Y90.7174
G01 X133.4748 Y90.7153
G01 X133.5163 Y90.7174
G01 X133.5575 Y90.7235
G01 X133.5978 Y90.7336
G01 X133.6369 Y90.7476
G01 X133.6745 Y90.7654
G01 X133.7102 Y90.7867
G01 X133.7436 Y90.8115
G01 X133.7744 Y90.8394
G01 X133.8023 Y90.8702
G01 X133.8271 Y90.9036
G01 X133.8484 Y90.9393
G01 X133.8662 Y90.9769
G01 X133.8802 Y91.0160
G01 X133.8903 Y91.0563
G01 X133.8964 Y91.0975
G01 X133.8985 Y91.1390
G01 X133.8964 Y91.1805
G01 X133.8903 Y91.2217
G01 X133.8802 Y91.2620
G01 X133.8662 Y91.3011
G01 X133.8484 Y91.3387
G01 X133.8271 Y91.3744
G01 X133.8023 Y91.4078
G01 X133.7744 Y91.4386
G01 X133.7436 Y91.4665
G01 X133.7102 Y91.4913
G01 X133.6745 Y91.5126
G01 X133.6369 Y91.5304
G01 X133.5978 Y91.5444
G01 X133.5575 Y91.5545
G01 X133.5163 Y91.5606
G01 X133.4748 Y91.5627
G01 X133.4333 Y91.5606
G01 X133.3921 Y91.5545
G01 X133.3518 Y91.5444
G01 X133.3127 Y91.5304
G01 X133.2751 Y91.5126
G01 X133.2394 Y91.4913
G01 X133.2060 Y91.4665
G01 X133.1752 Y91.4386
G01 X133.1473 Y91.4078
G01 X133.1225 Y91.3744
G01 X133.1012 Y91.3387
G01 X133.0834 Y91.3011
G01 X133.0694 Y91.2620
G01 X133.0593 Y91.2217
G01 X133.0532 Y91.1805
G01 X133.0511 Y91.1390
G00 X133.0511 Y91.1390
G01 F100.00
G01 Z-4.8000
G01 F200.00
G01 X133.0532 Y91.0975
G01 X133.0593 Y91.0563
G01 X133.0694 Y91.0160
G01 X133.0834 Y90.9769
G01 X133.1012 Y90.9393
G01 X133.1225 Y90.9036
G01 X133.1473 Y90.8702
G01 X133.1752 Y90.8394
G01 X133.2060 Y90.8115
G01 X133.2394 Y90.7867
G01 X133.2751 Y90.7654
G01 X133.3127 Y90.7476
G01 X133.3518 Y90.7336
G01 X133.3921 Y90.7235
G01 X133.4333 Y90.7174
G01 X133.4748 Y90.7153
G01 X133.5163 Y90.7174
G01 X133.5575 Y90.7235
G01 X133.5978 Y90.7336
G01 X133.6369 Y90.7476
G01 X133.6745 Y90.7654
G01 X133.7102 Y90.7867
G01 X133.7436 Y90.8115
G01 X133.7744 Y90.8394
G01 X133.8023 Y90.8702
G01 X133.8271 Y90.9036
G01 X133.8484 Y90.9393
G01 X133.8662 Y90.9769
G01 X133.8802 Y91.0160
G01 X133.8903 Y91.0563
G01 X133.8964 Y91.0975
G01 X133.8985 Y91.1390
G01 X133.8964 Y91.1805
G01 X133.8903 Y91.2217
G01 X133.8802 Y91.2620
G01 X133.8662 Y91.3011
G01 X133.8484 Y91.3387
G01 X133.8271 Y91.3744
G01 X133.8023 Y91.4078
G01 X133.7744 Y91.4386
G01 X133.7436 Y91.4665
G01 X133.7102 Y91.4913
G01 X133.6745 Y91.5126
G01 X133.6369 Y91.5304
G01 X133.5978 Y91.5444
G01 X133.5575 Y91.5545
G01 X133.5163 Y91.5606
G01 X133.4748 Y91.5627
G01 X133.4333 Y91.5606
G01 X133.3921 Y91.5545
G01 X133.3518 Y91.5444
G01 X133.3127 Y91.5304
G01 X133.2751 Y91.5126
G01 X133.2394 Y91.4913
G01 X133.2060 Y91.4665
G01 X133.1752 Y91.4386
G01 X133.1473 Y91.4078
G01 X133.1225 Y91.3744
G01 X133.1012 Y91.3387
G01 X133.0834 Y91.3011
G01 X133.0694 Y91.2620
G01 X133.0593 Y91.2217
G01 X133.0532 Y91.1805
G01 X133.0511 Y91.1390
G00 X133.0511 Y91.1390
G01 F100.00
G01 Z-6.0000
G01 F200.00
G01 X133.0532 Y91.0975
G01 X133.0593 Y91.0563
G01 X133.0694 Y91.0160
G01 X133.0834 Y90.9769
G01 X133.1012 Y90.9393
G01 X133.1225 Y90.9036
G01 X133.1473 Y90.8702
G01 X133.1752 Y90.8394
G01 X133.2060 Y90.8115
G01 X133.2394 Y90.7867
G01 X133.2751 Y90.7654
G01 X133.3127 Y90.7476
G01 X133.3518 Y90.7336
G01 X133.3921 Y90.7235
G01 X133.4333 Y90.7174
G01 X133.4748 Y90.7153
G01 X133.5163 Y90.7174
G01 X133.5575 Y90.7235
G01 X133.5978 Y90.7336
G01 X133.6369 Y90.7476
G01 X133.6745 Y90.7654
G01 X133.7102 Y90.7867
G01 X133.7436 Y90.8115
G01 X133.7744 Y90.8394
G01 X133.8023 Y90.8702
G01 X133.8271 Y90.9036
G01 X133.8484 Y90.9393
G01 X133.8662 Y90.9769
G01 X133.8802 Y91.0160
G01 X133.8903 Y91.0563
G01 X133.8964 Y91.0975
G01 X133.8985 Y91.1390
G01 X133.8964 Y91.1805
G01 X133.8903 Y91.2217
G01 X133.8802 Y91.2620
G01 X133.8662 Y91.3011
G01 X133.8484 Y91.3387
G01 X133.8271 Y91.3744
G01 X133.8023 Y91.4078
G01 X133.7744 Y91.4386
G01 X133.7436 Y91.4665
G01 X133.7102 Y91.4913
G01 X133.6745 Y91.5126
G01 X133.6369 Y91.5304
G01 X133.5978 Y91.5444
G01 X133.5575 Y91.5545
G01 X133.5163 Y91.5606
G01 X133.4748 Y91.5627
G01 X133.4333 Y91.5606
G01 X133.3921 Y91.5545
G01 X133.3518 Y91.5444
G01 X133.3127 Y91.5304
G01 X133.2751 Y91.5126
G01 X133.2394 Y91.4913
G01 X133.2060 Y91.4665
G01 X133.1752 Y91.4386
G01 X133.1473 Y91.4078
G01 X133.1225 Y91.3744
G01 X133.1012 Y91.3387
G01 X133.0834 Y91.3011
G01 X133.0694 Y91.2620
G01 X133.0593 Y91.2217
G01 X133.0532 Y91.1805
G01 X133.0511 Y91.1390
G00 X133.0511 Y91.1390
G01 F100.00
G01 Z-7.2000
G01 F200.00
G01 X133.0532 Y91.0975
G01 X133.0593 Y91.0563
G01 X133.0694 Y91.0160
G01 X133.0834 Y90.9769
G01 X133.1012 Y90.9393
G01 X133.1225 Y90.9036
G01 X133.1473 Y90.8702
G01 X133.1752 Y90.8394
G01 X133.2060 Y90.8115
G01 X133.2394 Y90.7867
G01 X133.2751 Y90.7654
G01 X133.3127 Y90.7476
G01 X133.3518 Y90.7336
G01 X133.3921 Y90.7235
G01 X133.4333 Y90.7174
G01 X133.4748 Y90.7153
G01 X133.5163 Y90.7174
G01 X133.5575 Y90.7235
G01 X133.5978 Y90.7336
G01 X133.6369 Y90.7476
G01 X133.6745 Y90.7654
G01 X133.7102 Y90.7867
G01 X133.7436 Y90.8115
G01 X133.7744 Y90.8394
G01 X133.8023 Y90.8702
G01 X133.8271 Y90.9036
G01 X133.8484 Y90.9393
G01 X133.8662 Y90.9769
G01 X133.8802 Y91.0160
G01 X133.8903 Y91.0563
G01 X133.8964 Y91.0975
G01 X133.8985 Y91.1390
G01 X133.8964 Y91.1805
G01 X133.8903 Y91.2217
G01 X133.8802 Y91.2620
G01 X133.8662 Y91.3011
G01 X133.8484 Y91.3387
G01 X133.8271 Y91.3744
G01 X133.8023 Y91.4078
G01 X133.7744 Y91.4386
G01 X133.7436 Y91.4665
G01 X133.7102 Y91.4913
G01 X133.6745 Y91.5126
G01 X133.6369 Y91.5304
G01 X133.5978 Y91.5444
G01 X133.5575 Y91.5545
G01 X133.5163 Y91.5606
G01 X133.4748 Y91.5627
G01 X133.4333 Y91.5606
G01 X133.3921 Y91.5545
G01 X133.3518 Y91.5444
G01 X133.3127 Y91.5304
G01 X133.2751 Y91.5126
G01 X133.2394 Y91.4913
G01 X133.2060 Y91.4665
G01 X133.1752 Y91.4386
G01 X133.1473 Y91.4078
G01 X133.1225 Y91.3744
G01 X133.1012 Y91.3387
G01 X133.0834 Y91.3011
G01 X133.0694 Y91.2620
G01 X133.0593 Y91.2217
G01 X133.0532 Y91.1805
G01 X133.0511 Y91.1390
G00 X133.0511 Y91.1390
G01 F100.00
G01 Z-8.4000
G01 F200.00
G01 X133.0532 Y91.0975
G01 X133.0593 Y91.0563
G01 X133.0694 Y91.0160
G01 X133.0834 Y90.9769
G01 X133.1012 Y90.9393
G01 X133.1225 Y90.9036
G01 X133.1473 Y90.8702
G01 X133.1752 Y90.8394
G01 X133.2060 Y90.8115
G01 X133.2394 Y90.7867
G01 X133.2751 Y90.7654
G01 X133.3127 Y90.7476
G01 X133.3518 Y90.7336
G01 X133.3921 Y90.7235
G01 X133.4333 Y90.7174
G01 X133.4748 Y90.7153
G01 X133.5163 Y90.7174
G01 X133.5575 Y90.7235
G01 X133.5978 Y90.7336
G01 X133.6369 Y90.7476
G01 X133.6745 Y90.7654
G01 X133.7102 Y90.7867
G01 X133.7436 Y90.8115
G01 X133.7744 Y90.8394
G01 X133.8023 Y90.8702
G01 X133.8271 Y90.9036
G01 X133.8484 Y90.9393
G01 X133.8662 Y90.9769
G01 X133.8802 Y91.0160
G01 X133.8903 Y91.0563
G01 X133.8964 Y91.0975
G01 X133.8985 Y91.1390
G01 X133.8964 Y91.1805
G01 X133.8903 Y91.2217
G01 X133.8802 Y91.2620
G01 X133.8662 Y91.3011
G01 X133.8484 Y91.3387
G01 X133.8271 Y91.3744
G01 X133.8023 Y91.4078
G01 X133.7744 Y91.4386
G01 X133.7436 Y91.4665
G01 X133.7102 Y91.4913
G01 X133.6745 Y91.5126
G01 X133.6369 Y91.5304
G01 X133.5978 Y91.5444
G01 X133.5575 Y91.5545
G01 X133.5163 Y91.5606
G01 X133.4748 Y91.5627
G01 X133.4333 Y91.5606
G01 X133.3921 Y91.5545
G01 X133.3518 Y91.5444
G01 X133.3127 Y91.5304
G01 X133.2751 Y91.5126
G01 X133.2394 Y91.4913
G01 X133.2060 Y91.4665
G01 X133.1752 Y91.4386
G01 X133.1473 Y91.4078
G01 X133.1225 Y91.3744
G01 X133.1012 Y91.3387
G01 X133.0834 Y91.3011
G01 X133.0694 Y91.2620
G01 X133.0593 Y91.2217
G01 X133.0532 Y91.1805
G01 X133.0511 Y91.1390
G00 X133.0511 Y91.1390
G01 F100.00
G01 Z-9.6000
G01 F200.00
G01 X133.0532 Y91.0975
G01 X133.0593 Y91.0563
G01 X133.0694 Y91.0160
G01 X133.0834 Y90.9769
G01 X133.1012 Y90.9393
G01 X133.1225 Y90.9036
G01 X133.1473 Y90.8702
G01 X133.1752 Y90.8394
G01 X133.2060 Y90.8115
G01 X133.2394 Y90.7867
G01 X133.2751 Y90.7654
G01 X133.3127 Y90.7476
G01 X133.3518 Y90.7336
G01 X133.3921 Y90.7235
G01 X133.4333 Y90.7174
G01 X133.4748 Y90.7153
G01 X133.5163 Y90.7174
G01 X133.5575 Y90.7235
G01 X133.5978 Y90.7336
G01 X133.6369 Y90.7476
G01 X133.6745 Y90.7654
G01 X133.7102 Y90.7867
G01 X133.7436 Y90.8115
G01 X133.7744 Y90.8394
G01 X133.8023 Y90.8702
G01 X133.8271 Y90.9036
G01 X133.8484 Y90.9393
G01 X133.8662 Y90.9769
G01 X133.8802 Y91.0160
G01 X133.8903 Y91.0563
G01 X133.8964 Y91.0975
G01 X133.8985 Y91.1390
G01 X133.8964 Y91.1805
G01 X133.8903 Y91.2217
G01 X133.8802 Y91.2620
G01 X133.8662 Y91.3011
G01 X133.8484 Y91.3387
G01 X133.8271 Y91.3744
G01 X133.8023 Y91.4078
G01 X133.7744 Y91.4386
G01 X133.7436 Y91.4665
G01 X133.7102 Y91.4913
G01 X133.6745 Y91.5126
G01 X133.6369 Y91.5304
G01 X133.5978 Y91.5444
G01 X133.5575 Y91.5545
G01 X133.5163 Y91.5606
G01 X133.4748 Y91.5627
G01 X133.4333 Y91.5606
G01 X133.3921 Y91.5545
G01 X133.3518 Y91.5444
G01 X133.3127 Y91.5304
G01 X133.2751 Y91.5126
G01 X133.2394 Y91.4913
G01 X133.2060 Y91.4665
G01 X133.1752 Y91.4386
G01 X133.1473 Y91.4078
G01 X133.1225 Y91.3744
G01 X133.1012 Y91.3387
G01 X133.0834 Y91.3011
G01 X133.0694 Y91.2620
G01 X133.0593 Y91.2217
G01 X133.0532 Y91.1805
G01 X133.0511 Y91.1390
G00 X133.0511 Y91.1390
G01 F100.00
G01 Z-10.2000
G01 F200.00
G01 X133.0532 Y91.0975
G01 X133.0593 Y91.0563
G01 X133.0694 Y91.0160
G01 X133.0834 Y90.9769
G01 X133.1012 Y90.9393
G01 X133.1225 Y90.9036
G01 X133.1473 Y90.8702
G01 X133.1752 Y90.8394
G01 X133.2060 Y90.8115
G01 X133.2394 Y90.7867
G01 X133.2751 Y90.7654
G01 X133.3127 Y90.7476
G01 X133.3518 Y90.7336
G01 X133.3921 Y90.7235
G01 X133.4333 Y90.7174
G01 X133.4748 Y90.7153
G01 X133.5163 Y90.7174
G01 X133.5575 Y90.7235
G01 X133.5978 Y90.7336
G01 X133.6369 Y90.7476
G01 X133.6745 Y90.7654
G01 X133.7102 Y90.7867
G01 X133.7436 Y90.8115
G01 X133.7744 Y90.8394
G01 X133.8023 Y90.8702
G01 X133.8271 Y90.9036
G01 X133.8484 Y90.9393
G01 X133.8662 Y90.9769
G01 X133.8802 Y91.0160
G01 X133.8903 Y91.0563
G01 X133.8964 Y91.0975
G01 X133.8985 Y91.1390
G01 X133.8964 Y91.1805
G01 X133.8903 Y91.2217
G01 X133.8802 Y91.2620
G01 X133.8662 Y91.3011
G01 X133.8484 Y91.3387
G01 X133.8271 Y91.3744
G01 X133.8023 Y91.4078
G01 X133.7744 Y91.4386
G01 X133.7436 Y91.4665
G01 X133.7102 Y91.4913
G01 X133.6745 Y91.5126
G01 X133.6369 Y91.5304
G01 X133.5978 Y91.5444
G01 X133.5575 Y91.5545
G01 X133.5163 Y91.5606
G01 X133.4748 Y91.5627
G01 X133.4333 Y91.5606
G01 X133.3921 Y91.5545
G01 X133.3518 Y91.5444
G01 X133.3127 Y91.5304
G01 X133.2751 Y91.5126
G01 X133.2394 Y91.4913
G01 X133.2060 Y91.4665
G01 X133.1752 Y91.4386
G01 X133.1473 Y91.4078
G01 X133.1225 Y91.3744
G01 X133.1012 Y91.3387
G01 X133.0834 Y91.3011
G01 X133.0694 Y91.2620
G01 X133.0593 Y91.2217
G01 X133.0532 Y91.1805
G01 X133.0511 Y91.1390
G00 Z2.0000
G00 X99.0511 Y91.1390
G01 F100.00
G01 Z-1.2000
G01 F200.00
G01 X99.0532 Y91.0975
G01 X99.0593 Y91.0563
G01 X99.0694 Y91.0160
G01 X99.0834 Y90.9769
G01 X99.1012 Y90.9393
G01 X99.1225 Y90.9036
G01 X99.1473 Y90.8702
G01 X99.1752 Y90.8394
G01 X99.2060 Y90.8115
G01 X99.2394 Y90.7867
G01 X99.2751 Y90.7654
G01 X99.3127 Y90.7476
G01 X99.3518 Y90.7336
G01 X99.3921 Y90.7235
G01 X99.4333 Y90.7174
G01 X99.4748 Y90.7153
G01 X99.5163 Y90.7174
G01 X99.5575 Y90.7235
G01 X99.5978 Y90.7336
G01 X99.6369 Y90.7476
G01 X99.6745 Y90.7654
G01 X99.7102 Y90.7867
G01 X99.7436 Y90.8115
G01 X99.7744 Y90.8394
G01 X99.8023 Y90.8702
G01 X99.8271 Y90.9036
G01 X99.8484 Y90.9393
G01 X99.8662 Y90.9769
G01 X99.8802 Y91.0160
G01 X99.8903 Y91.0563
G01 X99.8964 Y91.0975
G01 X99.8985 Y91.1390
G01 X99.8964 Y91.1805
G01 X99.8903 Y91.2217
G01 X99.8802 Y91.2620
G01 X99.8662 Y91.3011
G01 X99.8484 Y91.3387
G01 X99.8271 Y91.3744
G01 X99.8023 Y91.4078
G01 X99.7744 Y91.4386
G01 X99.7436 Y91.4665
G01 X99.7102 Y91.4913
G01 X99.6745 Y91.5126
G01 X99.6369 Y91.5304
G01 X99.5978 Y91.5444
G01 X99.5575 Y91.5545
G01 X99.5163 Y91.5606
G01 X99.4748 Y91.5627
G01 X99.4333 Y91.5606
G01 X99.3921 Y91.5545
G01 X99.3518 Y91.5444
G01 X99.3127 Y91.5304
G01 X99.2751 Y91.5126
G01 X99.2394 Y91.4913
G01 X99.2060 Y91.4665
G01 X99.1752 Y91.4386
G01 X99.1473 Y91.4078
G01 X99.1225 Y91.3744
G01 X99.1012 Y91.3387
G01 X99.0834 Y91.3011
G01 X99.0694 Y91.2620
G01 X99.0593 Y91.2217
G01 X99.0532 Y91.1805
G01 X99.0511 Y91.1390
G00 X99.0511 Y91.1390
G01 F100.00
G01 Z-2.4000
G01 F200.00
G01 X99.0532 Y91.0975
G01 X99.0593 Y91.0563
G01 X99.0694 Y91.0160
G01 X99.0834 Y90.9769
G01 X99.1012 Y90.9393
G01 X99.1225 Y90.9036
G01 X99.1473 Y90.8702
G01 X99.1752 Y90.8394
G01 X99.2060 Y90.8115
G01 X99.2394 Y90.7867
G01 X99.2751 Y90.7654
G01 X99.3127 Y90.7476
G01 X99.3518 Y90.7336
G01 X99.3921 Y90.7235
G01 X99.4333 Y90.7174
G01 X99.4748 Y90.7153
G01 X99.5163 Y90.7174
G01 X99.5575 Y90.7235
G01 X99.5978 Y90.7336
G01 X99.6369 Y90.7476
G01 X99.6745 Y90.7654
G01 X99.7102 Y90.7867
G01 X99.7436 Y90.8115
G01 X99.7744 Y90.8394
G01 X99.8023 Y90.8702
G01 X99.8271 Y90.9036
G01 X99.8484 Y90.9393
G01 X99.8662 Y90.9769
G01 X99.8802 Y91.0160
G01 X99.8903 Y91.0563
G01 X99.8964 Y91.0975
G01 X99.8985 Y91.1390
G01 X99.8964 Y91.1805
G01 X99.8903 Y91.2217
G01 X99.8802 Y91.2620
G01 X99.8662 Y91.3011
G01 X99.8484 Y91.3387
G01 X99.8271 Y91.3744
G01 X99.8023 Y91.4078
G01 X99.7744 Y91.4386
G01 X99.7436 Y91.4665
G01 X99.7102 Y91.4913
G01 X99.6745 Y91.5126
G01 X99.6369 Y91.5304
G01 X99.5978 Y91.5444
G01 X99.5575 Y91.5545
G01 X99.5163 Y91.5606
G01 X99.4748 Y91.5627
G01 X99.4333 Y91.5606
G01 X99.3921 Y91.5545
G01 X99.3518 Y91.5444
G01 X99.3127 Y91.5304
G01 X99.2751 Y91.5126
G01 X99.2394 Y91.4913
G01 X99.2060 Y91.4665
G01 X99.1752 Y91.4386
G01 X99.1473 Y91.4078
G01 X99.1225 Y91.3744
G01 X99.1012 Y91.3387
G01 X99.0834 Y91.3011
G01 X99.0694 Y91.2620
G01 X99.0593 Y91.2217
G01 X99.0532 Y91.1805
G01 X99.0511 Y91.1390
G00 X99.0511 Y91.1390
G01 F100.00
G01 Z-3.6000
G01 F200.00
G01 X99.0532 Y91.0975
G01 X99.0593 Y91.0563
G01 X99.0694 Y91.0160
G01 X99.0834 Y90.9769
G01 X99.1012 Y90.9393
G01 X99.1225 Y90.9036
G01 X99.1473 Y90.8702
G01 X99.1752 Y90.8394
G01 X99.2060 Y90.8115
G01 X99.2394 Y90.7867
G01 X99.2751 Y90.7654
G01 X99.3127 Y90.7476
G01 X99.3518 Y90.7336
G01 X99.3921 Y90.7235
G01 X99.4333 Y90.7174
G01 X99.4748 Y90.7153
G01 X99.5163 Y90.7174
G01 X99.5575 Y90.7235
G01 X99.5978 Y90.7336
G01 X99.6369 Y90.7476
G01 X99.6745 Y90.7654
G01 X99.7102 Y90.7867
G01 X99.7436 Y90.8115
G01 X99.7744 Y90.8394
G01 X99.8023 Y90.8702
G01 X99.8271 Y90.9036
G01 X99.8484 Y90.9393
G01 X99.8662 Y90.9769
G01 X99.8802 Y91.0160
G01 X99.8903 Y91.0563
G01 X99.8964 Y91.0975
G01 X99.8985 Y91.1390
G01 X99.8964 Y91.1805
G01 X99.8903 Y91.2217
G01 X99.8802 Y91.2620
G01 X99.8662 Y91.3011
G01 X99.8484 Y91.3387
G01 X99.8271 Y91.3744
G01 X99.8023 Y91.4078
G01 X99.7744 Y91.4386
G01 X99.7436 Y91.4665
G01 X99.7102 Y91.4913
G01 X99.6745 Y91.5126
G01 X99.6369 Y91.5304
G01 X99.5978 Y91.5444
G01 X99.5575 Y91.5545
G01 X99.5163 Y91.5606
G01 X99.4748 Y91.5627
G01 X99.4333 Y91.5606
G01 X99.3921 Y91.5545
G01 X99.3518 Y91.5444
G01 X99.3127 Y91.5304
G01 X99.2751 Y91.5126
G01 X99.2394 Y91.4913
G01 X99.2060 Y91.4665
G01 X99.1752 Y91.4386
G01 X99.1473 Y91.4078
G01 X99.1225 Y91.3744
G01 X99.1012 Y91.3387
G01 X99.0834 Y91.3011
G01 X99.0694 Y91.2620
G01 X99.0593 Y91.2217
G01 X99.0532 Y91.1805
G01 X99.0511 Y91.1390
G00 X99.0511 Y91.1390
G01 F100.00
G01 Z-4.8000
G01 F200.00
G01 X99.0532 Y91.0975
G01 X99.0593 Y91.0563
G01 X99.0694 Y91.0160
G01 X99.0834 Y90.9769
G01 X99.1012 Y90.9393
G01 X99.1225 Y90.9036
G01 X99.1473 Y90.8702
G01 X99.1752 Y90.8394
G01 X99.2060 Y90.8115
G01 X99.2394 Y90.7867
G01 X99.2751 Y90.7654
G01 X99.3127 Y90.7476
G01 X99.3518 Y90.7336
G01 X99.3921 Y90.7235
G01 X99.4333 Y90.7174
G01 X99.4748 Y90.7153
G01 X99.5163 Y90.7174
G01 X99.5575 Y90.7235
G01 X99.5978 Y90.7336
G01 X99.6369 Y90.7476
G01 X99.6745 Y90.7654
G01 X99.7102 Y90.7867
G01 X99.7436 Y90.8115
G01 X99.7744 Y90.8394
G01 X99.8023 Y90.8702
G01 X99.8271 Y90.9036
G01 X99.8484 Y90.9393
G01 X99.8662 Y90.9769
G01 X99.8802 Y91.0160
G01 X99.8903 Y91.0563
G01 X99.8964 Y91.0975
G01 X99.8985 Y91.1390
G01 X99.8964 Y91.1805
G01 X99.8903 Y91.2217
G01 X99.8802 Y91.2620
G01 X99.8662 Y91.3011
G01 X99.8484 Y91.3387
G01 X99.8271 Y91.3744
G01 X99.8023 Y91.4078
G01 X99.7744 Y91.4386
G01 X99.7436 Y91.4665
G01 X99.7102 Y91.4913
G01 X99.6745 Y91.5126
G01 X99.6369 Y91.5304
G01 X99.5978 Y91.5444
G01 X99.5575 Y91.5545
G01 X99.5163 Y91.5606
G01 X99.4748 Y91.5627
G01 X99.4333 Y91.5606
G01 X99.3921 Y91.5545
G01 X99.3518 Y91.5444
G01 X99.3127 Y91.5304
G01 X99.2751 Y91.5126
G01 X99.2394 Y91.4913
G01 X99.2060 Y91.4665
G01 X99.1752 Y91.4386
G01 X99.1473 Y91.4078
G01 X99.1225 Y91.3744
G01 X99.1012 Y91.3387
G01 X99.0834 Y91.3011
G01 X99.0694 Y91.2620
G01 X99.0593 Y91.2217
G01 X99.0532 Y91.1805
G01 X99.0511 Y91.1390
G00 X99.0511 Y91.1390
G01 F100.00
G01 Z-6.0000
G01 F200.00
G01 X99.0532 Y91.0975
G01 X99.0593 Y91.0563
G01 X99.0694 Y91.0160
G01 X99.0834 Y90.9769
G01 X99.1012 Y90.9393
G01 X99.1225 Y90.9036
G01 X99.1473 Y90.8702
G01 X99.1752 Y90.8394
G01 X99.2060 Y90.8115
G01 X99.2394 Y90.7867
G01 X99.2751 Y90.7654
G01 X99.3127 Y90.7476
G01 X99.3518 Y90.7336
G01 X99.3921 Y90.7235
G01 X99.4333 Y90.7174
G01 X99.4748 Y90.7153
G01 X99.5163 Y90.7174
G01 X99.5575 Y90.7235
G01 X99.5978 Y90.7336
G01 X99.6369 Y90.7476
G01 X99.6745 Y90.7654
G01 X99.7102 Y90.7867
G01 X99.7436 Y90.8115
G01 X99.7744 Y90.8394
G01 X99.8023 Y90.8702
G01 X99.8271 Y90.9036
G01 X99.8484 Y90.9393
G01 X99.8662 Y90.9769
G01 X99.8802 Y91.0160
G01 X99.8903 Y91.0563
G01 X99.8964 Y91.0975
G01 X99.8985 Y91.1390
G01 X99.8964 Y91.1805
G01 X99.8903 Y91.2217
G01 X99.8802 Y91.2620
G01 X99.8662 Y91.3011
G01 X99.8484 Y91.3387
G01 X99.8271 Y91.3744
G01 X99.8023 Y91.4078
G01 X99.7744 Y91.4386
G01 X99.7436 Y91.4665
G01 X99.7102 Y91.4913
G01 X99.6745 Y91.5126
G01 X99.6369 Y91.5304
G01 X99.5978 Y91.5444
G01 X99.5575 Y91.5545
G01 X99.5163 Y91.5606
G01 X99.4748 Y91.5627
G01 X99.4333 Y91.5606
G01 X99.3921 Y91.5545
G01 X99.3518 Y91.5444
G01 X99.3127 Y91.5304
G01 X99.2751 Y91.5126
G01 X99.2394 Y91.4913
G01 X99.2060 Y91.4665
G01 X99.1752 Y91.4386
G01 X99.1473 Y91.4078
G01 X99.1225 Y91.3744
G01 X99.1012 Y91.3387
G01 X99.0834 Y91.3011
G01 X99.0694 Y91.2620
G01 X99.0593 Y91.2217
G01 X99.0532 Y91.1805
G01 X99.0511 Y91.1390
G00 X99.0511 Y91.1390
G01 F100.00
G01 Z-7.2000
G01 F200.00
G01 X99.0532 Y91.0975
G01 X99.0593 Y91.0563
G01 X99.0694 Y91.0160
G01 X99.0834 Y90.9769
G01 X99.1012 Y90.9393
G01 X99.1225 Y90.9036
G01 X99.1473 Y90.8702
G01 X99.1752 Y90.8394
G01 X99.2060 Y90.8115
G01 X99.2394 Y90.7867
G01 X99.2751 Y90.7654
G01 X99.3127 Y90.7476
G01 X99.3518 Y90.7336
G01 X99.3921 Y90.7235
G01 X99.4333 Y90.7174
G01 X99.4748 Y90.7153
G01 X99.5163 Y90.7174
G01 X99.5575 Y90.7235
G01 X99.5978 Y90.7336
G01 X99.6369 Y90.7476
G01 X99.6745 Y90.7654
G01 X99.7102 Y90.7867
G01 X99.7436 Y90.8115
G01 X99.7744 Y90.8394
G01 X99.8023 Y90.8702
G01 X99.8271 Y90.9036
G01 X99.8484 Y90.9393
G01 X99.8662 Y90.9769
G01 X99.8802 Y91.0160
G01 X99.8903 Y91.0563
G01 X99.8964 Y91.0975
G01 X99.8985 Y91.1390
G01 X99.8964 Y91.1805
G01 X99.8903 Y91.2217
G01 X99.8802 Y91.2620
G01 X99.8662 Y91.3011
G01 X99.8484 Y91.3387
G01 X99.8271 Y91.3744
G01 X99.8023 Y91.4078
G01 X99.7744 Y91.4386
G01 X99.7436 Y91.4665
G01 X99.7102 Y91.4913
G01 X99.6745 Y91.5126
G01 X99.6369 Y91.5304
G01 X99.5978 Y91.5444
G01 X99.5575 Y91.5545
G01 X99.5163 Y91.5606
G01 X99.4748 Y91.5627
G01 X99.4333 Y91.5606
G01 X99.3921 Y91.5545
G01 X99.3518 Y91.5444
G01 X99.3127 Y91.5304
G01 X99.2751 Y91.5126
G01 X99.2394 Y91.4913
G01 X99.2060 Y91.4665
G01 X99.1752 Y91.4386
G01 X99.1473 Y91.4078
G01 X99.1225 Y91.3744
G01 X99.1012 Y91.3387
G01 X99.0834 Y91.3011
G01 X99.0694 Y91.2620
G01 X99.0593 Y91.2217
G01 X99.0532 Y91.1805
G01 X99.0511 Y91.1390
G00 X99.0511 Y91.1390
G01 F100.00
G01 Z-8.4000
G01 F200.00
G01 X99.0532 Y91.0975
G01 X99.0593 Y91.0563
G01 X99.0694 Y91.0160
G01 X99.0834 Y90.9769
G01 X99.1012 Y90.9393
G01 X99.1225 Y90.9036
G01 X99.1473 Y90.8702
G01 X99.1752 Y90.8394
G01 X99.2060 Y90.8115
G01 X99.2394 Y90.7867
G01 X99.2751 Y90.7654
G01 X99.3127 Y90.7476
G01 X99.3518 Y90.7336
G01 X99.3921 Y90.7235
G01 X99.4333 Y90.7174
G01 X99.4748 Y90.7153
G01 X99.5163 Y90.7174
G01 X99.5575 Y90.7235
G01 X99.5978 Y90.7336
G01 X99.6369 Y90.7476
G01 X99.6745 Y90.7654
G01 X99.7102 Y90.7867
G01 X99.7436 Y90.8115
G01 X99.7744 Y90.8394
G01 X99.8023 Y90.8702
G01 X99.8271 Y90.9036
G01 X99.8484 Y90.9393
G01 X99.8662 Y90.9769
G01 X99.8802 Y91.0160
G01 X99.8903 Y91.0563
G01 X99.8964 Y91.0975
G01 X99.8985 Y91.1390
G01 X99.8964 Y91.1805
G01 X99.8903 Y91.2217
G01 X99.8802 Y91.2620
G01 X99.8662 Y91.3011
G01 X99.8484 Y91.3387
G01 X99.8271 Y91.3744
G01 X99.8023 Y91.4078
G01 X99.7744 Y91.4386
G01 X99.7436 Y91.4665
G01 X99.7102 Y91.4913
G01 X99.6745 Y91.5126
G01 X99.6369 Y91.5304
G01 X99.5978 Y91.5444
G01 X99.5575 Y91.5545
G01 X99.5163 Y91.5606
G01 X99.4748 Y91.5627
G01 X99.4333 Y91.5606
G01 X99.3921 Y91.5545
G01 X99.3518 Y91.5444
G01 X99.3127 Y91.5304
G01 X99.2751 Y91.5126
G01 X99.2394 Y91.4913
G01 X99.2060 Y91.4665
G01 X99.1752 Y91.4386
G01 X99.1473 Y91.4078
G01 X99.1225 Y91.3744
G01 X99.1012 Y91.3387
G01 X99.0834 Y91.3011
G01 X99.0694 Y91.2620
G01 X99.0593 Y91.2217
G01 X99.0532 Y91.1805
G01 X99.0511 Y91.1390
G00 X99.0511 Y91.1390
G01 F100.00
G01 Z-9.6000
G01 F200.00
G01 X99.0532 Y91.0975
G01 X99.0593 Y91.0563
G01 X99.0694 Y91.0160
G01 X99.0834 Y90.9769
G01 X99.1012 Y90.9393
G01 X99.1225 Y90.9036
G01 X99.1473 Y90.8702
G01 X99.1752 Y90.8394
G01 X99.2060 Y90.8115
G01 X99.2394 Y90.7867
G01 X99.2751 Y90.7654
G01 X99.3127 Y90.7476
G01 X99.3518 Y90.7336
G01 X99.3921 Y90.7235
G01 X99.4333 Y90.7174
G01 X99.4748 Y90.7153
G01 X99.5163 Y90.7174
G01 X99.5575 Y90.7235
G01 X99.5978 Y90.7336
G01 X99.6369 Y90.7476
G01 X99.6745 Y90.7654
G01 X99.7102 Y90.7867
G01 X99.7436 Y90.8115
G01 X99.7744 Y90.8394
G01 X99.8023 Y90.8702
G01 X99.8271 Y90.9036
G01 X99.8484 Y90.9393
G01 X99.8662 Y90.9769
G01 X99.8802 Y91.0160
G01 X99.8903 Y91.0563
G01 X99.8964 Y91.0975
G01 X99.8985 Y91.1390
G01 X99.8964 Y91.1805
G01 X99.8903 Y91.2217
G01 X99.8802 Y91.2620
G01 X99.8662 Y91.3011
G01 X99.8484 Y91.3387
G01 X99.8271 Y91.3744
G01 X99.8023 Y91.4078
G01 X99.7744 Y91.4386
G01 X99.7436 Y91.4665
G01 X99.7102 Y91.4913
G01 X99.6745 Y91.5126
G01 X99.6369 Y91.5304
G01 X99.5978 Y91.5444
G01 X99.5575 Y91.5545
G01 X99.5163 Y91.5606
G01 X99.4748 Y91.5627
G01 X99.4333 Y91.5606
G01 X99.3921 Y91.5545
G01 X99.3518 Y91.5444
G01 X99.3127 Y91.5304
G01 X99.2751 Y91.5126
G01 X99.2394 Y91.4913
G01 X99.2060 Y91.4665
G01 X99.1752 Y91.4386
G01 X99.1473 Y91.4078
G01 X99.1225 Y91.3744
G01 X99.1012 Y91.3387
G01 X99.0834 Y91.3011
G01 X99.0694 Y91.2620
G01 X99.0593 Y91.2217
G01 X99.0532 Y91.1805
G01 X99.0511 Y91.1390
G00 X99.0511 Y91.1390
G01 F100.00
G01 Z-10.2000
G01 F200.00
G01 X99.0532 Y91.0975
G01 X99.0593 Y91.0563
G01 X99.0694 Y91.0160
G01 X99.0834 Y90.9769
G01 X99.1012 Y90.9393
G01 X99.1225 Y90.9036
G01 X99.1473 Y90.8702
G01 X99.1752 Y90.8394
G01 X99.2060 Y90.8115
G01 X99.2394 Y90.7867
G01 X99.2751 Y90.7654
G01 X99.3127 Y90.7476
G01 X99.3518 Y90.7336
G01 X99.3921 Y90.7235
G01 X99.4333 Y90.7174
G01 X99.4748 Y90.7153
G01 X99.5163 Y90.7174
G01 X99.5575 Y90.7235
G01 X99.5978 Y90.7336
G01 X99.6369 Y90.7476
G01 X99.6745 Y90.7654
G01 X99.7102 Y90.7867
G01 X99.7436 Y90.8115
G01 X99.7744 Y90.8394
G01 X99.8023 Y90.8702
G01 X99.8271 Y90.9036
G01 X99.8484 Y90.9393
G01 X99.8662 Y90.9769
G01 X99.8802 Y91.0160
G01 X99.8903 Y91.0563
G01 X99.8964 Y91.0975
G01 X99.8985 Y91.1390
G01 X99.8964 Y91.1805
G01 X99.8903 Y91.2217
G01 X99.8802 Y91.2620
G01 X99.8662 Y91.3011
G01 X99.8484 Y91.3387
G01 X99.8271 Y91.3744
G01 X99.8023 Y91.4078
G01 X99.7744 Y91.4386
G01 X99.7436 Y91.4665
G01 X99.7102 Y91.4913
G01 X99.6745 Y91.5126
G01 X99.6369 Y91.5304
G01 X99.5978 Y91.5444
G01 X99.5575 Y91.5545
G01 X99.5163 Y91.5606
G01 X99.4748 Y91.5627
G01 X99.4333 Y91.5606
G01 X99.3921 Y91.5545
G01 X99.3518 Y91.5444
G01 X99.3127 Y91.5304
G01 X99.2751 Y91.5126
G01 X99.2394 Y91.4913
G01 X99.2060 Y91.4665
G01 X99.1752 Y91.4386
G01 X99.1473 Y91.4078
G01 X99.1225 Y91.3744
G01 X99.1012 Y91.3387
G01 X99.0834 Y91.3011
G01 X99.0694 Y91.2620
G01 X99.0593 Y91.2217
G01 X99.0532 Y91.1805
G01 X99.0511 Y91.1390
G00 Z2.0000
G00 X63.0511 Y91.1390
G01 F100.00
G01 Z-1.2000
G01 F200.00
G01 X63.0532 Y91.0975
G01 X63.0593 Y91.0563
G01 X63.0694 Y91.0160
G01 X63.0834 Y90.9769
G01 X63.1012 Y90.9393
G01 X63.1225 Y90.9036
G01 X63.1473 Y90.8702
G01 X63.1752 Y90.8394
G01 X63.2060 Y90.8115
G01 X63.2394 Y90.7867
G01 X63.2751 Y90.7654
G01 X63.3127 Y90.7476
G01 X63.3518 Y90.7336
G01 X63.3921 Y90.7235
G01 X63.4333 Y90.7174
G01 X63.4748 Y90.7153
G01 X63.5163 Y90.7174
G01 X63.5575 Y90.7235
G01 X63.5978 Y90.7336
G01 X63.6369 Y90.7476
G01 X63.6745 Y90.7654
G01 X63.7102 Y90.7867
G01 X63.7436 Y90.8115
G01 X63.7744 Y90.8394
G01 X63.8023 Y90.8702
G01 X63.8271 Y90.9036
G01 X63.8484 Y90.9393
G01 X63.8662 Y90.9769
G01 X63.8802 Y91.0160
G01 X63.8903 Y91.0563
G01 X63.8964 Y91.0975
G01 X63.8985 Y91.1390
G01 X63.8964 Y91.1805
G01 X63.8903 Y91.2217
G01 X63.8802 Y91.2620
G01 X63.8662 Y91.3011
G01 X63.8484 Y91.3387
G01 X63.8271 Y91.3744
G01 X63.8023 Y91.4078
G01 X63.7744 Y91.4386
G01 X63.7436 Y91.4665
G01 X63.7102 Y91.4913
G01 X63.6745 Y91.5126
G01 X63.6369 Y91.5304
G01 X63.5978 Y91.5444
G01 X63.5575 Y91.5545
G01 X63.5163 Y91.5606
G01 X63.4748 Y91.5627
G01 X63.4333 Y91.5606
G01 X63.3921 Y91.5545
G01 X63.3518 Y91.5444
G01 X63.3127 Y91.5304
G01 X63.2751 Y91.5126
G01 X63.2394 Y91.4913
G01 X63.2060 Y91.4665
G01 X63.1752 Y91.4386
G01 X63.1473 Y91.4078
G01 X63.1225 Y91.3744
G01 X63.1012 Y91.3387
G01 X63.0834 Y91.3011
G01 X63.0694 Y91.2620
G01 X63.0593 Y91.2217
G01 X63.0532 Y91.1805
G01 X63.0511 Y91.1390
G00 X63.0511 Y91.1390
G01 F100.00
G01 Z-2.4000
G01 F200.00
G01 X63.0532 Y91.0975
G01 X63.0593 Y91.0563
G01 X63.0694 Y91.0160
G01 X63.0834 Y90.9769
G01 X63.1012 Y90.9393
G01 X63.1225 Y90.9036
G01 X63.1473 Y90.8702
G01 X63.1752 Y90.8394
G01 X63.2060 Y90.8115
G01 X63.2394 Y90.7867
G01 X63.2751 Y90.7654
G01 X63.3127 Y90.7476
G01 X63.3518 Y90.7336
G01 X63.3921 Y90.7235
G01 X63.4333 Y90.7174
G01 X63.4748 Y90.7153
G01 X63.5163 Y90.7174
G01 X63.5575 Y90.7235
G01 X63.5978 Y90.7336
G01 X63.6369 Y90.7476
G01 X63.6745 Y90.7654
G01 X63.7102 Y90.7867
G01 X63.7436 Y90.8115
G01 X63.7744 Y90.8394
G01 X63.8023 Y90.8702
G01 X63.8271 Y90.9036
G01 X63.8484 Y90.9393
G01 X63.8662 Y90.9769
G01 X63.8802 Y91.0160
G01 X63.8903 Y91.0563
G01 X63.8964 Y91.0975
G01 X63.8985 Y91.1390
G01 X63.8964 Y91.1805
G01 X63.8903 Y91.2217
G01 X63.8802 Y91.2620
G01 X63.8662 Y91.3011
G01 X63.8484 Y91.3387
G01 X63.8271 Y91.3744
G01 X63.8023 Y91.4078
G01 X63.7744 Y91.4386
G01 X63.7436 Y91.4665
G01 X63.7102 Y91.4913
G01 X63.6745 Y91.5126
G01 X63.6369 Y91.5304
G01 X63.5978 Y91.5444
G01 X63.5575 Y91.5545
G01 X63.5163 Y91.5606
G01 X63.4748 Y91.5627
G01 X63.4333 Y91.5606
G01 X63.3921 Y91.5545
G01 X63.3518 Y91.5444
G01 X63.3127 Y91.5304
G01 X63.2751 Y91.5126
G01 X63.2394 Y91.4913
G01 X63.2060 Y91.4665
G01 X63.1752 Y91.4386
G01 X63.1473 Y91.4078
G01 X63.1225 Y91.3744
G01 X63.1012 Y91.3387
G01 X63.0834 Y91.3011
G01 X63.0694 Y91.2620
G01 X63.0593 Y91.2217
G01 X63.0532 Y91.1805
G01 X63.0511 Y91.1390
G00 X63.0511 Y91.1390
G01 F100.00
G01 Z-3.6000
G01 F200.00
G01 X63.0532 Y91.0975
G01 X63.0593 Y91.0563
G01 X63.0694 Y91.0160
G01 X63.0834 Y90.9769
G01 X63.1012 Y90.9393
G01 X63.1225 Y90.9036
G01 X63.1473 Y90.8702
G01 X63.1752 Y90.8394
G01 X63.2060 Y90.8115
G01 X63.2394 Y90.7867
G01 X63.2751 Y90.7654
G01 X63.3127 Y90.7476
G01 X63.3518 Y90.7336
G01 X63.3921 Y90.7235
G01 X63.4333 Y90.7174
G01 X63.4748 Y90.7153
G01 X63.5163 Y90.7174
G01 X63.5575 Y90.7235
G01 X63.5978 Y90.7336
G01 X63.6369 Y90.7476
G01 X63.6745 Y90.7654
G01 X63.7102 Y90.7867
G01 X63.7436 Y90.8115
G01 X63.7744 Y90.8394
G01 X63.8023 Y90.8702
G01 X63.8271 Y90.9036
G01 X63.8484 Y90.9393
G01 X63.8662 Y90.9769
G01 X63.8802 Y91.0160
G01 X63.8903 Y91.0563
G01 X63.8964 Y91.0975
G01 X63.8985 Y91.1390
G01 X63.8964 Y91.1805
G01 X63.8903 Y91.2217
G01 X63.8802 Y91.2620
G01 X63.8662 Y91.3011
G01 X63.8484 Y91.3387
G01 X63.8271 Y91.3744
G01 X63.8023 Y91.4078
G01 X63.7744 Y91.4386
G01 X63.7436 Y91.4665
G01 X63.7102 Y91.4913
G01 X63.6745 Y91.5126
G01 X63.6369 Y91.5304
G01 X63.5978 Y91.5444
G01 X63.5575 Y91.5545
G01 X63.5163 Y91.5606
G01 X63.4748 Y91.5627
G01 X63.4333 Y91.5606
G01 X63.3921 Y91.5545
G01 X63.3518 Y91.5444
G01 X63.3127 Y91.5304
G01 X63.2751 Y91.5126
G01 X63.2394 Y91.4913
G01 X63.2060 Y91.4665
G01 X63.1752 Y91.4386
G01 X63.1473 Y91.4078
G01 X63.1225 Y91.3744
G01 X63.1012 Y91.3387
G01 X63.0834 Y91.3011
G01 X63.0694 Y91.2620
G01 X63.0593 Y91.2217
G01 X63.0532 Y91.1805
G01 X63.0511 Y91.1390
G00 X63.0511 Y91.1390
G01 F100.00
G01 Z-4.8000
G01 F200.00
G01 X63.0532 Y91.0975
G01 X63.0593 Y91.0563
G01 X63.0694 Y91.0160
G01 X63.0834 Y90.9769
G01 X63.1012 Y90.9393
G01 X63.1225 Y90.9036
G01 X63.1473 Y90.8702
G01 X63.1752 Y90.8394
G01 X63.2060 Y90.8115
G01 X63.2394 Y90.7867
G01 X63.2751 Y90.7654
G01 X63.3127 Y90.7476
G01 X63.3518 Y90.7336
G01 X63.3921 Y90.7235
G01 X63.4333 Y90.7174
G01 X63.4748 Y90.7153
G01 X63.5163 Y90.7174
G01 X63.5575 Y90.7235
G01 X63.5978 Y90.7336
G01 X63.6369 Y90.7476
G01 X63.6745 Y90.7654
G01 X63.7102 Y90.7867
G01 X63.7436 Y90.8115
G01 X63.7744 Y90.8394
G01 X63.8023 Y90.8702
G01 X63.8271 Y90.9036
G01 X63.8484 Y90.9393
G01 X63.8662 Y90.9769
G01 X63.8802 Y91.0160
G01 X63.8903 Y91.0563
G01 X63.8964 Y91.0975
G01 X63.8985 Y91.1390
G01 X63.8964 Y91.1805
G01 X63.8903 Y91.2217
G01 X63.8802 Y91.2620
G01 X63.8662 Y91.3011
G01 X63.8484 Y91.3387
G01 X63.8271 Y91.3744
G01 X63.8023 Y91.4078
G01 X63.7744 Y91.4386
G01 X63.7436 Y91.4665
G01 X63.7102 Y91.4913
G01 X63.6745 Y91.5126
G01 X63.6369 Y91.5304
G01 X63.5978 Y91.5444
G01 X63.5575 Y91.5545
G01 X63.5163 Y91.5606
G01 X63.4748 Y91.5627
G01 X63.4333 Y91.5606
G01 X63.3921 Y91.5545
G01 X63.3518 Y91.5444
G01 X63.3127 Y91.5304
G01 X63.2751 Y91.5126
G01 X63.2394 Y91.4913
G01 X63.2060 Y91.4665
G01 X63.1752 Y91.4386
G01 X63.1473 Y91.4078
G01 X63.1225 Y91.3744
G01 X63.1012 Y91.3387
G01 X63.0834 Y91.3011
G01 X63.0694 Y91.2620
G01 X63.0593 Y91.2217
G01 X63.0532 Y91.1805
G01 X63.0511 Y91.1390
G00 X63.0511 Y91.1390
G01 F100.00
G01 Z-6.0000
G01 F200.00
G01 X63.0532 Y91.0975
G01 X63.0593 Y91.0563
G01 X63.0694 Y91.0160
G01 X63.0834 Y90.9769
G01 X63.1012 Y90.9393
G01 X63.1225 Y90.9036
G01 X63.1473 Y90.8702
G01 X63.1752 Y90.8394
G01 X63.2060 Y90.8115
G01 X63.2394 Y90.7867
G01 X63.2751 Y90.7654
G01 X63.3127 Y90.7476
G01 X63.3518 Y90.7336
G01 X63.3921 Y90.7235
G01 X63.4333 Y90.7174
G01 X63.4748 Y90.7153
G01 X63.5163 Y90.7174
G01 X63.5575 Y90.7235
G01 X63.5978 Y90.7336
G01 X63.6369 Y90.7476
G01 X63.6745 Y90.7654
G01 X63.7102 Y90.7867
G01 X63.7436 Y90.8115
G01 X63.7744 Y90.8394
G01 X63.8023 Y90.8702
G01 X63.8271 Y90.9036
G01 X63.8484 Y90.9393
G01 X63.8662 Y90.9769
G01 X63.8802 Y91.0160
G01 X63.8903 Y91.0563
G01 X63.8964 Y91.0975
G01 X63.8985 Y91.1390
G01 X63.8964 Y91.1805
G01 X63.8903 Y91.2217
G01 X63.8802 Y91.2620
G01 X63.8662 Y91.3011
G01 X63.8484 Y91.3387
G01 X63.8271 Y91.3744
G01 X63.8023 Y91.4078
G01 X63.7744 Y91.4386
G01 X63.7436 Y91.4665
G01 X63.7102 Y91.4913
G01 X63.6745 Y91.5126
G01 X63.6369 Y91.5304
G01 X63.5978 Y91.5444
G01 X63.5575 Y91.5545
G01 X63.5163 Y91.5606
G01 X63.4748 Y91.5627
G01 X63.4333 Y91.5606
G01 X63.3921 Y91.5545
G01 X63.3518 Y91.5444
G01 X63.3127 Y91.5304
G01 X63.2751 Y91.5126
G01 X63.2394 Y91.4913
G01 X63.2060 Y91.4665
G01 X63.1752 Y91.4386
G01 X63.1473 Y91.4078
G01 X63.1225 Y91.3744
G01 X63.1012 Y91.3387
G01 X63.0834 Y91.3011
G01 X63.0694 Y91.2620
G01 X63.0593 Y91.2217
G01 X63.0532 Y91.1805
G01 X63.0511 Y91.1390
G00 X63.0511 Y91.1390
G01 F100.00
G01 Z-7.2000
G01 F200.00
G01 X63.0532 Y91.0975
G01 X63.0593 Y91.0563
G01 X63.0694 Y91.0160
G01 X63.0834 Y90.9769
G01 X63.1012 Y90.9393
G01 X63.1225 Y90.9036
G01 X63.1473 Y90.8702
G01 X63.1752 Y90.8394
G01 X63.2060 Y90.8115
G01 X63.2394 Y90.7867
G01 X63.2751 Y90.7654
G01 X63.3127 Y90.7476
G01 X63.3518 Y90.7336
G01 X63.3921 Y90.7235
G01 X63.4333 Y90.7174
G01 X63.4748 Y90.7153
G01 X63.5163 Y90.7174
G01 X63.5575 Y90.7235
G01 X63.5978 Y90.7336
G01 X63.6369 Y90.7476
G01 X63.6745 Y90.7654
G01 X63.7102 Y90.7867
G01 X63.7436 Y90.8115
G01 X63.7744 Y90.8394
G01 X63.8023 Y90.8702
G01 X63.8271 Y90.9036
G01 X63.8484 Y90.9393
G01 X63.8662 Y90.9769
G01 X63.8802 Y91.0160
G01 X63.8903 Y91.0563
G01 X63.8964 Y91.0975
G01 X63.8985 Y91.1390
G01 X63.8964 Y91.1805
G01 X63.8903 Y91.2217
G01 X63.8802 Y91.2620
G01 X63.8662 Y91.3011
G01 X63.8484 Y91.3387
G01 X63.8271 Y91.3744
G01 X63.8023 Y91.4078
G01 X63.7744 Y91.4386
G01 X63.7436 Y91.4665
G01 X63.7102 Y91.4913
G01 X63.6745 Y91.5126
G01 X63.6369 Y91.5304
G01 X63.5978 Y91.5444
G01 X63.5575 Y91.5545
G01 X63.5163 Y91.5606
G01 X63.4748 Y91.5627
G01 X63.4333 Y91.5606
G01 X63.3921 Y91.5545
G01 X63.3518 Y91.5444
G01 X63.3127 Y91.5304
G01 X63.2751 Y91.5126
G01 X63.2394 Y91.4913
G01 X63.2060 Y91.4665
G01 X63.1752 Y91.4386
G01 X63.1473 Y91.4078
G01 X63.1225 Y91.3744
G01 X63.1012 Y91.3387
G01 X63.0834 Y91.3011
G01 X63.0694 Y91.2620
G01 X63.0593 Y91.2217
G01 X63.0532 Y91.1805
G01 X63.0511 Y91.1390
G00 X63.0511 Y91.1390
G01 F100.00
G01 Z-8.4000
G01 F200.00
G01 X63.0532 Y91.0975
G01 X63.0593 Y91.0563
G01 X63.0694 Y91.0160
G01 X63.0834 Y90.9769
G01 X63.1012 Y90.9393
G01 X63.1225 Y90.9036
G01 X63.1473 Y90.8702
G01 X63.1752 Y90.8394
G01 X63.2060 Y90.8115
G01 X63.2394 Y90.7867
G01 X63.2751 Y90.7654
G01 X63.3127 Y90.7476
G01 X63.3518 Y90.7336
G01 X63.3921 Y90.7235
G01 X63.4333 Y90.7174
G01 X63.4748 Y90.7153
G01 X63.5163 Y90.7174
G01 X63.5575 Y90.7235
G01 X63.5978 Y90.7336
G01 X63.6369 Y90.7476
G01 X63.6745 Y90.7654
G01 X63.7102 Y90.7867
G01 X63.7436 Y90.8115
G01 X63.7744 Y90.8394
G01 X63.8023 Y90.8702
G01 X63.8271 Y90.9036
G01 X63.8484 Y90.9393
G01 X63.8662 Y90.9769
G01 X63.8802 Y91.0160
G01 X63.8903 Y91.0563
G01 X63.8964 Y91.0975
G01 X63.8985 Y91.1390
G01 X63.8964 Y91.1805
G01 X63.8903 Y91.2217
G01 X63.8802 Y91.2620
G01 X63.8662 Y91.3011
G01 X63.8484 Y91.3387
G01 X63.8271 Y91.3744
G01 X63.8023 Y91.4078
G01 X63.7744 Y91.4386
G01 X63.7436 Y91.4665
G01 X63.7102 Y91.4913
G01 X63.6745 Y91.5126
G01 X63.6369 Y91.5304
G01 X63.5978 Y91.5444
G01 X63.5575 Y91.5545
G01 X63.5163 Y91.5606
G01 X63.4748 Y91.5627
G01 X63.4333 Y91.5606
G01 X63.3921 Y91.5545
G01 X63.3518 Y91.5444
G01 X63.3127 Y91.5304
G01 X63.2751 Y91.5126
G01 X63.2394 Y91.4913
G01 X63.2060 Y91.4665
G01 X63.1752 Y91.4386
G01 X63.1473 Y91.4078
G01 X63.1225 Y91.3744
G01 X63.1012 Y91.3387
G01 X63.0834 Y91.3011
G01 X63.0694 Y91.2620
G01 X63.0593 Y91.2217
G01 X63.0532 Y91.1805
G01 X63.0511 Y91.1390
G00 X63.0511 Y91.1390
G01 F100.00
G01 Z-9.6000
G01 F200.00
G01 X63.0532 Y91.0975
G01 X63.0593 Y91.0563
G01 X63.0694 Y91.0160
G01 X63.0834 Y90.9769
G01 X63.1012 Y90.9393
G01 X63.1225 Y90.9036
G01 X63.1473 Y90.8702
G01 X63.1752 Y90.8394
G01 X63.2060 Y90.8115
G01 X63.2394 Y90.7867
G01 X63.2751 Y90.7654
G01 X63.3127 Y90.7476
G01 X63.3518 Y90.7336
G01 X63.3921 Y90.7235
G01 X63.4333 Y90.7174
G01 X63.4748 Y90.7153
G01 X63.5163 Y90.7174
G01 X63.5575 Y90.7235
G01 X63.5978 Y90.7336
G01 X63.6369 Y90.7476
G01 X63.6745 Y90.7654
G01 X63.7102 Y90.7867
G01 X63.7436 Y90.8115
G01 X63.7744 Y90.8394
G01 X63.8023 Y90.8702
G01 X63.8271 Y90.9036
G01 X63.8484 Y90.9393
G01 X63.8662 Y90.9769
G01 X63.8802 Y91.0160
G01 X63.8903 Y91.0563
G01 X63.8964 Y91.0975
G01 X63.8985 Y91.1390
G01 X63.8964 Y91.1805
G01 X63.8903 Y91.2217
G01 X63.8802 Y91.2620
G01 X63.8662 Y91.3011
G01 X63.8484 Y91.3387
G01 X63.8271 Y91.3744
G01 X63.8023 Y91.4078
G01 X63.7744 Y91.4386
G01 X63.7436 Y91.4665
G01 X63.7102 Y91.4913
G01 X63.6745 Y91.5126
G01 X63.6369 Y91.5304
G01 X63.5978 Y91.5444
G01 X63.5575 Y91.5545
G01 X63.5163 Y91.5606
G01 X63.4748 Y91.5627
G01 X63.4333 Y91.5606
G01 X63.3921 Y91.5545
G01 X63.3518 Y91.5444
G01 X63.3127 Y91.5304
G01 X63.2751 Y91.5126
G01 X63.2394 Y91.4913
G01 X63.2060 Y91.4665
G01 X63.1752 Y91.4386
G01 X63.1473 Y91.4078
G01 X63.1225 Y91.3744
G01 X63.1012 Y91.3387
G01 X63.0834 Y91.3011
G01 X63.0694 Y91.2620
G01 X63.0593 Y91.2217
G01 X63.0532 Y91.1805
G01 X63.0511 Y91.1390
G00 X63.0511 Y91.1390
G01 F100.00
G01 Z-10.2000
G01 F200.00
G01 X63.0532 Y91.0975
G01 X63.0593 Y91.0563
G01 X63.0694 Y91.0160
G01 X63.0834 Y90.9769
G01 X63.1012 Y90.9393
G01 X63.1225 Y90.9036
G01 X63.1473 Y90.8702
G01 X63.1752 Y90.8394
G01 X63.2060 Y90.8115
G01 X63.2394 Y90.7867
G01 X63.2751 Y90.7654
G01 X63.3127 Y90.7476
G01 X63.3518 Y90.7336
G01 X63.3921 Y90.7235
G01 X63.4333 Y90.7174
G01 X63.4748 Y90.7153
G01 X63.5163 Y90.7174
G01 X63.5575 Y90.7235
G01 X63.5978 Y90.7336
G01 X63.6369 Y90.7476
G01 X63.6745 Y90.7654
G01 X63.7102 Y90.7867
G01 X63.7436 Y90.8115
G01 X63.7744 Y90.8394
G01 X63.8023 Y90.8702
G01 X63.8271 Y90.9036
G01 X63.8484 Y90.9393
G01 X63.8662 Y90.9769
G01 X63.8802 Y91.0160
G01 X63.8903 Y91.0563
G01 X63.8964 Y91.0975
G01 X63.8985 Y91.1390
G01 X63.8964 Y91.1805
G01 X63.8903 Y91.2217
G01 X63.8802 Y91.2620
G01 X63.8662 Y91.3011
G01 X63.8484 Y91.3387
G01 X63.8271 Y91.3744
G01 X63.8023 Y91.4078
G01 X63.7744 Y91.4386
G01 X63.7436 Y91.4665
G01 X63.7102 Y91.4913
G01 X63.6745 Y91.5126
G01 X63.6369 Y91.5304
G01 X63.5978 Y91.5444
G01 X63.5575 Y91.5545
G01 X63.5163 Y91.5606
G01 X63.4748 Y91.5627
G01 X63.4333 Y91.5606
G01 X63.3921 Y91.5545
G01 X63.3518 Y91.5444
G01 X63.3127 Y91.5304
G01 X63.2751 Y91.5126
G01 X63.2394 Y91.4913
G01 X63.2060 Y91.4665
G01 X63.1752 Y91.4386
G01 X63.1473 Y91.4078
G01 X63.1225 Y91.3744
G01 X63.1012 Y91.3387
G01 X63.0834 Y91.3011
G01 X63.0694 Y91.2620
G01 X63.0593 Y91.2217
G01 X63.0532 Y91.1805
G01 X63.0511 Y91.1390
G00 Z2.0000
G00 X26.0511 Y91.1390
G01 F100.00
G01 Z-1.2000
G01 F200.00
G01 X26.0532 Y91.0975
G01 X26.0593 Y91.0563
G01 X26.0694 Y91.0160
G01 X26.0834 Y90.9769
G01 X26.1012 Y90.9393
G01 X26.1225 Y90.9036
G01 X26.1473 Y90.8702
G01 X26.1752 Y90.8394
G01 X26.2060 Y90.8115
G01 X26.2394 Y90.7867
G01 X26.2751 Y90.7654
G01 X26.3127 Y90.7476
G01 X26.3518 Y90.7336
G01 X26.3921 Y90.7235
G01 X26.4333 Y90.7174
G01 X26.4748 Y90.7153
G01 X26.5163 Y90.7174
G01 X26.5575 Y90.7235
G01 X26.5978 Y90.7336
G01 X26.6369 Y90.7476
G01 X26.6745 Y90.7654
G01 X26.7102 Y90.7867
G01 X26.7436 Y90.8115
G01 X26.7744 Y90.8394
G01 X26.8023 Y90.8702
G01 X26.8271 Y90.9036
G01 X26.8484 Y90.9393
G01 X26.8662 Y90.9769
G01 X26.8802 Y91.0160
G01 X26.8903 Y91.0563
G01 X26.8964 Y91.0975
G01 X26.8985 Y91.1390
G01 X26.8964 Y91.1805
G01 X26.8903 Y91.2217
G01 X26.8802 Y91.2620
G01 X26.8662 Y91.3011
G01 X26.8484 Y91.3387
G01 X26.8271 Y91.3744
G01 X26.8023 Y91.4078
G01 X26.7744 Y91.4386
G01 X26.7436 Y91.4665
G01 X26.7102 Y91.4913
G01 X26.6745 Y91.5126
G01 X26.6369 Y91.5304
G01 X26.5978 Y91.5444
G01 X26.5575 Y91.5545
G01 X26.5163 Y91.5606
G01 X26.4748 Y91.5627
G01 X26.4333 Y91.5606
G01 X26.3921 Y91.5545
G01 X26.3518 Y91.5444
G01 X26.3127 Y91.5304
G01 X26.2751 Y91.5126
G01 X26.2394 Y91.4913
